(G-CODE GENERATED BY FLATCAM v8.994 - www.flatcam.org - Version Date: 2020/11/7)

(Name: HARDWARE-B_Cu.gbr_iso_combined_cnc)
(Type: G-code from Geometry)
(Units: MM)

(Created on Tuesday, 13 July 2021 at 15:54)

(This preprocessor is the default preprocessor used by FlatCAM.)
(It is made to work with MACH3 compatible motion controllers.)

(TOOL DIAMETER: 0.1 mm)
(Feedrate_XY: 120.0 mm/min)
(Feedrate_Z: 60.0 mm/min)
(Feedrate rapids 1500.0 mm/min)

(Z_Cut: -0.0 mm)
(Z_Move: 2.0 mm)
(Z Start: None mm)
(Z End: 15.0 mm)
(X,Y End: None mm)
(Steps per circle: 64)
(Preprocessor Geometry: default)

(X range:    0.9699 ...   54.9501  mm)
(Y range:  -56.6501 ...   -2.7050  mm)

(Spindle Speed: 0.0 RPM)
G21
G90
G94

G01 F120.00

M5
G00 Z15.0000
G00 X0.0000 Y0.0000
T1
M6    
(MSG, Change to Tool Dia = 0.1000)
M0
G00 Z15.0000

M03
G01 F120.00
G00 X3.8449 Y-3.6275
G01 F60.00
G01 Z-0.0000
G01 F120.00
G01 X3.8419 Y-3.5613
G01 X3.8325 Y-3.4982
G01 X3.8170 Y-3.4363
G01 X3.7955 Y-3.3763
G01 X3.7682 Y-3.3186
G01 X3.7355 Y-3.2639
G01 X3.6975 Y-3.2126
G01 X3.6546 Y-3.1654
G01 X3.6074 Y-3.1225
G01 X3.5561 Y-3.0845
G01 X3.5014 Y-3.0518
G01 X3.4437 Y-3.0245
G01 X3.3837 Y-3.0030
G01 X3.3218 Y-2.9875
G01 X3.2587 Y-2.9781
G01 X3.1950 Y-2.9750
G01 X3.1313 Y-2.9781
G01 X3.0682 Y-2.9875
G01 X3.0063 Y-3.0030
G01 X2.9463 Y-3.0245
G01 X2.8886 Y-3.0518
G01 X2.8339 Y-3.0845
G01 X2.7826 Y-3.1225
G01 X2.7354 Y-3.1654
G01 X2.6925 Y-3.2126
G01 X2.6545 Y-3.2639
G01 X2.6218 Y-3.3186
G01 X2.5945 Y-3.3763
G01 X2.5730 Y-3.4363
G01 X2.5575 Y-3.4982
G01 X2.5481 Y-3.5613
G01 X2.5450 Y-3.6250
G01 X2.5481 Y-3.6887
G01 X2.5575 Y-3.7518
G01 X2.5730 Y-3.8137
G01 X2.5945 Y-3.8737
G01 X2.6218 Y-3.9314
G01 X2.6545 Y-3.9861
G01 X2.6925 Y-4.0374
G01 X2.7354 Y-4.0846
G01 X2.7826 Y-4.1275
G01 X2.8339 Y-4.1655
G01 X2.8886 Y-4.1982
G01 X2.9463 Y-4.2255
G01 X3.0063 Y-4.2470
G01 X3.0682 Y-4.2625
G01 X3.1313 Y-4.2719
G01 X3.1950 Y-4.2750
G01 X3.2587 Y-4.2719
G01 X3.3218 Y-4.2625
G01 X3.3837 Y-4.2470
G01 X3.4437 Y-4.2255
G01 X3.5014 Y-4.1982
G01 X3.5561 Y-4.1655
G01 X3.6074 Y-4.1275
G01 X3.6546 Y-4.0846
G01 X3.6975 Y-4.0374
G01 X3.7355 Y-3.9861
G01 X3.7682 Y-3.9314
G01 X3.7955 Y-3.8737
G01 X3.8170 Y-3.8137
G01 X3.8325 Y-3.7518
G01 X3.8419 Y-3.6887
G01 X3.8449 Y-3.6275
G00 Z2.0000
G00 X3.9348 Y-3.6319
G01 F60.00
G01 Z-0.0000
G01 F120.00
G01 X3.9348 Y-3.6181
G01 X3.9314 Y-3.5525
G01 X3.9208 Y-3.4806
G01 X3.9031 Y-3.4102
G01 X3.8787 Y-3.3418
G01 X3.8476 Y-3.2762
G01 X3.8103 Y-3.2139
G01 X3.7670 Y-3.1555
G01 X3.7183 Y-3.1017
G01 X3.6645 Y-3.0530
G01 X3.6061 Y-3.0097
G01 X3.5438 Y-2.9724
G01 X3.4782 Y-2.9413
G01 X3.4098 Y-2.9169
G01 X3.3394 Y-2.8992
G01 X3.2675 Y-2.8886
G01 X3.1950 Y-2.8850
G01 X3.1225 Y-2.8886
G01 X3.0506 Y-2.8992
G01 X2.9802 Y-2.9169
G01 X2.9118 Y-2.9413
G01 X2.8462 Y-2.9724
G01 X2.7839 Y-3.0097
G01 X2.7255 Y-3.0530
G01 X2.6717 Y-3.1017
G01 X2.6230 Y-3.1555
G01 X2.5797 Y-3.2139
G01 X2.5424 Y-3.2762
G01 X2.5113 Y-3.3418
G01 X2.4869 Y-3.4102
G01 X2.4692 Y-3.4806
G01 X2.4586 Y-3.5525
G01 X2.4550 Y-3.6250
G01 X2.4586 Y-3.6975
G01 X2.4692 Y-3.7694
G01 X2.4869 Y-3.8398
G01 X2.5113 Y-3.9082
G01 X2.5424 Y-3.9738
G01 X2.5797 Y-4.0361
G01 X2.6230 Y-4.0945
G01 X2.6717 Y-4.1483
G01 X2.7255 Y-4.1970
G01 X2.7839 Y-4.2403
G01 X2.8462 Y-4.2776
G01 X2.9118 Y-4.3087
G01 X2.9802 Y-4.3331
G01 X3.0506 Y-4.3508
G01 X3.1225 Y-4.3614
G01 X3.1950 Y-4.3650
G01 X3.2675 Y-4.3614
G01 X3.3394 Y-4.3508
G01 X3.4098 Y-4.3331
G01 X3.4782 Y-4.3087
G01 X3.5438 Y-4.2776
G01 X3.6061 Y-4.2403
G01 X3.6645 Y-4.1970
G01 X3.7183 Y-4.1483
G01 X3.7670 Y-4.0945
G01 X3.8103 Y-4.0361
G01 X3.8476 Y-3.9738
G01 X3.8787 Y-3.9082
G01 X3.9031 Y-3.8398
G01 X3.9208 Y-3.7694
G01 X3.9314 Y-3.6975
G01 X3.9348 Y-3.6319
G00 Z2.0000
G00 X4.0247 Y-3.6363
G01 F60.00
G01 Z-0.0000
G01 F120.00
G01 X4.0250 Y-3.6250
G01 X4.0247 Y-3.6137
G01 X4.0210 Y-3.5436
G01 X4.0110 Y-3.4742
G01 X4.0091 Y-3.4631
G01 X4.0066 Y-3.4521
G01 X3.9893 Y-3.3841
G01 X3.9659 Y-3.3179
G01 X3.9618 Y-3.3074
G01 X3.9321 Y-3.2438
G01 X3.9270 Y-3.2337
G01 X3.9214 Y-3.2239
G01 X3.8851 Y-3.1639
G01 X3.8786 Y-3.1546
G01 X3.8366 Y-3.0985
G01 X3.7897 Y-3.0463
G01 X3.7819 Y-3.0381
G01 X3.7737 Y-3.0303
G01 X3.7215 Y-2.9834
G01 X3.6654 Y-2.9414
G01 X3.6561 Y-2.9349
G01 X3.6466 Y-2.9288
G01 X3.5863 Y-2.8930
G01 X3.5762 Y-2.8879
G01 X3.5126 Y-2.8582
G01 X3.4467 Y-2.8343
G01 X3.4359 Y-2.8307
G01 X3.4251 Y-2.8277
G01 X3.3569 Y-2.8109
G01 X3.2876 Y-2.8004
G01 X3.2764 Y-2.7990
G01 X3.2651 Y-2.7982
G01 X3.1950 Y-2.7950
G01 X3.1249 Y-2.7982
G01 X3.1136 Y-2.7990
G01 X3.1024 Y-2.8004
G01 X3.0331 Y-2.8109
G01 X2.9649 Y-2.8277
G01 X2.9541 Y-2.8307
G01 X2.9433 Y-2.8343
G01 X2.8774 Y-2.8582
G01 X2.8138 Y-2.8879
G01 X2.8037 Y-2.8930
G01 X2.7434 Y-2.9288
G01 X2.7339 Y-2.9349
G01 X2.7246 Y-2.9414
G01 X2.6685 Y-2.9834
G01 X2.6599 Y-2.9908
G01 X2.6081 Y-3.0381
G01 X2.5608 Y-3.0899
G01 X2.5534 Y-3.0985
G01 X2.5465 Y-3.1074
G01 X2.5049 Y-3.1639
G01 X2.4686 Y-3.2239
G01 X2.4630 Y-3.2337
G01 X2.4579 Y-3.2438
G01 X2.4282 Y-3.3074
G01 X2.4043 Y-3.3733
G01 X2.4007 Y-3.3841
G01 X2.3834 Y-3.4521
G01 X2.3809 Y-3.4631
G01 X2.3790 Y-3.4742
G01 X2.3690 Y-3.5436
G01 X2.3682 Y-3.5549
G01 X2.3650 Y-3.6250
G01 X2.3682 Y-3.6951
G01 X2.3690 Y-3.7064
G01 X2.3704 Y-3.7176
G01 X2.3809 Y-3.7869
G01 X2.3834 Y-3.7979
G01 X2.4007 Y-3.8659
G01 X2.4241 Y-3.9321
G01 X2.4282 Y-3.9426
G01 X2.4579 Y-4.0062
G01 X2.4630 Y-4.0163
G01 X2.4988 Y-4.0766
G01 X2.5049 Y-4.0861
G01 X2.5114 Y-4.0954
G01 X2.5534 Y-4.1515
G01 X2.6003 Y-4.2037
G01 X2.6081 Y-4.2119
G01 X2.6163 Y-4.2197
G01 X2.6685 Y-4.2666
G01 X2.7246 Y-4.3086
G01 X2.7339 Y-4.3151
G01 X2.7434 Y-4.3212
G01 X2.8037 Y-4.3570
G01 X2.8138 Y-4.3621
G01 X2.8774 Y-4.3918
G01 X2.9433 Y-4.4157
G01 X2.9541 Y-4.4193
G01 X2.9649 Y-4.4223
G01 X3.0331 Y-4.4391
G01 X3.1024 Y-4.4496
G01 X3.1136 Y-4.4510
G01 X3.1249 Y-4.4518
G01 X3.1950 Y-4.4550
G01 X3.2651 Y-4.4518
G01 X3.2764 Y-4.4510
G01 X3.2876 Y-4.4496
G01 X3.3569 Y-4.4391
G01 X3.4251 Y-4.4223
G01 X3.4359 Y-4.4193
G01 X3.4467 Y-4.4157
G01 X3.5126 Y-4.3918
G01 X3.5762 Y-4.3621
G01 X3.5863 Y-4.3570
G01 X3.6466 Y-4.3212
G01 X3.6561 Y-4.3151
G01 X3.6654 Y-4.3086
G01 X3.7215 Y-4.2666
G01 X3.7301 Y-4.2592
G01 X3.7819 Y-4.2119
G01 X3.8292 Y-4.1601
G01 X3.8366 Y-4.1515
G01 X3.8435 Y-4.1426
G01 X3.8851 Y-4.0861
G01 X3.9214 Y-4.0261
G01 X3.9270 Y-4.0163
G01 X3.9321 Y-4.0062
G01 X3.9618 Y-3.9426
G01 X3.9659 Y-3.9321
G01 X3.9893 Y-3.8659
G01 X4.0066 Y-3.7979
G01 X4.0091 Y-3.7869
G01 X4.0196 Y-3.7176
G01 X4.0210 Y-3.7064
G01 X4.0247 Y-3.6363
G00 Z2.0000
G00 X4.1146 Y-3.6407
G01 F60.00
G01 Z-0.0000
G01 F120.00
G01 X4.1150 Y-3.6250
G01 X4.1146 Y-3.6093
G01 X4.1117 Y-3.5505
G01 X4.1106 Y-3.5348
G01 X4.1086 Y-3.5192
G01 X4.1000 Y-3.4610
G01 X4.0973 Y-3.4455
G01 X4.0939 Y-3.4302
G01 X4.0796 Y-3.3731
G01 X4.0754 Y-3.3579
G01 X4.0705 Y-3.3430
G01 X4.0506 Y-3.2876
G01 X4.0450 Y-3.2729
G01 X4.0386 Y-3.2586
G01 X4.0134 Y-3.2053
G01 X4.0064 Y-3.1913
G01 X3.9986 Y-3.1776
G01 X3.9684 Y-3.1271
G01 X3.9600 Y-3.1139
G01 X3.9509 Y-3.1010
G01 X3.9158 Y-3.0537
G01 X3.9062 Y-3.0414
G01 X3.8959 Y-3.0295
G01 X3.8564 Y-2.9858
G01 X3.8455 Y-2.9745
G01 X3.8342 Y-2.9636
G01 X3.7905 Y-2.9241
G01 X3.7786 Y-2.9138
G01 X3.7663 Y-2.9042
G01 X3.7190 Y-2.8691
G01 X3.7061 Y-2.8600
G01 X3.6929 Y-2.8516
G01 X3.6424 Y-2.8214
G01 X3.6287 Y-2.8136
G01 X3.6147 Y-2.8066
G01 X3.5614 Y-2.7814
G01 X3.5471 Y-2.7750
G01 X3.5324 Y-2.7694
G01 X3.4770 Y-2.7495
G01 X3.4621 Y-2.7446
G01 X3.4469 Y-2.7404
G01 X3.3898 Y-2.7261
G01 X3.3745 Y-2.7227
G01 X3.3590 Y-2.7200
G01 X3.3008 Y-2.7114
G01 X3.2852 Y-2.7094
G01 X3.2695 Y-2.7083
G01 X3.2107 Y-2.7054
G01 X3.1950 Y-2.7050
G01 X3.1793 Y-2.7054
G01 X3.1205 Y-2.7083
G01 X3.1048 Y-2.7094
G01 X3.0892 Y-2.7114
G01 X3.0310 Y-2.7200
G01 X3.0155 Y-2.7227
G01 X3.0002 Y-2.7261
G01 X2.9431 Y-2.7404
G01 X2.9279 Y-2.7446
G01 X2.9130 Y-2.7495
G01 X2.8576 Y-2.7694
G01 X2.8429 Y-2.7750
G01 X2.8286 Y-2.7814
G01 X2.7753 Y-2.8066
G01 X2.7613 Y-2.8136
G01 X2.7476 Y-2.8214
G01 X2.6971 Y-2.8516
G01 X2.6839 Y-2.8600
G01 X2.6710 Y-2.8691
G01 X2.6237 Y-2.9042
G01 X2.6114 Y-2.9138
G01 X2.5995 Y-2.9241
G01 X2.5558 Y-2.9636
G01 X2.5445 Y-2.9745
G01 X2.5336 Y-2.9858
G01 X2.4941 Y-3.0295
G01 X2.4838 Y-3.0414
G01 X2.4742 Y-3.0537
G01 X2.4391 Y-3.1010
G01 X2.4300 Y-3.1139
G01 X2.4216 Y-3.1271
G01 X2.3914 Y-3.1776
G01 X2.3836 Y-3.1913
G01 X2.3766 Y-3.2053
G01 X2.3514 Y-3.2586
G01 X2.3450 Y-3.2729
G01 X2.3394 Y-3.2876
G01 X2.3195 Y-3.3430
G01 X2.3146 Y-3.3579
G01 X2.3104 Y-3.3731
G01 X2.2961 Y-3.4302
G01 X2.2927 Y-3.4455
G01 X2.2900 Y-3.4610
G01 X2.2814 Y-3.5192
G01 X2.2794 Y-3.5348
G01 X2.2783 Y-3.5505
G01 X2.2754 Y-3.6093
G01 X2.2750 Y-3.6250
G01 X2.2754 Y-3.6407
G01 X2.2783 Y-3.6995
G01 X2.2794 Y-3.7152
G01 X2.2814 Y-3.7308
G01 X2.2900 Y-3.7890
G01 X2.2927 Y-3.8045
G01 X2.2961 Y-3.8198
G01 X2.3104 Y-3.8769
G01 X2.3146 Y-3.8921
G01 X2.3195 Y-3.9070
G01 X2.3394 Y-3.9624
G01 X2.3450 Y-3.9771
G01 X2.3514 Y-3.9914
G01 X2.3766 Y-4.0447
G01 X2.3836 Y-4.0587
G01 X2.3914 Y-4.0724
G01 X2.4216 Y-4.1229
G01 X2.4300 Y-4.1361
G01 X2.4391 Y-4.1490
G01 X2.4742 Y-4.1963
G01 X2.4838 Y-4.2086
G01 X2.4941 Y-4.2205
G01 X2.5336 Y-4.2642
G01 X2.5445 Y-4.2755
G01 X2.5558 Y-4.2864
G01 X2.5995 Y-4.3259
G01 X2.6114 Y-4.3362
G01 X2.6237 Y-4.3458
G01 X2.6710 Y-4.3809
G01 X2.6839 Y-4.3900
G01 X2.6971 Y-4.3984
G01 X2.7476 Y-4.4286
G01 X2.7613 Y-4.4364
G01 X2.7753 Y-4.4434
G01 X2.8286 Y-4.4686
G01 X2.8429 Y-4.4750
G01 X2.8576 Y-4.4806
G01 X2.9130 Y-4.5005
G01 X2.9279 Y-4.5054
G01 X2.9431 Y-4.5096
G01 X3.0002 Y-4.5239
G01 X3.0155 Y-4.5273
G01 X3.0310 Y-4.5300
G01 X3.0892 Y-4.5386
G01 X3.1048 Y-4.5406
G01 X3.1205 Y-4.5417
G01 X3.1793 Y-4.5446
G01 X3.1950 Y-4.5450
G01 X3.2107 Y-4.5446
G01 X3.2695 Y-4.5417
G01 X3.2852 Y-4.5406
G01 X3.3008 Y-4.5386
G01 X3.3590 Y-4.5300
G01 X3.3745 Y-4.5273
G01 X3.3898 Y-4.5239
G01 X3.4469 Y-4.5096
G01 X3.4621 Y-4.5054
G01 X3.4770 Y-4.5005
G01 X3.5324 Y-4.4806
G01 X3.5471 Y-4.4750
G01 X3.5614 Y-4.4686
G01 X3.6147 Y-4.4434
G01 X3.6287 Y-4.4364
G01 X3.6424 Y-4.4286
G01 X3.6929 Y-4.3984
G01 X3.7061 Y-4.3900
G01 X3.7190 Y-4.3809
G01 X3.7663 Y-4.3458
G01 X3.7786 Y-4.3362
G01 X3.7905 Y-4.3259
G01 X3.8342 Y-4.2864
G01 X3.8455 Y-4.2755
G01 X3.8564 Y-4.2642
G01 X3.8959 Y-4.2205
G01 X3.9062 Y-4.2086
G01 X3.9158 Y-4.1963
G01 X3.9509 Y-4.1490
G01 X3.9600 Y-4.1361
G01 X3.9684 Y-4.1229
G01 X3.9986 Y-4.0724
G01 X4.0064 Y-4.0587
G01 X4.0134 Y-4.0447
G01 X4.0386 Y-3.9914
G01 X4.0450 Y-3.9771
G01 X4.0506 Y-3.9624
G01 X4.0705 Y-3.9070
G01 X4.0754 Y-3.8921
G01 X4.0796 Y-3.8769
G01 X4.0939 Y-3.8198
G01 X4.0973 Y-3.8045
G01 X4.1000 Y-3.7890
G01 X4.1086 Y-3.7308
G01 X4.1106 Y-3.7152
G01 X4.1117 Y-3.6995
G01 X4.1146 Y-3.6407
G00 Z2.0000
G00 X11.1456 Y-4.9786
G01 F60.00
G01 Z-0.0000
G01 F120.00
G01 X11.1000 Y-5.0062
G01 X11.0908 Y-5.0127
G01 X11.0503 Y-5.0430
G01 X11.0418 Y-5.0504
G01 X11.0045 Y-5.0845
G01 X10.9704 Y-5.1218
G01 X10.9630 Y-5.1303
G01 X10.9561 Y-5.1392
G01 X10.9294 Y-5.1753
G01 X10.9201 Y-5.1895
G01 X10.8944 Y-5.2330
G01 X10.8893 Y-5.2431
G01 X10.8680 Y-5.2889
G01 X10.8507 Y-5.3364
G01 X10.8471 Y-5.3471
G01 X10.8346 Y-5.3961
G01 X10.8321 Y-5.4071
G01 X10.8302 Y-5.4182
G01 X10.8237 Y-5.4626
G01 X10.8222 Y-5.4795
G01 X10.8200 Y-5.5300
G01 X10.8222 Y-5.5805
G01 X10.8230 Y-5.5918
G01 X10.8302 Y-5.6418
G01 X10.8321 Y-5.6529
G01 X10.8346 Y-5.6639
G01 X10.8471 Y-5.7129
G01 X10.8507 Y-5.7236
G01 X10.8680 Y-5.7711
G01 X10.8893 Y-5.8169
G01 X10.8971 Y-5.8319
G01 X10.9201 Y-5.8705
G01 X10.9262 Y-5.8800
G01 X10.9327 Y-5.8892
G01 X10.9630 Y-5.9297
G01 X10.9967 Y-5.9673
G01 X11.0045 Y-5.9755
G01 X11.0127 Y-5.9833
G01 X11.0503 Y-6.0170
G01 X11.0908 Y-6.0473
G01 X11.1000 Y-6.0538
G01 X11.1432 Y-6.0800
G01 X11.1530 Y-6.0856
G01 X11.1631 Y-6.0907
G01 X11.2089 Y-6.1120
G01 X11.2564 Y-6.1293
G01 X11.2671 Y-6.1329
G01 X11.3161 Y-6.1454
G01 X11.3326 Y-6.1489
G01 X11.3770 Y-6.1556
G01 X11.3882 Y-6.1570
G01 X11.3995 Y-6.1578
G01 X11.4387 Y-6.1597
G01 X11.4556 Y-6.1599
G01 X11.5005 Y-6.1578
G01 X11.5174 Y-6.1563
G01 X11.5729 Y-6.1479
G01 X11.6275 Y-6.1344
G01 X11.6436 Y-6.1293
G01 X11.6806 Y-6.1161
G01 X11.6911 Y-6.1120
G01 X11.7014 Y-6.1075
G01 X11.7470 Y-6.0856
G01 X11.7905 Y-6.0599
G01 X11.8000 Y-6.0538
G01 X11.8092 Y-6.0473
G01 X11.8497 Y-6.0170
G01 X11.8873 Y-5.9833
G01 X11.8955 Y-5.9755
G01 X11.9033 Y-5.9673
G01 X11.9296 Y-5.9382
G01 X11.9405 Y-5.9253
G01 X11.9738 Y-5.8800
G01 X12.0014 Y-5.8344
G01 X13.6057 Y-4.2302
G01 X17.5493 Y-4.2302
G01 X20.2348 Y-6.9157
G01 X20.2348 Y-8.5699
G01 X20.2227 Y-8.5789
G01 X20.2140 Y-8.5861
G01 X20.1511 Y-8.6431
G01 X20.1393 Y-8.6552
G01 X20.0824 Y-8.7183
G01 X20.0755 Y-8.7272
G01 X20.0252 Y-8.7955
G01 X19.9813 Y-8.8682
G01 X19.9757 Y-8.8780
G01 X19.9706 Y-8.8881
G01 X19.9346 Y-8.9650
G01 X19.9057 Y-9.0448
G01 X19.9022 Y-9.0555
G01 X19.8813 Y-9.1378
G01 X19.8788 Y-9.1488
G01 X19.8661 Y-9.2327
G01 X19.8647 Y-9.2439
G01 X19.8639 Y-9.2552
G01 X19.8600 Y-9.3400
G01 X19.8639 Y-9.4248
G01 X19.8647 Y-9.4361
G01 X19.8661 Y-9.4473
G01 X19.8788 Y-9.5312
G01 X19.8992 Y-9.6136
G01 X19.9022 Y-9.6245
G01 X19.9057 Y-9.6352
G01 X19.9346 Y-9.7150
G01 X19.9392 Y-9.7254
G01 X19.9757 Y-9.8020
G01 X20.0191 Y-9.8749
G01 X20.0252 Y-9.8845
G01 X20.0317 Y-9.8937
G01 X20.0789 Y-9.9573
G01 X20.0898 Y-9.9703
G01 X20.1470 Y-10.0330
G01 X20.2097 Y-10.0902
G01 X20.2183 Y-10.0976
G01 X20.2272 Y-10.1045
G01 X20.2955 Y-10.1548
G01 X20.3682 Y-10.1987
G01 X20.3780 Y-10.2043
G01 X20.3881 Y-10.2094
G01 X20.4650 Y-10.2454
G01 X20.5448 Y-10.2743
G01 X20.5555 Y-10.2778
G01 X20.5664 Y-10.2808
G01 X20.6488 Y-10.3012
G01 X20.7327 Y-10.3139
G01 X20.7439 Y-10.3153
G01 X20.7552 Y-10.3161
G01 X20.8400 Y-10.3200
G01 X20.9248 Y-10.3161
G01 X20.9361 Y-10.3153
G01 X20.9473 Y-10.3139
G01 X21.0312 Y-10.3012
G01 X21.1136 Y-10.2808
G01 X21.1245 Y-10.2778
G01 X21.1352 Y-10.2743
G01 X21.2150 Y-10.2454
G01 X21.2919 Y-10.2094
G01 X21.3020 Y-10.2043
G01 X21.3118 Y-10.1987
G01 X21.3845 Y-10.1548
G01 X21.4528 Y-10.1045
G01 X21.4617 Y-10.0976
G01 X21.4703 Y-10.0902
G01 X21.5330 Y-10.0330
G01 X21.5902 Y-9.9703
G01 X21.5976 Y-9.9617
G01 X21.6045 Y-9.9528
G01 X21.6548 Y-9.8845
G01 X21.6987 Y-9.8118
G01 X21.7043 Y-9.8020
G01 X21.7094 Y-9.7919
G01 X21.7432 Y-9.7202
G01 X21.7495 Y-9.7045
G01 X21.7778 Y-9.6245
G01 X21.7987 Y-9.5422
G01 X21.8012 Y-9.5312
G01 X21.8031 Y-9.5201
G01 X21.8139 Y-9.4473
G01 X21.8153 Y-9.4361
G01 X21.8161 Y-9.4248
G01 X21.8200 Y-9.3400
G01 X21.8161 Y-9.2552
G01 X21.8153 Y-9.2439
G01 X21.8139 Y-9.2327
G01 X21.8012 Y-9.1488
G01 X21.7808 Y-9.0664
G01 X21.7778 Y-9.0555
G01 X21.7743 Y-9.0448
G01 X21.7495 Y-8.9755
G01 X21.7454 Y-8.9650
G01 X21.7408 Y-8.9546
G01 X21.7043 Y-8.8780
G01 X21.6609 Y-8.8051
G01 X21.6548 Y-8.7955
G01 X21.6045 Y-8.7272
G01 X21.5976 Y-8.7183
G01 X21.5902 Y-8.7097
G01 X21.5369 Y-8.6511
G01 X21.5248 Y-8.6393
G01 X21.4703 Y-8.5898
G01 X21.4573 Y-8.5789
G01 X21.4452 Y-8.5699
G01 X21.4451 Y-6.6594
G01 X21.4428 Y-6.6113
G01 X21.4409 Y-6.5945
G01 X21.4336 Y-6.5469
G01 X21.4221 Y-6.5002
G01 X21.4191 Y-6.4893
G01 X21.4156 Y-6.4786
G01 X21.3991 Y-6.4334
G01 X21.3788 Y-6.3898
G01 X21.3710 Y-6.3748
G01 X21.3432 Y-6.3288
G01 X21.3148 Y-6.2900
G01 X21.3078 Y-6.2811
G01 X21.3004 Y-6.2725
G01 X21.2679 Y-6.2371
G01 X18.2279 Y-3.1971
G01 X18.2198 Y-3.1893
G01 X18.1839 Y-3.1572
G01 X18.1455 Y-3.1283
G01 X18.1362 Y-3.1218
G01 X18.1267 Y-3.1158
G01 X18.0853 Y-3.0913
G01 X18.0368 Y-3.0681
G01 X18.0211 Y-3.0618
G01 X17.9757 Y-3.0459
G01 X17.9648 Y-3.0429
G01 X17.9181 Y-3.0314
G01 X17.8705 Y-3.0241
G01 X17.8593 Y-3.0227
G01 X17.8113 Y-3.0201
G01 X17.8000 Y-3.0198
G01 X13.3550 Y-3.0198
G01 X13.3069 Y-3.0219
G01 X13.2957 Y-3.0227
G01 X13.2845 Y-3.0241
G01 X13.2369 Y-3.0314
G01 X13.1847 Y-3.0443
G01 X13.1686 Y-3.0494
G01 X13.1234 Y-3.0659
G01 X13.0798 Y-3.0862
G01 X13.0697 Y-3.0913
G01 X13.0599 Y-3.0968
G01 X13.0188 Y-3.1218
G01 X12.9800 Y-3.1502
G01 X12.9668 Y-3.1608
G01 X12.9311 Y-3.1931
G01 X11.1456 Y-4.9786
G00 Z2.0000
G00 X11.1999 Y-5.0515
G01 F60.00
G01 Z-0.0000
G01 F120.00
G01 X11.1895 Y-5.0571
G01 X11.1500 Y-5.0810
G01 X11.1128 Y-5.1083
G01 X11.1022 Y-5.1171
G01 X11.0706 Y-5.1458
G01 X11.0634 Y-5.1531
G01 X11.0326 Y-5.1874
G01 X11.0010 Y-5.2300
G01 X10.9738 Y-5.2754
G01 X10.9511 Y-5.3234
G01 X10.9333 Y-5.3732
G01 X10.9219 Y-5.4179
G01 X10.9192 Y-5.4314
G01 X10.9130 Y-5.4737
G01 X10.9121 Y-5.4839
G01 X10.9100 Y-5.5300
G01 X10.9126 Y-5.5829
G01 X10.9204 Y-5.6353
G01 X10.9333 Y-5.6868
G01 X10.9511 Y-5.7366
G01 X10.9707 Y-5.7784
G01 X10.9754 Y-5.7876
G01 X10.9973 Y-5.8242
G01 X11.0050 Y-5.8356
G01 X11.0326 Y-5.8726
G01 X11.0682 Y-5.9118
G01 X11.1074 Y-5.9474
G01 X11.1500 Y-5.9790
G01 X11.1954 Y-6.0062
G01 X11.2434 Y-6.0289
G01 X11.2932 Y-6.0467
G01 X11.3379 Y-6.0581
G01 X11.3480 Y-6.0603
G01 X11.3903 Y-6.0666
G01 X11.4039 Y-6.0679
G01 X11.4431 Y-6.0698
G01 X11.4534 Y-6.0700
G01 X11.4961 Y-6.0679
G01 X11.5097 Y-6.0666
G01 X11.5553 Y-6.0596
G01 X11.6068 Y-6.0467
G01 X11.6566 Y-6.0289
G01 X11.6984 Y-6.0093
G01 X11.7105 Y-6.0029
G01 X11.7471 Y-5.9809
G01 X11.7556 Y-5.9750
G01 X11.7926 Y-5.9474
G01 X11.8294 Y-5.9142
G01 X11.8366 Y-5.9069
G01 X11.8674 Y-5.8726
G01 X11.8950 Y-5.8356
G01 X11.9027 Y-5.8242
G01 X11.9229 Y-5.7905
G01 X11.9285 Y-5.7801
G01 X13.5684 Y-4.1402
G01 X17.5866 Y-4.1402
G01 X20.3248 Y-6.8784
G01 X20.3248 Y-8.6152
G01 X20.2754 Y-8.6520
G01 X20.2157 Y-8.7059
G01 X20.2059 Y-8.7157
G01 X20.1565 Y-8.7702
G01 X20.1478 Y-8.7808
G01 X20.1000 Y-8.8455
G01 X20.0567 Y-8.9174
G01 X20.0520 Y-8.9266
G01 X20.0177 Y-8.9994
G01 X19.9883 Y-9.0816
G01 X19.9671 Y-9.1664
G01 X19.9551 Y-9.2459
G01 X19.9540 Y-9.2562
G01 X19.9500 Y-9.3400
G01 X19.9543 Y-9.4272
G01 X19.9671 Y-9.5136
G01 X19.9865 Y-9.5917
G01 X19.9905 Y-9.6049
G01 X20.0177 Y-9.6806
G01 X20.0520 Y-9.7534
G01 X20.0585 Y-9.7655
G01 X20.0963 Y-9.8287
G01 X20.1039 Y-9.8401
G01 X20.1520 Y-9.9046
G01 X20.2059 Y-9.9643
G01 X20.2157 Y-9.9741
G01 X20.2754 Y-10.0280
G01 X20.3399 Y-10.0761
G01 X20.3513 Y-10.0837
G01 X20.4205 Y-10.1249
G01 X20.4931 Y-10.1595
G01 X20.5058 Y-10.1647
G01 X20.5816 Y-10.1917
G01 X20.6597 Y-10.2114
G01 X20.6731 Y-10.2141
G01 X20.7528 Y-10.2257
G01 X20.8331 Y-10.2298
G01 X20.8469 Y-10.2298
G01 X20.9272 Y-10.2257
G01 X21.0069 Y-10.2141
G01 X21.0203 Y-10.2114
G01 X21.0984 Y-10.1917
G01 X21.1742 Y-10.1647
G01 X21.1869 Y-10.1595
G01 X21.2595 Y-10.1249
G01 X21.3287 Y-10.0837
G01 X21.3401 Y-10.0761
G01 X21.4046 Y-10.0280
G01 X21.4643 Y-9.9741
G01 X21.4741 Y-9.9643
G01 X21.5280 Y-9.9046
G01 X21.5761 Y-9.8401
G01 X21.5837 Y-9.8287
G01 X21.6249 Y-9.7595
G01 X21.6609 Y-9.6837
G01 X21.6647 Y-9.6742
G01 X21.6917 Y-9.5984
G01 X21.7114 Y-9.5203
G01 X21.7141 Y-9.5069
G01 X21.7249 Y-9.4341
G01 X21.7262 Y-9.4204
G01 X21.7300 Y-9.3400
G01 X21.7257 Y-9.2528
G01 X21.7129 Y-9.1664
G01 X21.6926 Y-9.0849
G01 X21.6895 Y-9.0751
G01 X21.6623 Y-8.9994
G01 X21.6280 Y-8.9266
G01 X21.6215 Y-8.9145
G01 X21.5837 Y-8.8513
G01 X21.5781 Y-8.8427
G01 X21.5280 Y-8.7754
G01 X21.4693 Y-8.7107
G01 X21.4046 Y-8.6520
G01 X21.3552 Y-8.6152
G01 X21.3551 Y-6.6616
G01 X21.3532 Y-6.6214
G01 X21.3519 Y-6.6077
G01 X21.3453 Y-6.5645
G01 X21.3348 Y-6.5221
G01 X21.3308 Y-6.5089
G01 X21.3160 Y-6.4678
G01 X21.2974 Y-6.4283
G01 X21.2927 Y-6.4191
G01 X21.2684 Y-6.3788
G01 X21.2425 Y-6.3436
G01 X21.2338 Y-6.3330
G01 X21.2043 Y-6.3007
G01 X18.1643 Y-3.2607
G01 X18.1268 Y-3.2268
G01 X18.0862 Y-3.1966
G01 X18.0429 Y-3.1706
G01 X18.0003 Y-3.1504
G01 X17.9907 Y-3.1466
G01 X17.9496 Y-3.1320
G01 X17.9005 Y-3.1197
G01 X17.8505 Y-3.1123
G01 X17.8000 Y-3.1098
G01 X13.3550 Y-3.1098
G01 X13.3114 Y-3.1118
G01 X13.2977 Y-3.1131
G01 X13.2545 Y-3.1197
G01 X13.2087 Y-3.1310
G01 X13.1989 Y-3.1342
G01 X13.1578 Y-3.1490
G01 X13.1183 Y-3.1676
G01 X13.1062 Y-3.1740
G01 X13.0688 Y-3.1966
G01 X13.0336 Y-3.2225
G01 X13.0230 Y-3.2312
G01 X12.9932 Y-3.2583
G01 X11.1999 Y-5.0515
G00 Z2.0000
G00 X11.2526 Y-5.1261
G01 F60.00
G01 Z-0.0000
G01 F120.00
G01 X11.2368 Y-5.1337
G01 X11.1990 Y-5.1565
G01 X11.1645 Y-5.1821
G01 X11.1309 Y-5.2127
G01 X11.1021 Y-5.2445
G01 X11.0758 Y-5.2800
G01 X11.0531 Y-5.3179
G01 X11.0347 Y-5.3567
G01 X11.0194 Y-5.3994
G01 X11.0092 Y-5.4398
G01 X11.0020 Y-5.4883
G01 X11.0000 Y-5.5300
G01 X11.0022 Y-5.5741
G01 X11.0086 Y-5.6178
G01 X11.0197 Y-5.6618
G01 X11.0343 Y-5.7022
G01 X11.0531 Y-5.7421
G01 X11.0758 Y-5.7800
G01 X11.1021 Y-5.8155
G01 X11.1318 Y-5.8482
G01 X11.1645 Y-5.8779
G01 X11.2000 Y-5.9042
G01 X11.2357 Y-5.9257
G01 X11.2778 Y-5.9457
G01 X11.3170 Y-5.9599
G01 X11.3646 Y-5.9718
G01 X11.4059 Y-5.9778
G01 X11.4500 Y-5.9800
G01 X11.4941 Y-5.9778
G01 X11.5366 Y-5.9716
G01 X11.5830 Y-5.9599
G01 X11.6222 Y-5.9457
G01 X11.6621 Y-5.9269
G01 X11.7020 Y-5.9027
G01 X11.7355 Y-5.8779
G01 X11.7673 Y-5.8491
G01 X11.7979 Y-5.8155
G01 X11.8235 Y-5.7810
G01 X11.8463 Y-5.7432
G01 X11.8539 Y-5.7274
G01 X13.5311 Y-4.0502
G01 X17.6239 Y-4.0502
G01 X20.4148 Y-6.8411
G01 X20.4148 Y-8.6632
G01 X20.3945 Y-8.6755
G01 X20.3334 Y-8.7208
G01 X20.2752 Y-8.7735
G01 X20.2216 Y-8.8325
G01 X20.1742 Y-8.8966
G01 X20.1334 Y-8.9651
G01 X20.1009 Y-9.0339
G01 X20.0752 Y-9.1054
G01 X20.0554 Y-9.1839
G01 X20.0437 Y-9.2628
G01 X20.0400 Y-9.3400
G01 X20.0439 Y-9.4184
G01 X20.0554 Y-9.4961
G01 X20.0738 Y-9.5699
G01 X20.1019 Y-9.6484
G01 X20.1345 Y-9.7171
G01 X20.1755 Y-9.7855
G01 X20.2216 Y-9.8475
G01 X20.2726 Y-9.9039
G01 X20.3325 Y-9.9584
G01 X20.3976 Y-10.0065
G01 X20.4629 Y-10.0455
G01 X20.5316 Y-10.0781
G01 X20.6078 Y-10.1056
G01 X20.6863 Y-10.1250
G01 X20.7616 Y-10.1361
G01 X20.8375 Y-10.1399
G01 X20.9184 Y-10.1361
G01 X20.9985 Y-10.1241
G01 X21.0722 Y-10.1056
G01 X21.1439 Y-10.0800
G01 X21.2171 Y-10.0455
G01 X21.2865 Y-10.0038
G01 X21.3475 Y-9.9584
G01 X21.4039 Y-9.9074
G01 X21.4584 Y-9.8475
G01 X21.5065 Y-9.7824
G01 X21.5455 Y-9.7171
G01 X21.5786 Y-9.6473
G01 X21.6056 Y-9.5722
G01 X21.6241 Y-9.4985
G01 X21.6363 Y-9.4160
G01 X21.6400 Y-9.3400
G01 X21.6361 Y-9.2616
G01 X21.6246 Y-9.1839
G01 X21.6052 Y-9.1066
G01 X21.5791 Y-9.0339
G01 X21.5455 Y-8.9629
G01 X21.5052 Y-8.8955
G01 X21.4592 Y-8.8334
G01 X21.4057 Y-8.7743
G01 X21.3485 Y-8.7224
G01 X21.2855 Y-8.6755
G01 X21.2652 Y-8.6632
G01 X21.2652 Y-6.6638
G01 X21.2628 Y-6.6209
G01 X21.2570 Y-6.5821
G01 X21.2475 Y-6.5439
G01 X21.2328 Y-6.5023
G01 X21.2144 Y-6.4635
G01 X21.1935 Y-6.4288
G01 X21.1702 Y-6.3972
G01 X21.1407 Y-6.3643
G01 X18.1007 Y-3.3243
G01 X18.0697 Y-3.2963
G01 X18.0362 Y-3.2715
G01 X18.0004 Y-3.2500
G01 X17.9638 Y-3.2327
G01 X17.9234 Y-3.2181
G01 X17.8829 Y-3.2080
G01 X17.8417 Y-3.2019
G01 X17.8000 Y-3.1998
G01 X13.3550 Y-3.1998
G01 X13.3109 Y-3.2022
G01 X13.2721 Y-3.2080
G01 X13.2328 Y-3.2178
G01 X13.1923 Y-3.2322
G01 X13.1524 Y-3.2512
G01 X13.1188 Y-3.2715
G01 X13.0872 Y-3.2948
G01 X13.0552 Y-3.3235
G01 X11.2526 Y-5.1261
G00 Z2.0000
G00 X9.8044 Y-11.2748
G01 F60.00
G01 Z-0.0000
G01 F120.00
G01 X9.7518 Y-11.2038
G01 X9.7449 Y-11.1949
G01 X9.6815 Y-11.1245
G01 X9.6737 Y-11.1163
G01 X9.6655 Y-11.1085
G01 X9.5951 Y-11.0451
G01 X9.5192 Y-10.9885
G01 X9.5100 Y-10.9820
G01 X9.4289 Y-10.9331
G01 X9.4191 Y-10.9275
G01 X9.4090 Y-10.9224
G01 X9.3233 Y-10.8822
G01 X9.2342 Y-10.8500
G01 X9.2235 Y-10.8465
G01 X9.2126 Y-10.8435
G01 X9.1207 Y-10.8208
G01 X9.0271 Y-10.8066
G01 X9.0159 Y-10.8052
G01 X9.0046 Y-10.8044
G01 X8.9100 Y-10.8000
G01 X8.8154 Y-10.8044
G01 X8.8041 Y-10.8052
G01 X8.7929 Y-10.8066
G01 X8.6993 Y-10.8208
G01 X8.6074 Y-10.8435
G01 X8.5965 Y-10.8465
G01 X8.5858 Y-10.8500
G01 X8.4967 Y-10.8822
G01 X8.4110 Y-10.9224
G01 X8.4009 Y-10.9275
G01 X8.3911 Y-10.9331
G01 X8.3100 Y-10.9820
G01 X8.3008 Y-10.9885
G01 X8.2249 Y-11.0451
G01 X8.1545 Y-11.1085
G01 X8.1463 Y-11.1163
G01 X8.0825 Y-11.1863
G01 X8.0751 Y-11.1949
G01 X8.0682 Y-11.2038
G01 X8.0120 Y-11.2800
G01 X8.0060 Y-11.2895
G01 X7.9575 Y-11.3709
G01 X7.9524 Y-11.3810
G01 X7.9122 Y-11.4667
G01 X7.8800 Y-11.5558
G01 X7.8765 Y-11.5665
G01 X7.8532 Y-11.6583
G01 X7.8508 Y-11.6693
G01 X7.8488 Y-11.6804
G01 X7.8352 Y-11.7741
G01 X7.8303 Y-11.8687
G01 X7.8300 Y-11.8800
G01 X7.8303 Y-11.8913
G01 X7.8352 Y-11.9859
G01 X7.8488 Y-12.0796
G01 X7.8508 Y-12.0907
G01 X7.8532 Y-12.1017
G01 X7.8765 Y-12.1935
G01 X7.9081 Y-12.2828
G01 X7.9122 Y-12.2933
G01 X7.9168 Y-12.3036
G01 X7.9575 Y-12.3891
G01 X7.9631 Y-12.3989
G01 X8.0120 Y-12.4800
G01 X8.0185 Y-12.4892
G01 X8.0751 Y-12.5651
G01 X8.1385 Y-12.6355
G01 X8.1463 Y-12.6437
G01 X8.1545 Y-12.6515
G01 X8.2249 Y-12.7149
G01 X8.3008 Y-12.7715
G01 X8.3100 Y-12.7780
G01 X8.3195 Y-12.7840
G01 X8.4009 Y-12.8325
G01 X8.4110 Y-12.8376
G01 X8.4967 Y-12.8778
G01 X8.5858 Y-12.9100
G01 X8.5965 Y-12.9135
G01 X8.6074 Y-12.9165
G01 X8.6993 Y-12.9392
G01 X8.7929 Y-12.9534
G01 X8.8041 Y-12.9548
G01 X8.8154 Y-12.9556
G01 X8.9100 Y-12.9600
G01 X9.0046 Y-12.9556
G01 X9.0159 Y-12.9548
G01 X9.0271 Y-12.9534
G01 X9.1207 Y-12.9392
G01 X9.2126 Y-12.9165
G01 X9.2235 Y-12.9135
G01 X9.2342 Y-12.9100
G01 X9.3233 Y-12.8778
G01 X9.4090 Y-12.8376
G01 X9.4191 Y-12.8325
G01 X9.5005 Y-12.7840
G01 X9.5100 Y-12.7780
G01 X9.5862 Y-12.7218
G01 X9.5951 Y-12.7149
G01 X9.6037 Y-12.7075
G01 X9.6737 Y-12.6437
G01 X9.7375 Y-12.5737
G01 X9.7449 Y-12.5651
G01 X9.7518 Y-12.5562
G01 X9.8044 Y-12.4852
G01 X11.8343 Y-12.4852
G01 X15.2898 Y-15.9407
G01 X15.2898 Y-19.5000
G01 X15.2919 Y-19.5481
G01 X15.2927 Y-19.5593
G01 X15.2941 Y-19.5705
G01 X15.3014 Y-19.6181
G01 X15.3129 Y-19.6648
G01 X15.3159 Y-19.6757
G01 X15.3194 Y-19.6864
G01 X15.3359 Y-19.7316
G01 X15.3562 Y-19.7752
G01 X15.3613 Y-19.7853
G01 X15.3668 Y-19.7951
G01 X15.3918 Y-19.8362
G01 X15.4237 Y-19.8795
G01 X15.4346 Y-19.8925
G01 X15.4671 Y-19.9279
G01 X15.9248 Y-20.3857
G01 X15.9248 Y-21.0100
G01 X15.7300 Y-21.0100
G01 X15.7131 Y-21.0106
G01 X15.7018 Y-21.0117
G01 X15.6907 Y-21.0134
G01 X15.6741 Y-21.0169
G01 X15.6632 Y-21.0199
G01 X15.6525 Y-21.0234
G01 X15.6420 Y-21.0275
G01 X15.6317 Y-21.0321
G01 X15.6166 Y-21.0399
G01 X15.6070 Y-21.0457
G01 X15.5976 Y-21.0520
G01 X15.5841 Y-21.0622
G01 X15.5714 Y-21.0734
G01 X15.5634 Y-21.0814
G01 X15.5522 Y-21.0941
G01 X15.5453 Y-21.1030
G01 X15.5357 Y-21.1170
G01 X15.5299 Y-21.1266
G01 X15.5246 Y-21.1366
G01 X15.5175 Y-21.1520
G01 X15.5116 Y-21.1679
G01 X15.5083 Y-21.1787
G01 X15.5044 Y-21.1951
G01 X15.5025 Y-21.2063
G01 X15.5006 Y-21.2231
G01 X15.5000 Y-21.2400
G01 X15.5001 Y-22.8456
G01 X15.5006 Y-22.8569
G01 X15.5017 Y-22.8682
G01 X15.5044 Y-22.8849
G01 X15.5069 Y-22.8959
G01 X15.5099 Y-22.9068
G01 X15.5154 Y-22.9228
G01 X15.5197 Y-22.9332
G01 X15.5246 Y-22.9434
G01 X15.5299 Y-22.9534
G01 X15.5357 Y-22.9630
G01 X15.5453 Y-22.9770
G01 X15.5522 Y-22.9859
G01 X15.5596 Y-22.9945
G01 X15.5674 Y-23.0026
G01 X15.5755 Y-23.0104
G01 X15.5841 Y-23.0178
G01 X15.5930 Y-23.0247
G01 X15.6022 Y-23.0312
G01 X15.6118 Y-23.0373
G01 X15.6216 Y-23.0428
G01 X15.6317 Y-23.0479
G01 X15.6420 Y-23.0525
G01 X15.6525 Y-23.0566
G01 X15.6632 Y-23.0601
G01 X15.6741 Y-23.0631
G01 X15.6851 Y-23.0656
G01 X15.6963 Y-23.0675
G01 X15.7075 Y-23.0689
G01 X15.7187 Y-23.0697
G01 X15.7300 Y-23.0700
G01 X17.3300 Y-23.0700
G01 X17.3413 Y-23.0697
G01 X17.3525 Y-23.0689
G01 X17.3637 Y-23.0675
G01 X17.3804 Y-23.0644
G01 X17.3913 Y-23.0617
G01 X17.4075 Y-23.0566
G01 X17.4232 Y-23.0503
G01 X17.4334 Y-23.0454
G01 X17.4482 Y-23.0373
G01 X17.4578 Y-23.0312
G01 X17.4715 Y-23.0213
G01 X17.4802 Y-23.0142
G01 X17.4926 Y-23.0026
G01 X17.5042 Y-22.9902
G01 X17.5147 Y-22.9770
G01 X17.5212 Y-22.9678
G01 X17.5301 Y-22.9534
G01 X17.5354 Y-22.9434
G01 X17.5403 Y-22.9332
G01 X17.5446 Y-22.9228
G01 X17.5484 Y-22.9121
G01 X17.5517 Y-22.9013
G01 X17.5544 Y-22.8904
G01 X17.5566 Y-22.8793
G01 X17.5583 Y-22.8682
G01 X17.5594 Y-22.8569
G01 X17.5600 Y-22.8400
G01 X17.5600 Y-22.6452
G01 X18.8193 Y-22.6452
G01 X20.5935 Y-24.4194
G01 X20.5850 Y-24.4790
G01 X20.5841 Y-24.4903
G01 X20.5801 Y-24.5744
G01 X20.5803 Y-24.5913
G01 X20.5841 Y-24.6697
G01 X20.5856 Y-24.6866
G01 X20.5979 Y-24.7698
G01 X20.5998 Y-24.7809
G01 X20.6213 Y-24.8681
G01 X20.6244 Y-24.8790
G01 X20.6279 Y-24.8897
G01 X20.6543 Y-24.9636
G01 X20.6606 Y-24.9794
G01 X20.6965 Y-25.0555
G01 X20.7016 Y-25.0655
G01 X20.7475 Y-25.1427
G01 X20.7536 Y-25.1522
G01 X20.7601 Y-25.1615
G01 X20.8138 Y-25.2334
G01 X20.8739 Y-25.3001
G01 X20.8817 Y-25.3083
G01 X20.8899 Y-25.3161
G01 X20.9566 Y-25.3762
G01 X21.0285 Y-25.4299
G01 X21.0378 Y-25.4364
G01 X21.0473 Y-25.4425
G01 X21.1245 Y-25.4884
G01 X21.1345 Y-25.4935
G01 X21.2158 Y-25.5316
G01 X21.3003 Y-25.5621
G01 X21.3110 Y-25.5656
G01 X21.3219 Y-25.5687
G01 X21.4091 Y-25.5902
G01 X21.4202 Y-25.5921
G01 X21.5090 Y-25.6050
G01 X21.5987 Y-25.6097
G01 X21.6100 Y-25.6100
G01 X21.6213 Y-25.6097
G01 X21.7110 Y-25.6050
G01 X21.7998 Y-25.5921
G01 X21.8109 Y-25.5902
G01 X21.8220 Y-25.5877
G01 X21.9090 Y-25.5656
G01 X21.9197 Y-25.5621
G01 X22.0042 Y-25.5316
G01 X22.0855 Y-25.4935
G01 X22.0955 Y-25.4884
G01 X22.1054 Y-25.4828
G01 X22.1775 Y-25.4395
G01 X22.1915 Y-25.4299
G01 X22.2634 Y-25.3762
G01 X22.2720 Y-25.3688
G01 X22.3343 Y-25.3123
G01 X22.3461 Y-25.3001
G01 X22.4026 Y-25.2377
G01 X22.4131 Y-25.2245
G01 X22.4413 Y-25.1865
G01 X22.6298 Y-25.1856
G01 X23.5448 Y-26.1007
G01 X23.5448 Y-30.6793
G01 X22.6400 Y-31.5841
G01 X22.6400 Y-31.4000
G01 X22.6394 Y-31.3831
G01 X22.6383 Y-31.3718
G01 X22.6366 Y-31.3607
G01 X22.6344 Y-31.3496
G01 X22.6317 Y-31.3387
G01 X22.6284 Y-31.3279
G01 X22.6246 Y-31.3172
G01 X22.6203 Y-31.3068
G01 X22.6154 Y-31.2966
G01 X22.6073 Y-31.2818
G01 X22.6012 Y-31.2722
G01 X22.5913 Y-31.2585
G01 X22.5842 Y-31.2498
G01 X22.5766 Y-31.2414
G01 X22.5645 Y-31.2296
G01 X22.5515 Y-31.2187
G01 X22.5378 Y-31.2088
G01 X22.5282 Y-31.2027
G01 X22.5134 Y-31.1946
G01 X22.5032 Y-31.1897
G01 X22.4875 Y-31.1834
G01 X22.4768 Y-31.1799
G01 X22.4604 Y-31.1756
G01 X22.4493 Y-31.1734
G01 X22.4325 Y-31.1711
G01 X22.4213 Y-31.1703
G01 X22.4100 Y-31.1700
G01 X20.8100 Y-31.1700
G01 X20.7987 Y-31.1703
G01 X20.7875 Y-31.1711
G01 X20.7763 Y-31.1725
G01 X20.7651 Y-31.1744
G01 X20.7487 Y-31.1783
G01 X20.7325 Y-31.1834
G01 X20.7168 Y-31.1897
G01 X20.7016 Y-31.1972
G01 X20.6918 Y-31.2027
G01 X20.6822 Y-31.2088
G01 X20.6685 Y-31.2187
G01 X20.6598 Y-31.2258
G01 X20.6514 Y-31.2334
G01 X20.6434 Y-31.2414
G01 X20.6358 Y-31.2498
G01 X20.6253 Y-31.2630
G01 X20.6157 Y-31.2770
G01 X20.6072 Y-31.2916
G01 X20.5997 Y-31.3068
G01 X20.5954 Y-31.3172
G01 X20.5916 Y-31.3279
G01 X20.5869 Y-31.3441
G01 X20.5844 Y-31.3551
G01 X20.5825 Y-31.3663
G01 X20.5806 Y-31.3831
G01 X20.5800 Y-31.4000
G01 X20.5800 Y-33.0000
G01 X20.5803 Y-33.0113
G01 X20.5817 Y-33.0282
G01 X20.5834 Y-33.0393
G01 X20.5856 Y-33.0504
G01 X20.5883 Y-33.0613
G01 X20.5916 Y-33.0721
G01 X20.5954 Y-33.0828
G01 X20.5997 Y-33.0932
G01 X20.6046 Y-33.1034
G01 X20.6099 Y-33.1134
G01 X20.6157 Y-33.1230
G01 X20.6220 Y-33.1324
G01 X20.6287 Y-33.1415
G01 X20.6358 Y-33.1502
G01 X20.6434 Y-33.1586
G01 X20.6514 Y-33.1666
G01 X20.6598 Y-33.1742
G01 X20.6685 Y-33.1813
G01 X20.6776 Y-33.1880
G01 X20.6870 Y-33.1943
G01 X20.6966 Y-33.2001
G01 X20.7066 Y-33.2054
G01 X20.7220 Y-33.2125
G01 X20.7325 Y-33.2166
G01 X20.7432 Y-33.2201
G01 X20.7596 Y-33.2244
G01 X20.7707 Y-33.2266
G01 X20.7818 Y-33.2283
G01 X20.7931 Y-33.2294
G01 X20.8044 Y-33.2299
G01 X22.4156 Y-33.2299
G01 X22.4325 Y-33.2289
G01 X22.4437 Y-33.2275
G01 X22.4604 Y-33.2244
G01 X22.4713 Y-33.2217
G01 X22.4875 Y-33.2166
G01 X22.4980 Y-33.2125
G01 X22.5134 Y-33.2054
G01 X22.5234 Y-33.2001
G01 X22.5330 Y-33.1943
G01 X22.5424 Y-33.1880
G01 X22.5515 Y-33.1813
G01 X22.5602 Y-33.1742
G01 X22.5726 Y-33.1626
G01 X22.5804 Y-33.1545
G01 X22.5878 Y-33.1459
G01 X22.5947 Y-33.1370
G01 X22.6012 Y-33.1278
G01 X22.6073 Y-33.1182
G01 X22.6128 Y-33.1084
G01 X22.6179 Y-33.0983
G01 X22.6225 Y-33.0880
G01 X22.6266 Y-33.0775
G01 X22.6301 Y-33.0668
G01 X22.6331 Y-33.0559
G01 X22.6366 Y-33.0393
G01 X22.6389 Y-33.0225
G01 X22.6397 Y-33.0113
G01 X22.6400 Y-33.0000
G01 X22.6400 Y-32.8052
G01 X22.8856 Y-32.8051
G01 X22.9393 Y-32.8023
G01 X22.9869 Y-32.7955
G01 X23.0036 Y-32.7924
G01 X23.0503 Y-32.7807
G01 X23.0664 Y-32.7756
G01 X23.1116 Y-32.7591
G01 X23.1552 Y-32.7388
G01 X23.1653 Y-32.7337
G01 X23.1751 Y-32.7282
G01 X23.2162 Y-32.7032
G01 X23.2255 Y-32.6967
G01 X23.2639 Y-32.6678
G01 X23.2998 Y-32.6357
G01 X23.3079 Y-32.6279
G01 X24.5819 Y-31.3539
G01 X24.6142 Y-31.3182
G01 X24.6248 Y-31.3050
G01 X24.6532 Y-31.2662
G01 X24.6782 Y-31.2251
G01 X24.6837 Y-31.2153
G01 X24.6888 Y-31.2052
G01 X24.7091 Y-31.1616
G01 X24.7256 Y-31.1164
G01 X24.7307 Y-31.1003
G01 X24.7436 Y-31.0481
G01 X24.7509 Y-31.0005
G01 X24.7523 Y-30.9893
G01 X24.7531 Y-30.9781
G01 X24.7552 Y-30.9300
G01 X24.7552 Y-25.8500
G01 X24.7531 Y-25.8019
G01 X24.7523 Y-25.7907
G01 X24.7509 Y-25.7795
G01 X24.7436 Y-25.7319
G01 X24.7321 Y-25.6852
G01 X24.7291 Y-25.6743
G01 X24.7256 Y-25.6636
G01 X24.7091 Y-25.6184
G01 X24.6888 Y-25.5748
G01 X24.6810 Y-25.5598
G01 X24.6532 Y-25.5138
G01 X24.6248 Y-25.4750
G01 X24.6178 Y-25.4661
G01 X24.6104 Y-25.4575
G01 X24.5779 Y-25.4221
G01 X23.3079 Y-24.1521
G01 X23.2998 Y-24.1443
G01 X23.2639 Y-24.1122
G01 X23.2255 Y-24.0833
G01 X23.2115 Y-24.0737
G01 X23.1751 Y-24.0518
G01 X23.1603 Y-24.0437
G01 X23.1168 Y-24.0231
G01 X23.1011 Y-24.0168
G01 X23.0557 Y-24.0009
G01 X23.0091 Y-23.9889
G01 X22.9925 Y-23.9854
G01 X22.9449 Y-23.9783
G01 X22.9281 Y-23.9769
G01 X22.8800 Y-23.9748
G01 X22.4423 Y-23.9748
G01 X22.4062 Y-23.9266
G01 X22.3988 Y-23.9180
G01 X22.3423 Y-23.8557
G01 X22.3301 Y-23.8439
G01 X22.2720 Y-23.7912
G01 X22.2590 Y-23.7803
G01 X22.1915 Y-23.7301
G01 X22.1822 Y-23.7236
G01 X22.1054 Y-23.6772
G01 X22.0955 Y-23.6716
G01 X22.0855 Y-23.6665
G01 X22.0042 Y-23.6284
G01 X21.9197 Y-23.5979
G01 X21.9090 Y-23.5944
G01 X21.8981 Y-23.5913
G01 X21.8109 Y-23.5698
G01 X21.7998 Y-23.5679
G01 X21.7166 Y-23.5556
G01 X21.6997 Y-23.5541
G01 X21.6213 Y-23.5503
G01 X21.6044 Y-23.5501
G01 X21.5147 Y-23.5545
G01 X21.4978 Y-23.5563
G01 X21.4517 Y-23.5632
G01 X19.4978 Y-21.6120
G01 X19.4625 Y-21.5796
G01 X19.4539 Y-21.5722
G01 X19.4450 Y-21.5652
G01 X19.4062 Y-21.5368
G01 X19.3602 Y-21.5090
G01 X19.3452 Y-21.5012
G01 X19.3016 Y-21.4809
G01 X19.2564 Y-21.4644
G01 X19.2403 Y-21.4593
G01 X19.1936 Y-21.4476
G01 X19.1769 Y-21.4445
G01 X19.1293 Y-21.4377
G01 X19.0813 Y-21.4351
G01 X19.0700 Y-21.4348
G01 X17.5600 Y-21.4348
G01 X17.5599 Y-21.2344
G01 X17.5594 Y-21.2231
G01 X17.5583 Y-21.2118
G01 X17.5556 Y-21.1951
G01 X17.5517 Y-21.1787
G01 X17.5466 Y-21.1625
G01 X17.5403 Y-21.1468
G01 X17.5328 Y-21.1316
G01 X17.5243 Y-21.1170
G01 X17.5147 Y-21.1030
G01 X17.5042 Y-21.0898
G01 X17.4926 Y-21.0774
G01 X17.4802 Y-21.0658
G01 X17.4670 Y-21.0553
G01 X17.4530 Y-21.0457
G01 X17.4384 Y-21.0372
G01 X17.4232 Y-21.0297
G01 X17.4075 Y-21.0234
G01 X17.3913 Y-21.0183
G01 X17.3749 Y-21.0144
G01 X17.3637 Y-21.0125
G01 X17.3525 Y-21.0111
G01 X17.3356 Y-21.0101
G01 X17.1352 Y-21.0100
G01 X17.1352 Y-20.1350
G01 X17.1331 Y-20.0869
G01 X17.1317 Y-20.0701
G01 X17.1246 Y-20.0225
G01 X17.1211 Y-20.0059
G01 X17.1107 Y-19.9647
G01 X17.1056 Y-19.9486
G01 X17.0912 Y-19.9086
G01 X17.0845 Y-19.8931
G01 X17.0688 Y-19.8598
G01 X17.0637 Y-19.8497
G01 X17.0582 Y-19.8399
G01 X17.0392 Y-19.8083
G01 X17.0300 Y-19.7941
G01 X16.9978 Y-19.7511
G01 X16.9619 Y-19.7111
G01 X16.5002 Y-19.2493
G01 X16.5001 Y-15.6844
G01 X16.4973 Y-15.6307
G01 X16.4896 Y-15.5775
G01 X16.4861 Y-15.5609
G01 X16.4771 Y-15.5252
G01 X16.4741 Y-15.5143
G01 X16.4706 Y-15.5036
G01 X16.4541 Y-15.4584
G01 X16.4495 Y-15.4481
G01 X16.4287 Y-15.4047
G01 X16.4042 Y-15.3633
G01 X16.3982 Y-15.3538
G01 X16.3663 Y-15.3105
G01 X16.3554 Y-15.2975
G01 X16.3229 Y-15.2621
G01 X12.5129 Y-11.4521
G01 X12.5048 Y-11.4443
G01 X12.4689 Y-11.4122
G01 X12.4305 Y-11.3833
G01 X12.4212 Y-11.3768
G01 X12.4117 Y-11.3708
G01 X12.3703 Y-11.3463
G01 X12.3269 Y-11.3255
G01 X12.3166 Y-11.3209
G01 X12.3061 Y-11.3168
G01 X12.2607 Y-11.3009
G01 X12.2141 Y-11.2889
G01 X12.2031 Y-11.2864
G01 X12.1919 Y-11.2845
G01 X12.1443 Y-11.2777
G01 X12.0906 Y-11.2749
G01 X9.8044 Y-11.2748
G00 Z2.0000
G00 X9.7542 Y-11.3648
G01 F60.00
G01 Z-0.0000
G01 F120.00
G01 X9.7368 Y-11.3358
G01 X9.7312 Y-11.3272
G01 X9.6774 Y-11.2546
G01 X9.6708 Y-11.2467
G01 X9.6124 Y-11.1824
G01 X9.6051 Y-11.1752
G01 X9.5380 Y-11.1147
G01 X9.4628 Y-11.0588
G01 X9.4542 Y-11.0532
G01 X9.3767 Y-11.0069
G01 X9.2889 Y-10.9654
G01 X9.1974 Y-10.9326
G01 X9.1065 Y-10.9097
G01 X9.0964 Y-10.9078
G01 X9.0070 Y-10.8948
G01 X8.9100 Y-10.8900
G01 X8.8130 Y-10.8948
G01 X8.7169 Y-10.9090
G01 X8.6226 Y-10.9326
G01 X8.5311 Y-10.9654
G01 X8.4433 Y-11.0069
G01 X8.3629 Y-11.0550
G01 X8.3544 Y-11.0608
G01 X8.2820 Y-11.1147
G01 X8.2100 Y-11.1800
G01 X8.1447 Y-11.2520
G01 X8.0868 Y-11.3300
G01 X8.0369 Y-11.4133
G01 X7.9954 Y-11.5011
G01 X7.9626 Y-11.5926
G01 X7.9390 Y-11.6869
G01 X7.9248 Y-11.7830
G01 X7.9200 Y-11.8800
G01 X7.9248 Y-11.9770
G01 X7.9390 Y-12.0731
G01 X7.9626 Y-12.1674
G01 X7.9954 Y-12.2589
G01 X8.0369 Y-12.3467
G01 X8.0850 Y-12.4271
G01 X8.0908 Y-12.4356
G01 X8.1447 Y-12.5080
G01 X8.2052 Y-12.5751
G01 X8.2149 Y-12.5848
G01 X8.2820 Y-12.6453
G01 X8.3544 Y-12.6992
G01 X8.3658 Y-12.7068
G01 X8.4433 Y-12.7531
G01 X8.5311 Y-12.7946
G01 X8.6161 Y-12.8252
G01 X8.6292 Y-12.8292
G01 X8.7169 Y-12.8510
G01 X8.8061 Y-12.8644
G01 X8.8198 Y-12.8657
G01 X8.9100 Y-12.8700
G01 X9.0002 Y-12.8657
G01 X9.0139 Y-12.8644
G01 X9.1031 Y-12.8510
G01 X9.1908 Y-12.8292
G01 X9.2039 Y-12.8252
G01 X9.2889 Y-12.7946
G01 X9.3705 Y-12.7562
G01 X9.3797 Y-12.7514
G01 X9.4542 Y-12.7068
G01 X9.4656 Y-12.6992
G01 X9.5380 Y-12.6453
G01 X9.6076 Y-12.5824
G01 X9.6148 Y-12.5751
G01 X9.6708 Y-12.5133
G01 X9.6774 Y-12.5054
G01 X9.7312 Y-12.4328
G01 X9.7368 Y-12.4242
G01 X9.7542 Y-12.3952
G01 X11.8716 Y-12.3952
G01 X15.3798 Y-15.9034
G01 X15.3798 Y-19.5000
G01 X15.3818 Y-19.5436
G01 X15.3831 Y-19.5573
G01 X15.3897 Y-19.6005
G01 X15.4002 Y-19.6429
G01 X15.4042 Y-19.6561
G01 X15.4190 Y-19.6972
G01 X15.4376 Y-19.7367
G01 X15.4440 Y-19.7488
G01 X15.4666 Y-19.7862
G01 X15.4946 Y-19.8241
G01 X15.5012 Y-19.8320
G01 X15.5307 Y-19.8643
G01 X16.0148 Y-20.3484
G01 X16.0148 Y-21.1000
G01 X15.7266 Y-21.1000
G01 X15.7163 Y-21.1007
G01 X15.7095 Y-21.1015
G01 X15.7027 Y-21.1027
G01 X15.6927 Y-21.1051
G01 X15.6828 Y-21.1082
G01 X15.6733 Y-21.1120
G01 X15.6640 Y-21.1165
G01 X15.6580 Y-21.1199
G01 X15.6494 Y-21.1255
G01 X15.6412 Y-21.1318
G01 X15.6335 Y-21.1386
G01 X15.6263 Y-21.1460
G01 X15.6196 Y-21.1539
G01 X15.6136 Y-21.1622
G01 X15.6082 Y-21.1710
G01 X15.6034 Y-21.1801
G01 X15.5994 Y-21.1896
G01 X15.5960 Y-21.1994
G01 X15.5934 Y-21.2093
G01 X15.5915 Y-21.2195
G01 X15.5904 Y-21.2297
G01 X15.5900 Y-21.2400
G01 X15.5900 Y-22.8434
G01 X15.5907 Y-22.8537
G01 X15.5927 Y-22.8673
G01 X15.5960 Y-22.8806
G01 X15.6007 Y-22.8936
G01 X15.6065 Y-22.9060
G01 X15.6136 Y-22.9178
G01 X15.6218 Y-22.9288
G01 X15.6286 Y-22.9365
G01 X15.6386 Y-22.9460
G01 X15.6494 Y-22.9545
G01 X15.6610 Y-22.9618
G01 X15.6733 Y-22.9680
G01 X15.6861 Y-22.9729
G01 X15.6993 Y-22.9766
G01 X15.7129 Y-22.9789
G01 X15.7266 Y-22.9800
G01 X17.3300 Y-22.9800
G01 X17.3369 Y-22.9798
G01 X17.3471 Y-22.9789
G01 X17.3573 Y-22.9773
G01 X17.3673 Y-22.9749
G01 X17.3772 Y-22.9718
G01 X17.3867 Y-22.9680
G01 X17.3960 Y-22.9635
G01 X17.4049 Y-22.9583
G01 X17.4134 Y-22.9524
G01 X17.4214 Y-22.9460
G01 X17.4290 Y-22.9390
G01 X17.4360 Y-22.9314
G01 X17.4424 Y-22.9234
G01 X17.4483 Y-22.9149
G01 X17.4535 Y-22.9060
G01 X17.4580 Y-22.8967
G01 X17.4618 Y-22.8872
G01 X17.4649 Y-22.8773
G01 X17.4673 Y-22.8673
G01 X17.4685 Y-22.8605
G01 X17.4696 Y-22.8503
G01 X17.4700 Y-22.8434
G01 X17.4700 Y-22.5552
G01 X18.8566 Y-22.5552
G01 X20.6899 Y-24.3885
G01 X20.6869 Y-24.4034
G01 X20.6754 Y-24.4810
G01 X20.6740 Y-24.4947
G01 X20.6700 Y-24.5800
G01 X20.6745 Y-24.6721
G01 X20.6881 Y-24.7634
G01 X20.7086 Y-24.8462
G01 X20.7126 Y-24.8594
G01 X20.7416 Y-24.9397
G01 X20.7810 Y-25.0231
G01 X20.8247 Y-25.0964
G01 X20.8324 Y-25.1079
G01 X20.8834 Y-25.1763
G01 X20.9406 Y-25.2397
G01 X20.9503 Y-25.2494
G01 X21.0137 Y-25.3066
G01 X21.0821 Y-25.3576
G01 X21.0936 Y-25.3653
G01 X21.1669 Y-25.4090
G01 X21.2503 Y-25.4484
G01 X21.3371 Y-25.4795
G01 X21.4266 Y-25.5019
G01 X21.5179 Y-25.5155
G01 X21.6100 Y-25.5200
G01 X21.7021 Y-25.5155
G01 X21.7900 Y-25.5026
G01 X21.8001 Y-25.5004
G01 X21.8829 Y-25.4795
G01 X21.9697 Y-25.4484
G01 X22.0531 Y-25.4090
G01 X22.1322 Y-25.3616
G01 X22.2063 Y-25.3066
G01 X22.2747 Y-25.2447
G01 X22.3366 Y-25.1763
G01 X22.3876 Y-25.1079
G01 X22.3960 Y-25.0952
G01 X22.6666 Y-25.0952
G01 X23.6348 Y-26.0634
G01 X23.6348 Y-30.7166
G01 X22.6666 Y-31.6848
G01 X22.5500 Y-31.6848
G01 X22.5500 Y-31.3966
G01 X22.5493 Y-31.3863
G01 X22.5485 Y-31.3795
G01 X22.5473 Y-31.3727
G01 X22.5449 Y-31.3627
G01 X22.5418 Y-31.3528
G01 X22.5380 Y-31.3433
G01 X22.5335 Y-31.3340
G01 X22.5283 Y-31.3251
G01 X22.5224 Y-31.3166
G01 X22.5160 Y-31.3086
G01 X22.5090 Y-31.3010
G01 X22.5014 Y-31.2940
G01 X22.4934 Y-31.2876
G01 X22.4849 Y-31.2817
G01 X22.4760 Y-31.2765
G01 X22.4667 Y-31.2720
G01 X22.4572 Y-31.2682
G01 X22.4506 Y-31.2660
G01 X22.4407 Y-31.2634
G01 X22.4305 Y-31.2615
G01 X22.4203 Y-31.2604
G01 X22.4100 Y-31.2600
G01 X20.8100 Y-31.2600
G01 X20.7997 Y-31.2604
G01 X20.7895 Y-31.2615
G01 X20.7760 Y-31.2642
G01 X20.7628 Y-31.2682
G01 X20.7533 Y-31.2720
G01 X20.7440 Y-31.2765
G01 X20.7351 Y-31.2817
G01 X20.7266 Y-31.2876
G01 X20.7160 Y-31.2963
G01 X20.7086 Y-31.3035
G01 X20.6996 Y-31.3139
G01 X20.6936 Y-31.3222
G01 X20.6882 Y-31.3310
G01 X20.6834 Y-31.3401
G01 X20.6782 Y-31.3528
G01 X20.6751 Y-31.3627
G01 X20.6721 Y-31.3761
G01 X20.6704 Y-31.3897
G01 X20.6700 Y-31.4000
G01 X20.6700 Y-33.0034
G01 X20.6711 Y-33.0171
G01 X20.6734 Y-33.0307
G01 X20.6771 Y-33.0439
G01 X20.6820 Y-33.0567
G01 X20.6882 Y-33.0690
G01 X20.6955 Y-33.0806
G01 X20.7040 Y-33.0914
G01 X20.7135 Y-33.1014
G01 X20.7239 Y-33.1104
G01 X20.7322 Y-33.1164
G01 X20.7440 Y-33.1235
G01 X20.7564 Y-33.1293
G01 X20.7694 Y-33.1340
G01 X20.7827 Y-33.1373
G01 X20.7963 Y-33.1393
G01 X20.8100 Y-33.1400
G01 X22.4100 Y-33.1400
G01 X22.4203 Y-33.1396
G01 X22.4305 Y-33.1385
G01 X22.4407 Y-33.1366
G01 X22.4473 Y-33.1349
G01 X22.4539 Y-33.1329
G01 X22.4636 Y-33.1293
G01 X22.4729 Y-33.1251
G01 X22.4820 Y-33.1201
G01 X22.4934 Y-33.1124
G01 X22.4988 Y-33.1082
G01 X22.5065 Y-33.1014
G01 X22.5160 Y-33.0914
G01 X22.5204 Y-33.0861
G01 X22.5264 Y-33.0778
G01 X22.5335 Y-33.0660
G01 X22.5380 Y-33.0567
G01 X22.5406 Y-33.0504
G01 X22.5449 Y-33.0373
G01 X22.5479 Y-33.0239
G01 X22.5496 Y-33.0103
G01 X22.5500 Y-33.0000
G01 X22.5500 Y-32.7152
G01 X22.8834 Y-32.7151
G01 X22.9305 Y-32.7127
G01 X22.9771 Y-32.7059
G01 X22.9872 Y-32.7038
G01 X23.0296 Y-32.6930
G01 X23.0707 Y-32.6784
G01 X23.0834 Y-32.6732
G01 X23.1229 Y-32.6544
G01 X23.1604 Y-32.6320
G01 X23.1718 Y-32.6244
G01 X23.2041 Y-32.6004
G01 X23.2120 Y-32.5938
G01 X23.2443 Y-32.5643
G01 X24.5167 Y-31.2918
G01 X24.5438 Y-31.2620
G01 X24.5525 Y-31.2514
G01 X24.5784 Y-31.2162
G01 X24.6010 Y-31.1788
G01 X24.6074 Y-31.1667
G01 X24.6260 Y-31.1272
G01 X24.6408 Y-31.0861
G01 X24.6440 Y-31.0763
G01 X24.6553 Y-31.0305
G01 X24.6619 Y-30.9873
G01 X24.6632 Y-30.9736
G01 X24.6652 Y-30.9300
G01 X24.6652 Y-25.8500
G01 X24.6632 Y-25.8064
G01 X24.6619 Y-25.7927
G01 X24.6553 Y-25.7495
G01 X24.6448 Y-25.7071
G01 X24.6408 Y-25.6939
G01 X24.6260 Y-25.6528
G01 X24.6074 Y-25.6133
G01 X24.6010 Y-25.6012
G01 X24.5784 Y-25.5638
G01 X24.5525 Y-25.5286
G01 X24.5438 Y-25.5180
G01 X24.5143 Y-25.4857
G01 X23.2443 Y-24.2157
G01 X23.2068 Y-24.1818
G01 X23.1718 Y-24.1556
G01 X23.1604 Y-24.1480
G01 X23.1259 Y-24.1273
G01 X23.1167 Y-24.1226
G01 X23.0772 Y-24.1040
G01 X23.0361 Y-24.0892
G01 X23.0229 Y-24.0852
G01 X22.9805 Y-24.0747
G01 X22.9305 Y-24.0673
G01 X22.8800 Y-24.0648
G01 X22.3960 Y-24.0648
G01 X22.3876 Y-24.0521
G01 X22.3409 Y-23.9891
G01 X22.3321 Y-23.9785
G01 X22.2747 Y-23.9153
G01 X22.2063 Y-23.8534
G01 X22.1322 Y-23.7984
G01 X22.0591 Y-23.7544
G01 X22.0470 Y-23.7479
G01 X21.9697 Y-23.7116
G01 X21.8894 Y-23.6826
G01 X21.8762 Y-23.6786
G01 X21.7934 Y-23.6581
G01 X21.7021 Y-23.6445
G01 X21.6100 Y-23.6400
G01 X21.5247 Y-23.6440
G01 X21.5110 Y-23.6454
G01 X21.4334 Y-23.6569
G01 X21.4185 Y-23.6599
G01 X19.4343 Y-21.6757
G01 X19.4020 Y-21.6462
G01 X19.3914 Y-21.6375
G01 X19.3562 Y-21.6116
G01 X19.3159 Y-21.5873
G01 X19.3067 Y-21.5826
G01 X19.2672 Y-21.5640
G01 X19.2261 Y-21.5492
G01 X19.2129 Y-21.5452
G01 X19.1705 Y-21.5347
G01 X19.1273 Y-21.5281
G01 X19.1136 Y-21.5268
G01 X19.0734 Y-21.5249
G01 X17.4700 Y-21.5248
G01 X17.4700 Y-21.2400
G01 X17.4693 Y-21.2263
G01 X17.4679 Y-21.2161
G01 X17.4649 Y-21.2027
G01 X17.4618 Y-21.1928
G01 X17.4566 Y-21.1801
G01 X17.4501 Y-21.1680
G01 X17.4445 Y-21.1594
G01 X17.4360 Y-21.1486
G01 X17.4290 Y-21.1410
G01 X17.4188 Y-21.1318
G01 X17.4106 Y-21.1255
G01 X17.3990 Y-21.1182
G01 X17.3899 Y-21.1134
G01 X17.3772 Y-21.1082
G01 X17.3673 Y-21.1051
G01 X17.3539 Y-21.1021
G01 X17.3437 Y-21.1007
G01 X17.3300 Y-21.1000
G01 X17.0452 Y-21.1000
G01 X17.0450 Y-20.1281
G01 X17.0432 Y-20.0914
G01 X17.0423 Y-20.0811
G01 X17.0365 Y-20.0413
G01 X17.0338 Y-20.0278
G01 X17.0240 Y-19.9887
G01 X17.0208 Y-19.9789
G01 X17.0060 Y-19.9378
G01 X16.9874 Y-19.8983
G01 X16.9827 Y-19.8891
G01 X16.9620 Y-19.8546
G01 X16.9544 Y-19.8432
G01 X16.9282 Y-19.8082
G01 X16.8967 Y-19.7732
G01 X16.4102 Y-19.2866
G01 X16.4101 Y-15.6866
G01 X16.4077 Y-15.6395
G01 X16.4015 Y-15.5963
G01 X16.3996 Y-15.5861
G01 X16.3898 Y-15.5471
G01 X16.3858 Y-15.5339
G01 X16.3710 Y-15.4928
G01 X16.3494 Y-15.4471
G01 X16.3234 Y-15.4038
G01 X16.2975 Y-15.3686
G01 X16.2888 Y-15.3580
G01 X16.2593 Y-15.3257
G01 X12.4493 Y-11.5157
G01 X12.4118 Y-11.4818
G01 X12.3768 Y-11.4556
G01 X12.3654 Y-11.4480
G01 X12.3279 Y-11.4256
G01 X12.2884 Y-11.4068
G01 X12.2757 Y-11.4016
G01 X12.2346 Y-11.3870
G01 X12.1922 Y-11.3762
G01 X12.1787 Y-11.3735
G01 X12.1355 Y-11.3673
G01 X12.0884 Y-11.3649
G01 X9.7542 Y-11.3648
G00 Z2.0000
G00 X9.7032 Y-11.4548
G01 F60.00
G01 Z-0.0000
G01 F120.00
G01 X9.6583 Y-11.3800
G01 X9.6057 Y-11.3090
G01 X9.5464 Y-11.2436
G01 X9.4810 Y-11.1843
G01 X9.4100 Y-11.1317
G01 X9.3343 Y-11.0863
G01 X9.2544 Y-11.0485
G01 X9.1713 Y-11.0188
G01 X9.0856 Y-10.9973
G01 X8.9982 Y-10.9843
G01 X8.9100 Y-10.9800
G01 X8.8218 Y-10.9843
G01 X8.7344 Y-10.9973
G01 X8.6487 Y-11.0188
G01 X8.5656 Y-11.0485
G01 X8.4857 Y-11.0863
G01 X8.4100 Y-11.1317
G01 X8.3390 Y-11.1843
G01 X8.2736 Y-11.2436
G01 X8.2143 Y-11.3090
G01 X8.1617 Y-11.3800
G01 X8.1163 Y-11.4557
G01 X8.0785 Y-11.5356
G01 X8.0488 Y-11.6187
G01 X8.0273 Y-11.7044
G01 X8.0143 Y-11.7918
G01 X8.0100 Y-11.8800
G01 X8.0143 Y-11.9682
G01 X8.0273 Y-12.0556
G01 X8.0488 Y-12.1413
G01 X8.0785 Y-12.2244
G01 X8.1163 Y-12.3043
G01 X8.1631 Y-12.3820
G01 X8.2143 Y-12.4510
G01 X8.2736 Y-12.5164
G01 X8.3410 Y-12.5772
G01 X8.4100 Y-12.6283
G01 X8.4836 Y-12.6725
G01 X8.5656 Y-12.7115
G01 X8.6511 Y-12.7419
G01 X8.7344 Y-12.7627
G01 X8.8193 Y-12.7754
G01 X8.9100 Y-12.7800
G01 X9.0007 Y-12.7754
G01 X9.0856 Y-12.7627
G01 X9.1689 Y-12.7419
G01 X9.2544 Y-12.7115
G01 X9.3364 Y-12.6725
G01 X9.4100 Y-12.6283
G01 X9.4790 Y-12.5772
G01 X9.5464 Y-12.5164
G01 X9.6072 Y-12.4490
G01 X9.6583 Y-12.3800
G01 X9.7032 Y-12.3052
G01 X11.9089 Y-12.3052
G01 X15.4698 Y-15.8661
G01 X15.4698 Y-19.5000
G01 X15.4722 Y-19.5441
G01 X15.4780 Y-19.5829
G01 X15.4875 Y-19.6211
G01 X15.5022 Y-19.6627
G01 X15.5200 Y-19.7004
G01 X15.5402 Y-19.7341
G01 X15.5663 Y-19.7697
G01 X15.5943 Y-19.8007
G01 X16.1048 Y-20.3111
G01 X16.1048 Y-21.1900
G01 X15.7251 Y-21.1902
G01 X15.7167 Y-21.1918
G01 X15.7086 Y-21.1948
G01 X15.7012 Y-21.1991
G01 X15.6955 Y-21.2038
G01 X15.6906 Y-21.2092
G01 X15.6859 Y-21.2164
G01 X15.6825 Y-21.2243
G01 X15.6805 Y-21.2327
G01 X15.6800 Y-21.2400
G01 X15.6800 Y-22.8400
G01 X15.6810 Y-22.8498
G01 X15.6834 Y-22.8580
G01 X15.6878 Y-22.8667
G01 X15.6938 Y-22.8745
G01 X15.7012 Y-22.8809
G01 X15.7097 Y-22.8857
G01 X15.7190 Y-22.8888
G01 X15.7239 Y-22.8896
G01 X15.7300 Y-22.8900
G01 X17.3300 Y-22.8900
G01 X17.3361 Y-22.8896
G01 X17.3445 Y-22.8878
G01 X17.3525 Y-22.8847
G01 X17.3598 Y-22.8802
G01 X17.3662 Y-22.8745
G01 X17.3709 Y-22.8688
G01 X17.3752 Y-22.8614
G01 X17.3782 Y-22.8533
G01 X17.3798 Y-22.8449
G01 X17.3800 Y-22.4652
G01 X18.8939 Y-22.4652
G01 X20.7896 Y-24.3609
G01 X20.7763 Y-24.4142
G01 X20.7640 Y-24.4979
G01 X20.7600 Y-24.5800
G01 X20.7640 Y-24.6621
G01 X20.7769 Y-24.7482
G01 X20.7966 Y-24.8267
G01 X20.8242 Y-24.9041
G01 X20.8616 Y-24.9828
G01 X20.9033 Y-25.0522
G01 X20.9529 Y-25.1192
G01 X21.0107 Y-25.1827
G01 X21.0708 Y-25.2371
G01 X21.1358 Y-25.2853
G01 X21.2093 Y-25.3296
G01 X21.2847 Y-25.3653
G01 X21.3633 Y-25.3934
G01 X21.4442 Y-25.4137
G01 X21.5267 Y-25.4259
G01 X21.6100 Y-25.4300
G01 X21.6933 Y-25.4259
G01 X21.7746 Y-25.4139
G01 X21.8567 Y-25.3934
G01 X21.9353 Y-25.3653
G01 X22.0107 Y-25.3296
G01 X22.0832 Y-25.2861
G01 X22.1492 Y-25.2371
G01 X22.2119 Y-25.1802
G01 X22.2686 Y-25.1173
G01 X22.3167 Y-25.0522
G01 X22.3450 Y-25.0052
G01 X22.7039 Y-25.0052
G01 X23.7248 Y-26.0261
G01 X23.7248 Y-30.7539
G01 X22.7039 Y-31.7748
G01 X22.4600 Y-31.7748
G01 X22.4598 Y-31.3951
G01 X22.4585 Y-31.3879
G01 X22.4557 Y-31.3797
G01 X22.4522 Y-31.3733
G01 X22.4470 Y-31.3664
G01 X22.4417 Y-31.3613
G01 X22.4346 Y-31.3565
G01 X22.4268 Y-31.3529
G01 X22.4198 Y-31.3510
G01 X22.4100 Y-31.3500
G01 X20.8088 Y-31.3500
G01 X20.8002 Y-31.3510
G01 X20.7920 Y-31.3534
G01 X20.7843 Y-31.3571
G01 X20.7773 Y-31.3621
G01 X20.7713 Y-31.3683
G01 X20.7665 Y-31.3754
G01 X20.7629 Y-31.3832
G01 X20.7607 Y-31.3915
G01 X20.7600 Y-31.4000
G01 X20.7600 Y-33.0000
G01 X20.7610 Y-33.0098
G01 X20.7638 Y-33.0191
G01 X20.7684 Y-33.0278
G01 X20.7746 Y-33.0354
G01 X20.7822 Y-33.0416
G01 X20.7909 Y-33.0462
G01 X20.8002 Y-33.0490
G01 X20.8100 Y-33.0500
G01 X22.4100 Y-33.0500
G01 X22.4173 Y-33.0495
G01 X22.4233 Y-33.0482
G01 X22.4291 Y-33.0462
G01 X22.4357 Y-33.0429
G01 X22.4408 Y-33.0394
G01 X22.4454 Y-33.0354
G01 X22.4494 Y-33.0308
G01 X22.4529 Y-33.0257
G01 X22.4557 Y-33.0203
G01 X22.4578 Y-33.0145
G01 X22.4593 Y-33.0085
G01 X22.4599 Y-33.0025
G01 X22.4600 Y-32.6252
G01 X22.8800 Y-32.6252
G01 X22.9241 Y-32.6228
G01 X22.9629 Y-32.6170
G01 X23.0011 Y-32.6075
G01 X23.0427 Y-32.5928
G01 X23.0826 Y-32.5738
G01 X23.1162 Y-32.5535
G01 X23.1478 Y-32.5302
G01 X23.1807 Y-32.5007
G01 X24.4515 Y-31.2298
G01 X24.4802 Y-31.1978
G01 X24.5035 Y-31.1662
G01 X24.5238 Y-31.1326
G01 X24.5428 Y-31.0927
G01 X24.5572 Y-31.0522
G01 X24.5670 Y-31.0129
G01 X24.5728 Y-30.9741
G01 X24.5752 Y-30.9300
G01 X24.5752 Y-25.8500
G01 X24.5728 Y-25.8059
G01 X24.5670 Y-25.7671
G01 X24.5575 Y-25.7289
G01 X24.5428 Y-25.6873
G01 X24.5238 Y-25.6474
G01 X24.5035 Y-25.6138
G01 X24.4802 Y-25.5822
G01 X24.4507 Y-25.5493
G01 X23.1807 Y-24.2793
G01 X23.1497 Y-24.2513
G01 X23.1141 Y-24.2252
G01 X23.0782 Y-24.2039
G01 X23.0427 Y-24.1872
G01 X23.0058 Y-24.1739
G01 X22.9629 Y-24.1630
G01 X22.9217 Y-24.1569
G01 X22.8800 Y-24.1548
G01 X22.3450 Y-24.1548
G01 X22.3167 Y-24.1078
G01 X22.2663 Y-24.0398
G01 X22.2110 Y-23.9790
G01 X22.1502 Y-23.9237
G01 X22.0802 Y-23.8719
G01 X22.0107 Y-23.8304
G01 X21.9353 Y-23.7947
G01 X21.8567 Y-23.7666
G01 X21.7782 Y-23.7469
G01 X21.6921 Y-23.7340
G01 X21.6100 Y-23.7300
G01 X21.5279 Y-23.7340
G01 X21.4442 Y-23.7463
G01 X21.3909 Y-23.7596
G01 X19.3707 Y-21.7393
G01 X19.3378 Y-21.7098
G01 X19.3062 Y-21.6865
G01 X19.2715 Y-21.6656
G01 X19.2327 Y-21.6472
G01 X19.1911 Y-21.6325
G01 X19.1529 Y-21.6230
G01 X19.1141 Y-21.6172
G01 X19.0712 Y-21.6148
G01 X17.3800 Y-21.6148
G01 X17.3800 Y-21.2388
G01 X17.3788 Y-21.2290
G01 X17.3762 Y-21.2209
G01 X17.3716 Y-21.2122
G01 X17.3654 Y-21.2046
G01 X17.3578 Y-21.1984
G01 X17.3491 Y-21.1938
G01 X17.3398 Y-21.1910
G01 X17.3312 Y-21.1900
G01 X16.9552 Y-21.1900
G01 X16.9552 Y-20.1338
G01 X16.9531 Y-20.0933
G01 X16.9470 Y-20.0521
G01 X16.9369 Y-20.0116
G01 X16.9218 Y-19.9700
G01 X16.9050 Y-19.9346
G01 X16.8835 Y-19.8988
G01 X16.8587 Y-19.8653
G01 X16.8315 Y-19.8352
G01 X16.3202 Y-19.3239
G01 X16.3202 Y-15.6888
G01 X16.3181 Y-15.6483
G01 X16.3124 Y-15.6095
G01 X16.3011 Y-15.5642
G01 X16.2878 Y-15.5273
G01 X16.2700 Y-15.4896
G01 X16.2485 Y-15.4538
G01 X16.2252 Y-15.4222
G01 X16.1957 Y-15.3893
G01 X12.3857 Y-11.5793
G01 X12.3547 Y-11.5513
G01 X12.3191 Y-11.5252
G01 X12.2854 Y-11.5050
G01 X12.2500 Y-11.4882
G01 X12.2084 Y-11.4731
G01 X12.1655 Y-11.4626
G01 X12.1267 Y-11.4569
G01 X12.0862 Y-11.4548
G01 X9.7032 Y-11.4548
G00 Z2.0000
G00 X7.4497 Y-11.8913
G01 F60.00
G01 Z-0.0000
G01 F120.00
G01 X7.4500 Y-11.8800
G01 X7.4497 Y-11.8687
G01 X7.4448 Y-11.7741
G01 X7.4312 Y-11.6804
G01 X7.4292 Y-11.6693
G01 X7.4268 Y-11.6583
G01 X7.4035 Y-11.5665
G01 X7.3719 Y-11.4772
G01 X7.3678 Y-11.4667
G01 X7.3632 Y-11.4564
G01 X7.3225 Y-11.3709
G01 X7.2740 Y-11.2895
G01 X7.2680 Y-11.2800
G01 X7.2118 Y-11.2038
G01 X7.2049 Y-11.1949
G01 X7.1975 Y-11.1863
G01 X7.1337 Y-11.1163
G01 X7.1255 Y-11.1085
G01 X7.0551 Y-11.0451
G01 X6.9792 Y-10.9885
G01 X6.9700 Y-10.9820
G01 X6.8889 Y-10.9331
G01 X6.8791 Y-10.9275
G01 X6.8690 Y-10.9224
G01 X6.7833 Y-10.8822
G01 X6.6942 Y-10.8500
G01 X6.6835 Y-10.8465
G01 X6.6726 Y-10.8435
G01 X6.5807 Y-10.8208
G01 X6.4871 Y-10.8066
G01 X6.4759 Y-10.8052
G01 X6.4646 Y-10.8044
G01 X6.3700 Y-10.8000
G01 X6.2754 Y-10.8044
G01 X6.2641 Y-10.8052
G01 X6.2529 Y-10.8066
G01 X6.1593 Y-10.8208
G01 X6.0674 Y-10.8435
G01 X6.0565 Y-10.8465
G01 X6.0458 Y-10.8500
G01 X5.9567 Y-10.8822
G01 X5.8710 Y-10.9224
G01 X5.8609 Y-10.9275
G01 X5.8511 Y-10.9331
G01 X5.7700 Y-10.9820
G01 X5.7608 Y-10.9885
G01 X5.6849 Y-11.0451
G01 X5.6145 Y-11.1085
G01 X5.6063 Y-11.1163
G01 X5.5425 Y-11.1863
G01 X5.5351 Y-11.1949
G01 X5.5282 Y-11.2038
G01 X5.4720 Y-11.2800
G01 X5.4231 Y-11.3611
G01 X5.4175 Y-11.3709
G01 X5.4124 Y-11.3810
G01 X5.3722 Y-11.4667
G01 X5.3400 Y-11.5558
G01 X5.3365 Y-11.5665
G01 X5.3132 Y-11.6583
G01 X5.3108 Y-11.6693
G01 X5.3088 Y-11.6804
G01 X5.2952 Y-11.7741
G01 X5.2903 Y-11.8687
G01 X5.2900 Y-11.8800
G01 X5.2903 Y-11.8913
G01 X5.2952 Y-11.9859
G01 X5.3088 Y-12.0796
G01 X5.3108 Y-12.0907
G01 X5.3132 Y-12.1017
G01 X5.3365 Y-12.1935
G01 X5.3681 Y-12.2828
G01 X5.3722 Y-12.2933
G01 X5.3768 Y-12.3036
G01 X5.4175 Y-12.3891
G01 X5.4660 Y-12.4705
G01 X5.4720 Y-12.4800
G01 X5.5282 Y-12.5562
G01 X5.5351 Y-12.5651
G01 X5.5425 Y-12.5737
G01 X5.6063 Y-12.6437
G01 X5.6145 Y-12.6515
G01 X5.6849 Y-12.7149
G01 X5.7608 Y-12.7715
G01 X5.7700 Y-12.7780
G01 X5.8511 Y-12.8269
G01 X5.8609 Y-12.8325
G01 X5.8710 Y-12.8376
G01 X5.9567 Y-12.8778
G01 X6.0458 Y-12.9100
G01 X6.0565 Y-12.9135
G01 X6.0674 Y-12.9165
G01 X6.1593 Y-12.9392
G01 X6.2529 Y-12.9534
G01 X6.2641 Y-12.9548
G01 X6.2754 Y-12.9556
G01 X6.3700 Y-12.9600
G01 X6.4646 Y-12.9556
G01 X6.4759 Y-12.9548
G01 X6.4871 Y-12.9534
G01 X6.5807 Y-12.9392
G01 X6.6726 Y-12.9165
G01 X6.6835 Y-12.9135
G01 X6.6942 Y-12.9100
G01 X6.7833 Y-12.8778
G01 X6.8690 Y-12.8376
G01 X6.8791 Y-12.8325
G01 X6.9605 Y-12.7840
G01 X6.9700 Y-12.7780
G01 X6.9792 Y-12.7715
G01 X7.0551 Y-12.7149
G01 X7.1255 Y-12.6515
G01 X7.1337 Y-12.6437
G01 X7.1975 Y-12.5737
G01 X7.2049 Y-12.5651
G01 X7.2118 Y-12.5562
G01 X7.2680 Y-12.4800
G01 X7.3169 Y-12.3989
G01 X7.3225 Y-12.3891
G01 X7.3276 Y-12.3790
G01 X7.3678 Y-12.2933
G01 X7.3719 Y-12.2828
G01 X7.4035 Y-12.1935
G01 X7.4268 Y-12.1017
G01 X7.4292 Y-12.0907
G01 X7.4312 Y-12.0796
G01 X7.4448 Y-11.9859
G01 X7.4497 Y-11.8913
G00 Z2.0000
G00 X7.3598 Y-11.8869
G01 F60.00
G01 Z-0.0000
G01 F120.00
G01 X7.3598 Y-11.8731
G01 X7.3552 Y-11.7830
G01 X7.3410 Y-11.6869
G01 X7.3174 Y-11.5926
G01 X7.2846 Y-11.5011
G01 X7.2431 Y-11.4133
G01 X7.1932 Y-11.3300
G01 X7.1353 Y-11.2520
G01 X7.0700 Y-11.1800
G01 X6.9980 Y-11.1147
G01 X6.9200 Y-11.0568
G01 X6.8367 Y-11.0069
G01 X6.7489 Y-10.9654
G01 X6.6574 Y-10.9326
G01 X6.5631 Y-10.9090
G01 X6.4670 Y-10.8948
G01 X6.3700 Y-10.8900
G01 X6.2730 Y-10.8948
G01 X6.1769 Y-10.9090
G01 X6.0826 Y-10.9326
G01 X5.9911 Y-10.9654
G01 X5.9033 Y-11.0069
G01 X5.8200 Y-11.0568
G01 X5.7420 Y-11.1147
G01 X5.6700 Y-11.1800
G01 X5.6047 Y-11.2520
G01 X5.5468 Y-11.3300
G01 X5.4969 Y-11.4133
G01 X5.4554 Y-11.5011
G01 X5.4226 Y-11.5926
G01 X5.3990 Y-11.6869
G01 X5.3848 Y-11.7830
G01 X5.3800 Y-11.8800
G01 X5.3848 Y-11.9770
G01 X5.3990 Y-12.0731
G01 X5.4226 Y-12.1674
G01 X5.4554 Y-12.2589
G01 X5.4969 Y-12.3467
G01 X5.5468 Y-12.4300
G01 X5.6047 Y-12.5080
G01 X5.6700 Y-12.5800
G01 X5.7420 Y-12.6453
G01 X5.8200 Y-12.7032
G01 X5.9033 Y-12.7531
G01 X5.9911 Y-12.7946
G01 X6.0826 Y-12.8274
G01 X6.1769 Y-12.8510
G01 X6.2730 Y-12.8652
G01 X6.3700 Y-12.8700
G01 X6.4670 Y-12.8652
G01 X6.5631 Y-12.8510
G01 X6.6574 Y-12.8274
G01 X6.7489 Y-12.7946
G01 X6.8367 Y-12.7531
G01 X6.9200 Y-12.7032
G01 X6.9980 Y-12.6453
G01 X7.0700 Y-12.5800
G01 X7.1353 Y-12.5080
G01 X7.1932 Y-12.4300
G01 X7.2431 Y-12.3467
G01 X7.2846 Y-12.2589
G01 X7.3174 Y-12.1674
G01 X7.3410 Y-12.0731
G01 X7.3552 Y-11.9770
G01 X7.3598 Y-11.8869
G00 Z2.0000
G00 X7.2699 Y-11.8825
G01 F60.00
G01 Z-0.0000
G01 F120.00
G01 X7.2657 Y-11.7918
G01 X7.2527 Y-11.7044
G01 X7.2312 Y-11.6187
G01 X7.2015 Y-11.5356
G01 X7.1637 Y-11.4557
G01 X7.1183 Y-11.3800
G01 X7.0657 Y-11.3090
G01 X7.0064 Y-11.2436
G01 X6.9410 Y-11.1843
G01 X6.8700 Y-11.1317
G01 X6.7943 Y-11.0863
G01 X6.7144 Y-11.0485
G01 X6.6313 Y-11.0188
G01 X6.5456 Y-10.9973
G01 X6.4582 Y-10.9843
G01 X6.3700 Y-10.9800
G01 X6.2818 Y-10.9843
G01 X6.1944 Y-10.9973
G01 X6.1087 Y-11.0188
G01 X6.0256 Y-11.0485
G01 X5.9457 Y-11.0863
G01 X5.8700 Y-11.1317
G01 X5.7990 Y-11.1843
G01 X5.7336 Y-11.2436
G01 X5.6743 Y-11.3090
G01 X5.6217 Y-11.3800
G01 X5.5763 Y-11.4557
G01 X5.5385 Y-11.5356
G01 X5.5088 Y-11.6187
G01 X5.4873 Y-11.7044
G01 X5.4743 Y-11.7918
G01 X5.4700 Y-11.8800
G01 X5.4743 Y-11.9682
G01 X5.4873 Y-12.0556
G01 X5.5088 Y-12.1413
G01 X5.5385 Y-12.2244
G01 X5.5763 Y-12.3043
G01 X5.6217 Y-12.3800
G01 X5.6743 Y-12.4510
G01 X5.7336 Y-12.5164
G01 X5.7990 Y-12.5757
G01 X5.8700 Y-12.6283
G01 X5.9457 Y-12.6737
G01 X6.0256 Y-12.7115
G01 X6.1087 Y-12.7412
G01 X6.1944 Y-12.7627
G01 X6.2818 Y-12.7757
G01 X6.3700 Y-12.7800
G01 X6.4582 Y-12.7757
G01 X6.5456 Y-12.7627
G01 X6.6313 Y-12.7412
G01 X6.7144 Y-12.7115
G01 X6.7943 Y-12.6737
G01 X6.8700 Y-12.6283
G01 X6.9410 Y-12.5757
G01 X7.0064 Y-12.5164
G01 X7.0657 Y-12.4510
G01 X7.1183 Y-12.3800
G01 X7.1637 Y-12.3043
G01 X7.2015 Y-12.2244
G01 X7.2312 Y-12.1413
G01 X7.2527 Y-12.0556
G01 X7.2657 Y-11.9682
G01 X7.2699 Y-11.8825
G00 Z2.0000
G00 X7.2699 Y-14.4225
G01 F60.00
G01 Z-0.0000
G01 F120.00
G01 X7.2657 Y-14.3318
G01 X7.2527 Y-14.2444
G01 X7.2312 Y-14.1587
G01 X7.2015 Y-14.0756
G01 X7.1637 Y-13.9957
G01 X7.1183 Y-13.9200
G01 X7.0657 Y-13.8490
G01 X7.0064 Y-13.7836
G01 X6.9410 Y-13.7243
G01 X6.8700 Y-13.6717
G01 X6.7943 Y-13.6263
G01 X6.7144 Y-13.5885
G01 X6.6313 Y-13.5588
G01 X6.5456 Y-13.5373
G01 X6.4582 Y-13.5243
G01 X6.3700 Y-13.5200
G01 X6.2818 Y-13.5243
G01 X6.1944 Y-13.5373
G01 X6.1087 Y-13.5588
G01 X6.0256 Y-13.5885
G01 X5.9457 Y-13.6263
G01 X5.8700 Y-13.6717
G01 X5.7990 Y-13.7243
G01 X5.7336 Y-13.7836
G01 X5.6743 Y-13.8490
G01 X5.6217 Y-13.9200
G01 X5.5763 Y-13.9957
G01 X5.5385 Y-14.0756
G01 X5.5088 Y-14.1587
G01 X5.4873 Y-14.2444
G01 X5.4743 Y-14.3318
G01 X5.4700 Y-14.4200
G01 X5.4743 Y-14.5082
G01 X5.4873 Y-14.5956
G01 X5.5088 Y-14.6813
G01 X5.5385 Y-14.7644
G01 X5.5763 Y-14.8443
G01 X5.6217 Y-14.9200
G01 X5.6743 Y-14.9910
G01 X5.7336 Y-15.0564
G01 X5.7990 Y-15.1157
G01 X5.8700 Y-15.1683
G01 X5.9457 Y-15.2137
G01 X6.0256 Y-15.2515
G01 X6.1087 Y-15.2812
G01 X6.1944 Y-15.3027
G01 X6.2818 Y-15.3157
G01 X6.3700 Y-15.3200
G01 X6.4582 Y-15.3157
G01 X6.5456 Y-15.3027
G01 X6.6313 Y-15.2812
G01 X6.7144 Y-15.2515
G01 X6.7943 Y-15.2137
G01 X6.8700 Y-15.1683
G01 X6.9410 Y-15.1157
G01 X7.0064 Y-15.0564
G01 X7.0657 Y-14.9910
G01 X7.1183 Y-14.9200
G01 X7.1637 Y-14.8443
G01 X7.2015 Y-14.7644
G01 X7.2312 Y-14.6813
G01 X7.2527 Y-14.5956
G01 X7.2657 Y-14.5082
G01 X7.2699 Y-14.4225
G00 Z2.0000
G00 X7.3598 Y-14.4269
G01 F60.00
G01 Z-0.0000
G01 F120.00
G01 X7.3598 Y-14.4131
G01 X7.3552 Y-14.3230
G01 X7.3410 Y-14.2269
G01 X7.3174 Y-14.1326
G01 X7.2846 Y-14.0411
G01 X7.2431 Y-13.9533
G01 X7.1932 Y-13.8700
G01 X7.1353 Y-13.7920
G01 X7.0700 Y-13.7200
G01 X6.9980 Y-13.6547
G01 X6.9200 Y-13.5968
G01 X6.8367 Y-13.5469
G01 X6.7489 Y-13.5054
G01 X6.6574 Y-13.4726
G01 X6.5631 Y-13.4490
G01 X6.4670 Y-13.4348
G01 X6.3700 Y-13.4300
G01 X6.2730 Y-13.4348
G01 X6.1769 Y-13.4490
G01 X6.0826 Y-13.4726
G01 X5.9911 Y-13.5054
G01 X5.9033 Y-13.5469
G01 X5.8200 Y-13.5968
G01 X5.7420 Y-13.6547
G01 X5.6700 Y-13.7200
G01 X5.6047 Y-13.7920
G01 X5.5468 Y-13.8700
G01 X5.4969 Y-13.9533
G01 X5.4554 Y-14.0411
G01 X5.4226 Y-14.1326
G01 X5.3990 Y-14.2269
G01 X5.3848 Y-14.3230
G01 X5.3800 Y-14.4200
G01 X5.3848 Y-14.5170
G01 X5.3990 Y-14.6131
G01 X5.4226 Y-14.7074
G01 X5.4554 Y-14.7989
G01 X5.4969 Y-14.8867
G01 X5.5468 Y-14.9700
G01 X5.6047 Y-15.0480
G01 X5.6700 Y-15.1200
G01 X5.7420 Y-15.1853
G01 X5.8200 Y-15.2432
G01 X5.9033 Y-15.2931
G01 X5.9911 Y-15.3346
G01 X6.0826 Y-15.3674
G01 X6.1769 Y-15.3910
G01 X6.2730 Y-15.4052
G01 X6.3700 Y-15.4100
G01 X6.4670 Y-15.4052
G01 X6.5631 Y-15.3910
G01 X6.6574 Y-15.3674
G01 X6.7489 Y-15.3346
G01 X6.8367 Y-15.2931
G01 X6.9200 Y-15.2432
G01 X6.9980 Y-15.1853
G01 X7.0700 Y-15.1200
G01 X7.1353 Y-15.0480
G01 X7.1932 Y-14.9700
G01 X7.2431 Y-14.8867
G01 X7.2846 Y-14.7989
G01 X7.3174 Y-14.7074
G01 X7.3410 Y-14.6131
G01 X7.3552 Y-14.5170
G01 X7.3598 Y-14.4269
G00 Z2.0000
G00 X7.4497 Y-14.4313
G01 F60.00
G01 Z-0.0000
G01 F120.00
G01 X7.4500 Y-14.4200
G01 X7.4497 Y-14.4087
G01 X7.4448 Y-14.3141
G01 X7.4312 Y-14.2204
G01 X7.4292 Y-14.2093
G01 X7.4268 Y-14.1983
G01 X7.4035 Y-14.1065
G01 X7.3719 Y-14.0172
G01 X7.3678 Y-14.0067
G01 X7.3632 Y-13.9964
G01 X7.3225 Y-13.9109
G01 X7.2740 Y-13.8295
G01 X7.2680 Y-13.8200
G01 X7.2118 Y-13.7438
G01 X7.2049 Y-13.7349
G01 X7.1975 Y-13.7263
G01 X7.1337 Y-13.6563
G01 X7.1255 Y-13.6485
G01 X7.0551 Y-13.5851
G01 X6.9792 Y-13.5285
G01 X6.9700 Y-13.5220
G01 X6.8889 Y-13.4731
G01 X6.8791 Y-13.4675
G01 X6.8690 Y-13.4624
G01 X6.7833 Y-13.4222
G01 X6.6942 Y-13.3900
G01 X6.6835 Y-13.3865
G01 X6.6726 Y-13.3835
G01 X6.5807 Y-13.3608
G01 X6.4871 Y-13.3466
G01 X6.4759 Y-13.3452
G01 X6.4646 Y-13.3444
G01 X6.3700 Y-13.3400
G01 X6.2754 Y-13.3444
G01 X6.2641 Y-13.3452
G01 X6.2529 Y-13.3466
G01 X6.1593 Y-13.3608
G01 X6.0674 Y-13.3835
G01 X6.0565 Y-13.3865
G01 X6.0458 Y-13.3900
G01 X5.9567 Y-13.4222
G01 X5.8710 Y-13.4624
G01 X5.8609 Y-13.4675
G01 X5.8511 Y-13.4731
G01 X5.7700 Y-13.5220
G01 X5.7608 Y-13.5285
G01 X5.6849 Y-13.5851
G01 X5.6145 Y-13.6485
G01 X5.6063 Y-13.6563
G01 X5.5425 Y-13.7263
G01 X5.5351 Y-13.7349
G01 X5.5282 Y-13.7438
G01 X5.4720 Y-13.8200
G01 X5.4231 Y-13.9011
G01 X5.4175 Y-13.9109
G01 X5.4124 Y-13.9210
G01 X5.3722 Y-14.0067
G01 X5.3400 Y-14.0958
G01 X5.3365 Y-14.1065
G01 X5.3132 Y-14.1983
G01 X5.3108 Y-14.2093
G01 X5.3088 Y-14.2204
G01 X5.2952 Y-14.3141
G01 X5.2903 Y-14.4087
G01 X5.2900 Y-14.4200
G01 X5.2903 Y-14.4313
G01 X5.2952 Y-14.5259
G01 X5.3088 Y-14.6196
G01 X5.3108 Y-14.6307
G01 X5.3132 Y-14.6417
G01 X5.3365 Y-14.7335
G01 X5.3681 Y-14.8228
G01 X5.3722 Y-14.8333
G01 X5.3768 Y-14.8436
G01 X5.4175 Y-14.9291
G01 X5.4660 Y-15.0105
G01 X5.4720 Y-15.0200
G01 X5.5282 Y-15.0962
G01 X5.5351 Y-15.1051
G01 X5.5425 Y-15.1137
G01 X5.6063 Y-15.1837
G01 X5.6145 Y-15.1915
G01 X5.6849 Y-15.2549
G01 X5.7608 Y-15.3115
G01 X5.7700 Y-15.3180
G01 X5.8511 Y-15.3669
G01 X5.8609 Y-15.3725
G01 X5.8710 Y-15.3776
G01 X5.9567 Y-15.4178
G01 X6.0458 Y-15.4500
G01 X6.0565 Y-15.4535
G01 X6.0674 Y-15.4565
G01 X6.1593 Y-15.4792
G01 X6.2529 Y-15.4934
G01 X6.2641 Y-15.4948
G01 X6.2754 Y-15.4956
G01 X6.3700 Y-15.5000
G01 X6.4646 Y-15.4956
G01 X6.4759 Y-15.4948
G01 X6.4871 Y-15.4934
G01 X6.5807 Y-15.4792
G01 X6.6726 Y-15.4565
G01 X6.6835 Y-15.4535
G01 X6.6942 Y-15.4500
G01 X6.7833 Y-15.4178
G01 X6.8690 Y-15.3776
G01 X6.8791 Y-15.3725
G01 X6.9605 Y-15.3240
G01 X6.9700 Y-15.3180
G01 X6.9792 Y-15.3115
G01 X7.0551 Y-15.2549
G01 X7.1255 Y-15.1915
G01 X7.1337 Y-15.1837
G01 X7.1975 Y-15.1137
G01 X7.2049 Y-15.1051
G01 X7.2118 Y-15.0962
G01 X7.2680 Y-15.0200
G01 X7.3169 Y-14.9389
G01 X7.3225 Y-14.9291
G01 X7.3276 Y-14.9190
G01 X7.3678 Y-14.8333
G01 X7.3719 Y-14.8228
G01 X7.4035 Y-14.7335
G01 X7.4268 Y-14.6417
G01 X7.4292 Y-14.6307
G01 X7.4312 Y-14.6196
G01 X7.4448 Y-14.5259
G01 X7.4497 Y-14.4313
G00 Z2.0000
G00 X7.5396 Y-14.4357
G01 F60.00
G01 Z-0.0000
G01 F120.00
G01 X7.5400 Y-14.4200
G01 X7.5396 Y-14.4043
G01 X7.5355 Y-14.3210
G01 X7.5344 Y-14.3053
G01 X7.5324 Y-14.2897
G01 X7.5202 Y-14.2072
G01 X7.5175 Y-14.1917
G01 X7.5141 Y-14.1764
G01 X7.4938 Y-14.0955
G01 X7.4896 Y-14.0804
G01 X7.4847 Y-14.0655
G01 X7.4566 Y-13.9869
G01 X7.4509 Y-13.9723
G01 X7.4446 Y-13.9579
G01 X7.4089 Y-13.8825
G01 X7.4018 Y-13.8685
G01 X7.3941 Y-13.8548
G01 X7.3512 Y-13.7833
G01 X7.3428 Y-13.7700
G01 X7.3338 Y-13.7571
G01 X7.2841 Y-13.6901
G01 X7.2744 Y-13.6778
G01 X7.2642 Y-13.6659
G01 X7.2081 Y-13.6041
G01 X7.1973 Y-13.5927
G01 X7.1859 Y-13.5819
G01 X7.1241 Y-13.5258
G01 X7.1122 Y-13.5156
G01 X7.0999 Y-13.5059
G01 X7.0329 Y-13.4562
G01 X7.0200 Y-13.4472
G01 X7.0067 Y-13.4388
G01 X6.9352 Y-13.3959
G01 X6.9215 Y-13.3882
G01 X6.9075 Y-13.3811
G01 X6.8321 Y-13.3454
G01 X6.8177 Y-13.3391
G01 X6.8031 Y-13.3334
G01 X6.7245 Y-13.3053
G01 X6.7096 Y-13.3004
G01 X6.6945 Y-13.2962
G01 X6.6136 Y-13.2759
G01 X6.5983 Y-13.2725
G01 X6.5828 Y-13.2698
G01 X6.5003 Y-13.2576
G01 X6.4847 Y-13.2556
G01 X6.4690 Y-13.2545
G01 X6.3857 Y-13.2504
G01 X6.3700 Y-13.2500
G01 X6.3543 Y-13.2504
G01 X6.2710 Y-13.2545
G01 X6.2553 Y-13.2556
G01 X6.2397 Y-13.2576
G01 X6.1572 Y-13.2698
G01 X6.1417 Y-13.2725
G01 X6.1264 Y-13.2759
G01 X6.0455 Y-13.2962
G01 X6.0304 Y-13.3004
G01 X6.0155 Y-13.3053
G01 X5.9369 Y-13.3334
G01 X5.9223 Y-13.3391
G01 X5.9079 Y-13.3454
G01 X5.8325 Y-13.3811
G01 X5.8185 Y-13.3882
G01 X5.8048 Y-13.3959
G01 X5.7333 Y-13.4388
G01 X5.7200 Y-13.4472
G01 X5.7071 Y-13.4562
G01 X5.6401 Y-13.5059
G01 X5.6278 Y-13.5156
G01 X5.6159 Y-13.5258
G01 X5.5541 Y-13.5819
G01 X5.5427 Y-13.5927
G01 X5.5319 Y-13.6041
G01 X5.4758 Y-13.6659
G01 X5.4656 Y-13.6778
G01 X5.4559 Y-13.6901
G01 X5.4062 Y-13.7571
G01 X5.3972 Y-13.7700
G01 X5.3888 Y-13.7833
G01 X5.3459 Y-13.8548
G01 X5.3382 Y-13.8685
G01 X5.3311 Y-13.8825
G01 X5.2954 Y-13.9579
G01 X5.2891 Y-13.9723
G01 X5.2834 Y-13.9869
G01 X5.2553 Y-14.0655
G01 X5.2504 Y-14.0804
G01 X5.2462 Y-14.0955
G01 X5.2259 Y-14.1764
G01 X5.2225 Y-14.1917
G01 X5.2198 Y-14.2072
G01 X5.2076 Y-14.2897
G01 X5.2056 Y-14.3053
G01 X5.2045 Y-14.3210
G01 X5.2004 Y-14.4043
G01 X5.2000 Y-14.4200
G01 X5.2004 Y-14.4357
G01 X5.2045 Y-14.5190
G01 X5.2056 Y-14.5347
G01 X5.2076 Y-14.5503
G01 X5.2198 Y-14.6328
G01 X5.2225 Y-14.6483
G01 X5.2259 Y-14.6636
G01 X5.2462 Y-14.7445
G01 X5.2504 Y-14.7596
G01 X5.2553 Y-14.7745
G01 X5.2834 Y-14.8531
G01 X5.2891 Y-14.8677
G01 X5.2954 Y-14.8821
G01 X5.3311 Y-14.9575
G01 X5.3382 Y-14.9715
G01 X5.3459 Y-14.9852
G01 X5.3888 Y-15.0567
G01 X5.3972 Y-15.0700
G01 X5.4062 Y-15.0829
G01 X5.4559 Y-15.1499
G01 X5.4656 Y-15.1622
G01 X5.4758 Y-15.1741
G01 X5.5319 Y-15.2359
G01 X5.5427 Y-15.2473
G01 X5.5541 Y-15.2581
G01 X5.6159 Y-15.3142
G01 X5.6278 Y-15.3244
G01 X5.6401 Y-15.3341
G01 X5.7071 Y-15.3838
G01 X5.7200 Y-15.3928
G01 X5.7333 Y-15.4012
G01 X5.8048 Y-15.4441
G01 X5.8185 Y-15.4518
G01 X5.8325 Y-15.4589
G01 X5.9079 Y-15.4946
G01 X5.9223 Y-15.5009
G01 X5.9369 Y-15.5066
G01 X6.0155 Y-15.5347
G01 X6.0304 Y-15.5396
G01 X6.0455 Y-15.5438
G01 X6.1264 Y-15.5641
G01 X6.1417 Y-15.5675
G01 X6.1572 Y-15.5702
G01 X6.2397 Y-15.5824
G01 X6.2553 Y-15.5844
G01 X6.2710 Y-15.5855
G01 X6.3543 Y-15.5896
G01 X6.3700 Y-15.5900
G01 X6.3857 Y-15.5896
G01 X6.4690 Y-15.5855
G01 X6.4847 Y-15.5844
G01 X6.5003 Y-15.5824
G01 X6.5828 Y-15.5702
G01 X6.5983 Y-15.5675
G01 X6.6136 Y-15.5641
G01 X6.6945 Y-15.5438
G01 X6.7096 Y-15.5396
G01 X6.7245 Y-15.5347
G01 X6.8031 Y-15.5066
G01 X6.8177 Y-15.5009
G01 X6.8321 Y-15.4946
G01 X6.9075 Y-15.4589
G01 X6.9215 Y-15.4518
G01 X6.9352 Y-15.4441
G01 X7.0067 Y-15.4012
G01 X7.0200 Y-15.3928
G01 X7.0329 Y-15.3838
G01 X7.0999 Y-15.3341
G01 X7.1122 Y-15.3244
G01 X7.1241 Y-15.3142
G01 X7.1859 Y-15.2581
G01 X7.1973 Y-15.2473
G01 X7.2081 Y-15.2359
G01 X7.2642 Y-15.1741
G01 X7.2744 Y-15.1622
G01 X7.2841 Y-15.1499
G01 X7.3338 Y-15.0829
G01 X7.3428 Y-15.0700
G01 X7.3512 Y-15.0567
G01 X7.3941 Y-14.9852
G01 X7.4018 Y-14.9715
G01 X7.4089 Y-14.9575
G01 X7.4446 Y-14.8821
G01 X7.4509 Y-14.8677
G01 X7.4566 Y-14.8531
G01 X7.4847 Y-14.7745
G01 X7.4896 Y-14.7596
G01 X7.4938 Y-14.7445
G01 X7.5141 Y-14.6636
G01 X7.5175 Y-14.6483
G01 X7.5202 Y-14.6328
G01 X7.5324 Y-14.5503
G01 X7.5344 Y-14.5347
G01 X7.5355 Y-14.5190
G01 X7.5396 Y-14.4357
G00 Z2.0000
G00 X9.8099 Y-14.4225
G01 F60.00
G01 Z-0.0000
G01 F120.00
G01 X9.8057 Y-14.3318
G01 X9.7927 Y-14.2444
G01 X9.7712 Y-14.1587
G01 X9.7415 Y-14.0756
G01 X9.7037 Y-13.9957
G01 X9.6583 Y-13.9200
G01 X9.6057 Y-13.8490
G01 X9.5464 Y-13.7836
G01 X9.4810 Y-13.7243
G01 X9.4100 Y-13.6717
G01 X9.3343 Y-13.6263
G01 X9.2544 Y-13.5885
G01 X9.1713 Y-13.5588
G01 X9.0856 Y-13.5373
G01 X8.9982 Y-13.5243
G01 X8.9100 Y-13.5200
G01 X8.8218 Y-13.5243
G01 X8.7344 Y-13.5373
G01 X8.6487 Y-13.5588
G01 X8.5656 Y-13.5885
G01 X8.4857 Y-13.6263
G01 X8.4100 Y-13.6717
G01 X8.3390 Y-13.7243
G01 X8.2736 Y-13.7836
G01 X8.2143 Y-13.8490
G01 X8.1617 Y-13.9200
G01 X8.1163 Y-13.9957
G01 X8.0785 Y-14.0756
G01 X8.0488 Y-14.1587
G01 X8.0273 Y-14.2444
G01 X8.0143 Y-14.3318
G01 X8.0100 Y-14.4200
G01 X8.0143 Y-14.5082
G01 X8.0273 Y-14.5956
G01 X8.0488 Y-14.6813
G01 X8.0785 Y-14.7644
G01 X8.1163 Y-14.8443
G01 X8.1617 Y-14.9200
G01 X8.2143 Y-14.9910
G01 X8.2736 Y-15.0564
G01 X8.3390 Y-15.1157
G01 X8.4100 Y-15.1683
G01 X8.4857 Y-15.2137
G01 X8.5656 Y-15.2515
G01 X8.6487 Y-15.2812
G01 X8.7344 Y-15.3027
G01 X8.8218 Y-15.3157
G01 X8.9100 Y-15.3200
G01 X8.9982 Y-15.3157
G01 X9.0856 Y-15.3027
G01 X9.1713 Y-15.2812
G01 X9.2544 Y-15.2515
G01 X9.3343 Y-15.2137
G01 X9.4100 Y-15.1683
G01 X9.4810 Y-15.1157
G01 X9.5464 Y-15.0564
G01 X9.6057 Y-14.9910
G01 X9.6583 Y-14.9200
G01 X9.7037 Y-14.8443
G01 X9.7415 Y-14.7644
G01 X9.7712 Y-14.6813
G01 X9.7927 Y-14.5956
G01 X9.8057 Y-14.5082
G01 X9.8099 Y-14.4225
G00 Z2.0000
G00 X9.8998 Y-14.4269
G01 F60.00
G01 Z-0.0000
G01 F120.00
G01 X9.8998 Y-14.4131
G01 X9.8952 Y-14.3230
G01 X9.8810 Y-14.2269
G01 X9.8574 Y-14.1326
G01 X9.8246 Y-14.0411
G01 X9.7831 Y-13.9533
G01 X9.7332 Y-13.8700
G01 X9.6753 Y-13.7920
G01 X9.6100 Y-13.7200
G01 X9.5380 Y-13.6547
G01 X9.4600 Y-13.5968
G01 X9.3767 Y-13.5469
G01 X9.2889 Y-13.5054
G01 X9.1974 Y-13.4726
G01 X9.1031 Y-13.4490
G01 X9.0070 Y-13.4348
G01 X8.9100 Y-13.4300
G01 X8.8130 Y-13.4348
G01 X8.7169 Y-13.4490
G01 X8.6226 Y-13.4726
G01 X8.5311 Y-13.5054
G01 X8.4433 Y-13.5469
G01 X8.3600 Y-13.5968
G01 X8.2820 Y-13.6547
G01 X8.2100 Y-13.7200
G01 X8.1447 Y-13.7920
G01 X8.0868 Y-13.8700
G01 X8.0369 Y-13.9533
G01 X7.9954 Y-14.0411
G01 X7.9626 Y-14.1326
G01 X7.9390 Y-14.2269
G01 X7.9248 Y-14.3230
G01 X7.9200 Y-14.4200
G01 X7.9248 Y-14.5170
G01 X7.9390 Y-14.6131
G01 X7.9626 Y-14.7074
G01 X7.9954 Y-14.7989
G01 X8.0369 Y-14.8867
G01 X8.0868 Y-14.9700
G01 X8.1447 Y-15.0480
G01 X8.2100 Y-15.1200
G01 X8.2820 Y-15.1853
G01 X8.3600 Y-15.2432
G01 X8.4433 Y-15.2931
G01 X8.5311 Y-15.3346
G01 X8.6226 Y-15.3674
G01 X8.7169 Y-15.3910
G01 X8.8130 Y-15.4052
G01 X8.9100 Y-15.4100
G01 X9.0070 Y-15.4052
G01 X9.1031 Y-15.3910
G01 X9.1974 Y-15.3674
G01 X9.2889 Y-15.3346
G01 X9.3767 Y-15.2931
G01 X9.4600 Y-15.2432
G01 X9.5380 Y-15.1853
G01 X9.6100 Y-15.1200
G01 X9.6753 Y-15.0480
G01 X9.7332 Y-14.9700
G01 X9.7831 Y-14.8867
G01 X9.8246 Y-14.7989
G01 X9.8574 Y-14.7074
G01 X9.8810 Y-14.6131
G01 X9.8952 Y-14.5170
G01 X9.8998 Y-14.4269
G00 Z2.0000
G00 X9.9897 Y-14.4313
G01 F60.00
G01 Z-0.0000
G01 F120.00
G01 X9.9900 Y-14.4200
G01 X9.9897 Y-14.4087
G01 X9.9848 Y-14.3141
G01 X9.9712 Y-14.2204
G01 X9.9692 Y-14.2093
G01 X9.9465 Y-14.1174
G01 X9.9435 Y-14.1065
G01 X9.9400 Y-14.0958
G01 X9.9078 Y-14.0067
G01 X9.9032 Y-13.9964
G01 X9.8625 Y-13.9109
G01 X9.8140 Y-13.8295
G01 X9.8080 Y-13.8200
G01 X9.8015 Y-13.8108
G01 X9.7449 Y-13.7349
G01 X9.6815 Y-13.6645
G01 X9.6737 Y-13.6563
G01 X9.6655 Y-13.6485
G01 X9.5951 Y-13.5851
G01 X9.5192 Y-13.5285
G01 X9.5100 Y-13.5220
G01 X9.4289 Y-13.4731
G01 X9.4191 Y-13.4675
G01 X9.4090 Y-13.4624
G01 X9.3233 Y-13.4222
G01 X9.2342 Y-13.3900
G01 X9.2235 Y-13.3865
G01 X9.2126 Y-13.3835
G01 X9.1207 Y-13.3608
G01 X9.0271 Y-13.3466
G01 X9.0159 Y-13.3452
G01 X9.0046 Y-13.3444
G01 X8.9100 Y-13.3400
G01 X8.8154 Y-13.3444
G01 X8.8041 Y-13.3452
G01 X8.7929 Y-13.3466
G01 X8.6993 Y-13.3608
G01 X8.6074 Y-13.3835
G01 X8.5965 Y-13.3865
G01 X8.5858 Y-13.3900
G01 X8.4967 Y-13.4222
G01 X8.4110 Y-13.4624
G01 X8.4009 Y-13.4675
G01 X8.3911 Y-13.4731
G01 X8.3100 Y-13.5220
G01 X8.3008 Y-13.5285
G01 X8.2249 Y-13.5851
G01 X8.1545 Y-13.6485
G01 X8.1463 Y-13.6563
G01 X8.0825 Y-13.7263
G01 X8.0751 Y-13.7349
G01 X8.0682 Y-13.7438
G01 X8.0120 Y-13.8200
G01 X8.0060 Y-13.8295
G01 X7.9575 Y-13.9109
G01 X7.9524 Y-13.9210
G01 X7.9122 Y-14.0067
G01 X7.8800 Y-14.0958
G01 X7.8765 Y-14.1065
G01 X7.8532 Y-14.1983
G01 X7.8508 Y-14.2093
G01 X7.8488 Y-14.2204
G01 X7.8352 Y-14.3141
G01 X7.8303 Y-14.4087
G01 X7.8300 Y-14.4200
G01 X7.8303 Y-14.4313
G01 X7.8352 Y-14.5259
G01 X7.8488 Y-14.6196
G01 X7.8508 Y-14.6307
G01 X7.8532 Y-14.6417
G01 X7.8765 Y-14.7335
G01 X7.9081 Y-14.8228
G01 X7.9122 Y-14.8333
G01 X7.9168 Y-14.8436
G01 X7.9575 Y-14.9291
G01 X7.9631 Y-14.9389
G01 X8.0120 Y-15.0200
G01 X8.0185 Y-15.0292
G01 X8.0751 Y-15.1051
G01 X8.1385 Y-15.1755
G01 X8.1463 Y-15.1837
G01 X8.1545 Y-15.1915
G01 X8.2249 Y-15.2549
G01 X8.3008 Y-15.3115
G01 X8.3100 Y-15.3180
G01 X8.3911 Y-15.3669
G01 X8.4009 Y-15.3725
G01 X8.4110 Y-15.3776
G01 X8.4967 Y-15.4178
G01 X8.5858 Y-15.4500
G01 X8.5965 Y-15.4535
G01 X8.6074 Y-15.4565
G01 X8.6993 Y-15.4792
G01 X8.7929 Y-15.4934
G01 X8.8041 Y-15.4948
G01 X8.8154 Y-15.4956
G01 X8.9100 Y-15.5000
G01 X9.0046 Y-15.4956
G01 X9.0159 Y-15.4948
G01 X9.0271 Y-15.4934
G01 X9.1207 Y-15.4792
G01 X9.2126 Y-15.4565
G01 X9.2235 Y-15.4535
G01 X9.2342 Y-15.4500
G01 X9.3233 Y-15.4178
G01 X9.4090 Y-15.3776
G01 X9.4191 Y-15.3725
G01 X9.5005 Y-15.3240
G01 X9.5100 Y-15.3180
G01 X9.5192 Y-15.3115
G01 X9.5951 Y-15.2549
G01 X9.6655 Y-15.1915
G01 X9.6737 Y-15.1837
G01 X9.7375 Y-15.1137
G01 X9.7449 Y-15.1051
G01 X9.7518 Y-15.0962
G01 X9.8080 Y-15.0200
G01 X9.8569 Y-14.9389
G01 X9.8625 Y-14.9291
G01 X9.8676 Y-14.9190
G01 X9.9078 Y-14.8333
G01 X9.9400 Y-14.7442
G01 X9.9435 Y-14.7335
G01 X9.9668 Y-14.6417
G01 X9.9692 Y-14.6307
G01 X9.9834 Y-14.5371
G01 X9.9848 Y-14.5259
G01 X9.9897 Y-14.4313
G00 Z2.0000
G00 X10.0796 Y-14.4357
G01 F60.00
G01 Z-0.0000
G01 F120.00
G01 X10.0800 Y-14.4200
G01 X10.0796 Y-14.4043
G01 X10.0755 Y-14.3210
G01 X10.0744 Y-14.3053
G01 X10.0724 Y-14.2897
G01 X10.0602 Y-14.2072
G01 X10.0575 Y-14.1917
G01 X10.0541 Y-14.1764
G01 X10.0338 Y-14.0955
G01 X10.0296 Y-14.0804
G01 X10.0247 Y-14.0655
G01 X9.9966 Y-13.9869
G01 X9.9909 Y-13.9723
G01 X9.9846 Y-13.9579
G01 X9.9489 Y-13.8825
G01 X9.9418 Y-13.8685
G01 X9.9341 Y-13.8548
G01 X9.8912 Y-13.7833
G01 X9.8828 Y-13.7700
G01 X9.8738 Y-13.7571
G01 X9.8241 Y-13.6901
G01 X9.8144 Y-13.6778
G01 X9.8042 Y-13.6659
G01 X9.7481 Y-13.6041
G01 X9.7373 Y-13.5927
G01 X9.7259 Y-13.5819
G01 X9.6641 Y-13.5258
G01 X9.6522 Y-13.5156
G01 X9.6399 Y-13.5059
G01 X9.5729 Y-13.4562
G01 X9.5600 Y-13.4472
G01 X9.5467 Y-13.4388
G01 X9.4752 Y-13.3959
G01 X9.4615 Y-13.3882
G01 X9.4475 Y-13.3811
G01 X9.3721 Y-13.3454
G01 X9.3577 Y-13.3391
G01 X9.3431 Y-13.3334
G01 X9.2645 Y-13.3053
G01 X9.2496 Y-13.3004
G01 X9.2345 Y-13.2962
G01 X9.1536 Y-13.2759
G01 X9.1383 Y-13.2725
G01 X9.1228 Y-13.2698
G01 X9.0403 Y-13.2576
G01 X9.0247 Y-13.2556
G01 X9.0090 Y-13.2545
G01 X8.9257 Y-13.2504
G01 X8.9100 Y-13.2500
G01 X8.8943 Y-13.2504
G01 X8.8110 Y-13.2545
G01 X8.7953 Y-13.2556
G01 X8.7797 Y-13.2576
G01 X8.6972 Y-13.2698
G01 X8.6817 Y-13.2725
G01 X8.6664 Y-13.2759
G01 X8.5855 Y-13.2962
G01 X8.5704 Y-13.3004
G01 X8.5555 Y-13.3053
G01 X8.4769 Y-13.3334
G01 X8.4623 Y-13.3391
G01 X8.4479 Y-13.3454
G01 X8.3725 Y-13.3811
G01 X8.3585 Y-13.3882
G01 X8.3448 Y-13.3959
G01 X8.2733 Y-13.4388
G01 X8.2600 Y-13.4472
G01 X8.2471 Y-13.4562
G01 X8.1801 Y-13.5059
G01 X8.1678 Y-13.5156
G01 X8.1559 Y-13.5258
G01 X8.0941 Y-13.5819
G01 X8.0827 Y-13.5927
G01 X8.0719 Y-13.6041
G01 X8.0158 Y-13.6659
G01 X8.0056 Y-13.6778
G01 X7.9959 Y-13.6901
G01 X7.9462 Y-13.7571
G01 X7.9372 Y-13.7700
G01 X7.9288 Y-13.7833
G01 X7.8859 Y-13.8548
G01 X7.8782 Y-13.8685
G01 X7.8711 Y-13.8825
G01 X7.8354 Y-13.9579
G01 X7.8291 Y-13.9723
G01 X7.8234 Y-13.9869
G01 X7.7953 Y-14.0655
G01 X7.7904 Y-14.0804
G01 X7.7862 Y-14.0955
G01 X7.7659 Y-14.1764
G01 X7.7625 Y-14.1917
G01 X7.7598 Y-14.2072
G01 X7.7476 Y-14.2897
G01 X7.7456 Y-14.3053
G01 X7.7445 Y-14.3210
G01 X7.7404 Y-14.4043
G01 X7.7400 Y-14.4200
G01 X7.7404 Y-14.4357
G01 X7.7445 Y-14.5190
G01 X7.7456 Y-14.5347
G01 X7.7476 Y-14.5503
G01 X7.7598 Y-14.6328
G01 X7.7625 Y-14.6483
G01 X7.7659 Y-14.6636
G01 X7.7862 Y-14.7445
G01 X7.7904 Y-14.7596
G01 X7.7953 Y-14.7745
G01 X7.8234 Y-14.8531
G01 X7.8291 Y-14.8677
G01 X7.8354 Y-14.8821
G01 X7.8711 Y-14.9575
G01 X7.8782 Y-14.9715
G01 X7.8859 Y-14.9852
G01 X7.9288 Y-15.0567
G01 X7.9372 Y-15.0700
G01 X7.9462 Y-15.0829
G01 X7.9959 Y-15.1499
G01 X8.0056 Y-15.1622
G01 X8.0158 Y-15.1741
G01 X8.0719 Y-15.2359
G01 X8.0827 Y-15.2473
G01 X8.0941 Y-15.2581
G01 X8.1559 Y-15.3142
G01 X8.1678 Y-15.3244
G01 X8.1801 Y-15.3341
G01 X8.2471 Y-15.3838
G01 X8.2600 Y-15.3928
G01 X8.2733 Y-15.4012
G01 X8.3448 Y-15.4441
G01 X8.3585 Y-15.4518
G01 X8.3725 Y-15.4589
G01 X8.4479 Y-15.4946
G01 X8.4623 Y-15.5009
G01 X8.4769 Y-15.5066
G01 X8.5555 Y-15.5347
G01 X8.5704 Y-15.5396
G01 X8.5855 Y-15.5438
G01 X8.6664 Y-15.5641
G01 X8.6817 Y-15.5675
G01 X8.6972 Y-15.5702
G01 X8.7797 Y-15.5824
G01 X8.7953 Y-15.5844
G01 X8.8110 Y-15.5855
G01 X8.8943 Y-15.5896
G01 X8.9100 Y-15.5900
G01 X8.9257 Y-15.5896
G01 X9.0090 Y-15.5855
G01 X9.0247 Y-15.5844
G01 X9.0403 Y-15.5824
G01 X9.1228 Y-15.5702
G01 X9.1383 Y-15.5675
G01 X9.1536 Y-15.5641
G01 X9.2345 Y-15.5438
G01 X9.2496 Y-15.5396
G01 X9.2645 Y-15.5347
G01 X9.3431 Y-15.5066
G01 X9.3577 Y-15.5009
G01 X9.3721 Y-15.4946
G01 X9.4475 Y-15.4589
G01 X9.4615 Y-15.4518
G01 X9.4752 Y-15.4441
G01 X9.5467 Y-15.4012
G01 X9.5600 Y-15.3928
G01 X9.5729 Y-15.3838
G01 X9.6399 Y-15.3341
G01 X9.6522 Y-15.3244
G01 X9.6641 Y-15.3142
G01 X9.7259 Y-15.2581
G01 X9.7373 Y-15.2473
G01 X9.7481 Y-15.2359
G01 X9.8042 Y-15.1741
G01 X9.8144 Y-15.1622
G01 X9.8241 Y-15.1499
G01 X9.8738 Y-15.0829
G01 X9.8828 Y-15.0700
G01 X9.8912 Y-15.0567
G01 X9.9341 Y-14.9852
G01 X9.9418 Y-14.9715
G01 X9.9489 Y-14.9575
G01 X9.9846 Y-14.8821
G01 X9.9909 Y-14.8677
G01 X9.9966 Y-14.8531
G01 X10.0247 Y-14.7745
G01 X10.0296 Y-14.7596
G01 X10.0338 Y-14.7445
G01 X10.0541 Y-14.6636
G01 X10.0575 Y-14.6483
G01 X10.0602 Y-14.6328
G01 X10.0724 Y-14.5503
G01 X10.0744 Y-14.5347
G01 X10.0755 Y-14.5190
G01 X10.0796 Y-14.4357
G00 Z2.0000
G00 X9.9897 Y-16.9713
G01 F60.00
G01 Z-0.0000
G01 F120.00
G01 X9.9900 Y-16.9600
G01 X9.9897 Y-16.9487
G01 X9.9848 Y-16.8541
G01 X9.9712 Y-16.7604
G01 X9.9692 Y-16.7493
G01 X9.9465 Y-16.6574
G01 X9.9435 Y-16.6465
G01 X9.9119 Y-16.5572
G01 X9.9078 Y-16.5467
G01 X9.9032 Y-16.5364
G01 X9.8625 Y-16.4509
G01 X9.8140 Y-16.3695
G01 X9.8080 Y-16.3600
G01 X9.8015 Y-16.3508
G01 X9.7449 Y-16.2749
G01 X9.6815 Y-16.2045
G01 X9.6737 Y-16.1963
G01 X9.6655 Y-16.1885
G01 X9.5951 Y-16.1251
G01 X9.5862 Y-16.1182
G01 X9.5100 Y-16.0620
G01 X9.4289 Y-16.0131
G01 X9.4191 Y-16.0075
G01 X9.4090 Y-16.0024
G01 X9.3233 Y-15.9622
G01 X9.2342 Y-15.9300
G01 X9.2235 Y-15.9265
G01 X9.2126 Y-15.9235
G01 X9.1207 Y-15.9008
G01 X9.0271 Y-15.8866
G01 X9.0159 Y-15.8852
G01 X9.0046 Y-15.8844
G01 X8.9100 Y-15.8800
G01 X8.8154 Y-15.8844
G01 X8.8041 Y-15.8852
G01 X8.7929 Y-15.8866
G01 X8.6993 Y-15.9008
G01 X8.6074 Y-15.9235
G01 X8.5965 Y-15.9265
G01 X8.5858 Y-15.9300
G01 X8.4967 Y-15.9622
G01 X8.4110 Y-16.0024
G01 X8.4009 Y-16.0075
G01 X8.3911 Y-16.0131
G01 X8.3100 Y-16.0620
G01 X8.2338 Y-16.1182
G01 X8.2249 Y-16.1251
G01 X8.1545 Y-16.1885
G01 X8.1463 Y-16.1963
G01 X8.0825 Y-16.2663
G01 X8.0751 Y-16.2749
G01 X8.0682 Y-16.2838
G01 X8.0120 Y-16.3600
G01 X8.0060 Y-16.3695
G01 X7.9575 Y-16.4509
G01 X7.9524 Y-16.4610
G01 X7.9122 Y-16.5467
G01 X7.8800 Y-16.6358
G01 X7.8765 Y-16.6465
G01 X7.8532 Y-16.7383
G01 X7.8508 Y-16.7493
G01 X7.8488 Y-16.7604
G01 X7.8352 Y-16.8541
G01 X7.8303 Y-16.9487
G01 X7.8300 Y-16.9600
G01 X7.8344 Y-17.0546
G01 X7.8352 Y-17.0659
G01 X7.8366 Y-17.0771
G01 X7.8508 Y-17.1707
G01 X7.8532 Y-17.1817
G01 X7.8765 Y-17.2735
G01 X7.9081 Y-17.3628
G01 X7.9122 Y-17.3733
G01 X7.9168 Y-17.3836
G01 X7.9575 Y-17.4691
G01 X8.0060 Y-17.5505
G01 X8.0120 Y-17.5600
G01 X8.0185 Y-17.5692
G01 X8.0751 Y-17.6451
G01 X8.1385 Y-17.7155
G01 X8.1463 Y-17.7237
G01 X8.1545 Y-17.7315
G01 X8.2249 Y-17.7949
G01 X8.2338 Y-17.8018
G01 X8.3100 Y-17.8580
G01 X8.3911 Y-17.9069
G01 X8.4009 Y-17.9125
G01 X8.4110 Y-17.9176
G01 X8.4967 Y-17.9578
G01 X8.5858 Y-17.9900
G01 X8.5965 Y-17.9935
G01 X8.6074 Y-17.9965
G01 X8.6993 Y-18.0192
G01 X8.7929 Y-18.0334
G01 X8.8041 Y-18.0348
G01 X8.8154 Y-18.0356
G01 X8.9100 Y-18.0400
G01 X8.9213 Y-18.0397
G01 X9.0159 Y-18.0348
G01 X9.0271 Y-18.0334
G01 X9.1207 Y-18.0192
G01 X9.2126 Y-17.9965
G01 X9.2235 Y-17.9935
G01 X9.2342 Y-17.9900
G01 X9.3233 Y-17.9578
G01 X9.4090 Y-17.9176
G01 X9.4191 Y-17.9125
G01 X9.4289 Y-17.9069
G01 X9.5100 Y-17.8580
G01 X9.5192 Y-17.8515
G01 X9.5951 Y-17.7949
G01 X9.6655 Y-17.7315
G01 X9.6737 Y-17.7237
G01 X9.7375 Y-17.6537
G01 X9.7449 Y-17.6451
G01 X9.7518 Y-17.6362
G01 X9.8080 Y-17.5600
G01 X9.8569 Y-17.4789
G01 X9.8625 Y-17.4691
G01 X9.8676 Y-17.4590
G01 X9.9078 Y-17.3733
G01 X9.9400 Y-17.2842
G01 X9.9435 Y-17.2735
G01 X9.9668 Y-17.1817
G01 X9.9692 Y-17.1707
G01 X9.9834 Y-17.0771
G01 X9.9848 Y-17.0659
G01 X9.9897 Y-16.9713
G00 Z2.0000
G00 X9.8998 Y-16.9669
G01 F60.00
G01 Z-0.0000
G01 F120.00
G01 X9.8998 Y-16.9531
G01 X9.8952 Y-16.8630
G01 X9.8810 Y-16.7669
G01 X9.8574 Y-16.6726
G01 X9.8246 Y-16.5811
G01 X9.7831 Y-16.4933
G01 X9.7332 Y-16.4100
G01 X9.6753 Y-16.3320
G01 X9.6100 Y-16.2600
G01 X9.5380 Y-16.1947
G01 X9.4600 Y-16.1368
G01 X9.3767 Y-16.0869
G01 X9.2889 Y-16.0454
G01 X9.1974 Y-16.0126
G01 X9.1031 Y-15.9890
G01 X9.0070 Y-15.9748
G01 X8.9100 Y-15.9700
G01 X8.8130 Y-15.9748
G01 X8.7169 Y-15.9890
G01 X8.6226 Y-16.0126
G01 X8.5311 Y-16.0454
G01 X8.4433 Y-16.0869
G01 X8.3600 Y-16.1368
G01 X8.2820 Y-16.1947
G01 X8.2100 Y-16.2600
G01 X8.1447 Y-16.3320
G01 X8.0868 Y-16.4100
G01 X8.0369 Y-16.4933
G01 X7.9954 Y-16.5811
G01 X7.9626 Y-16.6726
G01 X7.9390 Y-16.7669
G01 X7.9248 Y-16.8630
G01 X7.9200 Y-16.9600
G01 X7.9248 Y-17.0570
G01 X7.9390 Y-17.1531
G01 X7.9626 Y-17.2474
G01 X7.9954 Y-17.3389
G01 X8.0369 Y-17.4267
G01 X8.0868 Y-17.5100
G01 X8.1447 Y-17.5880
G01 X8.2100 Y-17.6600
G01 X8.2820 Y-17.7253
G01 X8.3600 Y-17.7832
G01 X8.4433 Y-17.8331
G01 X8.5311 Y-17.8746
G01 X8.6226 Y-17.9074
G01 X8.7169 Y-17.9310
G01 X8.8130 Y-17.9452
G01 X8.9100 Y-17.9500
G01 X9.0070 Y-17.9452
G01 X9.1031 Y-17.9310
G01 X9.1974 Y-17.9074
G01 X9.2889 Y-17.8746
G01 X9.3767 Y-17.8331
G01 X9.4600 Y-17.7832
G01 X9.5380 Y-17.7253
G01 X9.6100 Y-17.6600
G01 X9.6753 Y-17.5880
G01 X9.7332 Y-17.5100
G01 X9.7831 Y-17.4267
G01 X9.8246 Y-17.3389
G01 X9.8574 Y-17.2474
G01 X9.8810 Y-17.1531
G01 X9.8952 Y-17.0570
G01 X9.8998 Y-16.9669
G00 Z2.0000
G00 X9.8099 Y-16.9625
G01 F60.00
G01 Z-0.0000
G01 F120.00
G01 X9.8057 Y-16.8718
G01 X9.7927 Y-16.7844
G01 X9.7712 Y-16.6987
G01 X9.7415 Y-16.6156
G01 X9.7037 Y-16.5357
G01 X9.6583 Y-16.4600
G01 X9.6057 Y-16.3890
G01 X9.5464 Y-16.3236
G01 X9.4810 Y-16.2643
G01 X9.4100 Y-16.2117
G01 X9.3343 Y-16.1663
G01 X9.2544 Y-16.1285
G01 X9.1713 Y-16.0988
G01 X9.0856 Y-16.0773
G01 X8.9982 Y-16.0643
G01 X8.9100 Y-16.0600
G01 X8.8218 Y-16.0643
G01 X8.7344 Y-16.0773
G01 X8.6487 Y-16.0988
G01 X8.5656 Y-16.1285
G01 X8.4857 Y-16.1663
G01 X8.4100 Y-16.2117
G01 X8.3390 Y-16.2643
G01 X8.2736 Y-16.3236
G01 X8.2143 Y-16.3890
G01 X8.1617 Y-16.4600
G01 X8.1163 Y-16.5357
G01 X8.0785 Y-16.6156
G01 X8.0488 Y-16.6987
G01 X8.0273 Y-16.7844
G01 X8.0143 Y-16.8718
G01 X8.0100 Y-16.9600
G01 X8.0143 Y-17.0482
G01 X8.0273 Y-17.1356
G01 X8.0488 Y-17.2213
G01 X8.0785 Y-17.3044
G01 X8.1163 Y-17.3843
G01 X8.1617 Y-17.4600
G01 X8.2143 Y-17.5310
G01 X8.2736 Y-17.5964
G01 X8.3390 Y-17.6557
G01 X8.4100 Y-17.7083
G01 X8.4857 Y-17.7537
G01 X8.5656 Y-17.7915
G01 X8.6487 Y-17.8212
G01 X8.7344 Y-17.8427
G01 X8.8218 Y-17.8557
G01 X8.9100 Y-17.8600
G01 X8.9982 Y-17.8557
G01 X9.0856 Y-17.8427
G01 X9.1713 Y-17.8212
G01 X9.2544 Y-17.7915
G01 X9.3343 Y-17.7537
G01 X9.4100 Y-17.7083
G01 X9.4810 Y-17.6557
G01 X9.5464 Y-17.5964
G01 X9.6057 Y-17.5310
G01 X9.6583 Y-17.4600
G01 X9.7037 Y-17.3843
G01 X9.7415 Y-17.3044
G01 X9.7712 Y-17.2213
G01 X9.7927 Y-17.1356
G01 X9.8057 Y-17.0482
G01 X9.8099 Y-16.9625
G00 Z2.0000
G00 X10.0796 Y-16.9757
G01 F60.00
G01 Z-0.0000
G01 F120.00
G01 X10.0800 Y-16.9600
G01 X10.0796 Y-16.9443
G01 X10.0755 Y-16.8610
G01 X10.0744 Y-16.8453
G01 X10.0724 Y-16.8297
G01 X10.0602 Y-16.7472
G01 X10.0575 Y-16.7317
G01 X10.0541 Y-16.7164
G01 X10.0338 Y-16.6355
G01 X10.0296 Y-16.6204
G01 X10.0247 Y-16.6055
G01 X9.9966 Y-16.5269
G01 X9.9909 Y-16.5123
G01 X9.9846 Y-16.4979
G01 X9.9489 Y-16.4225
G01 X9.9418 Y-16.4085
G01 X9.9341 Y-16.3948
G01 X9.8912 Y-16.3233
G01 X9.8828 Y-16.3100
G01 X9.8738 Y-16.2971
G01 X9.8241 Y-16.2301
G01 X9.8144 Y-16.2178
G01 X9.8042 Y-16.2059
G01 X9.7481 Y-16.1441
G01 X9.7373 Y-16.1327
G01 X9.7259 Y-16.1219
G01 X9.6641 Y-16.0658
G01 X9.6522 Y-16.0556
G01 X9.6399 Y-16.0459
G01 X9.5729 Y-15.9962
G01 X9.5600 Y-15.9872
G01 X9.5467 Y-15.9788
G01 X9.4752 Y-15.9359
G01 X9.4615 Y-15.9282
G01 X9.4475 Y-15.9211
G01 X9.3721 Y-15.8854
G01 X9.3577 Y-15.8791
G01 X9.3431 Y-15.8734
G01 X9.2645 Y-15.8453
G01 X9.2496 Y-15.8404
G01 X9.2345 Y-15.8362
G01 X9.1536 Y-15.8159
G01 X9.1383 Y-15.8125
G01 X9.1228 Y-15.8098
G01 X9.0403 Y-15.7976
G01 X9.0247 Y-15.7956
G01 X9.0090 Y-15.7945
G01 X8.9257 Y-15.7904
G01 X8.9100 Y-15.7900
G01 X8.8943 Y-15.7904
G01 X8.8110 Y-15.7945
G01 X8.7953 Y-15.7956
G01 X8.7797 Y-15.7976
G01 X8.6972 Y-15.8098
G01 X8.6817 Y-15.8125
G01 X8.6664 Y-15.8159
G01 X8.5855 Y-15.8362
G01 X8.5704 Y-15.8404
G01 X8.5555 Y-15.8453
G01 X8.4769 Y-15.8734
G01 X8.4623 Y-15.8791
G01 X8.4479 Y-15.8854
G01 X8.3725 Y-15.9211
G01 X8.3585 Y-15.9282
G01 X8.3448 Y-15.9359
G01 X8.2733 Y-15.9788
G01 X8.2600 Y-15.9872
G01 X8.2471 Y-15.9962
G01 X8.1801 Y-16.0459
G01 X8.1678 Y-16.0556
G01 X8.1559 Y-16.0658
G01 X8.0941 Y-16.1219
G01 X8.0827 Y-16.1327
G01 X8.0719 Y-16.1441
G01 X8.0158 Y-16.2059
G01 X8.0056 Y-16.2178
G01 X7.9959 Y-16.2301
G01 X7.9462 Y-16.2971
G01 X7.9372 Y-16.3100
G01 X7.9288 Y-16.3233
G01 X7.8859 Y-16.3948
G01 X7.8782 Y-16.4085
G01 X7.8711 Y-16.4225
G01 X7.8354 Y-16.4979
G01 X7.8291 Y-16.5123
G01 X7.8234 Y-16.5269
G01 X7.7953 Y-16.6055
G01 X7.7904 Y-16.6204
G01 X7.7862 Y-16.6355
G01 X7.7659 Y-16.7164
G01 X7.7625 Y-16.7317
G01 X7.7598 Y-16.7472
G01 X7.7476 Y-16.8297
G01 X7.7456 Y-16.8453
G01 X7.7445 Y-16.8610
G01 X7.7404 Y-16.9443
G01 X7.7400 Y-16.9600
G01 X7.7404 Y-16.9757
G01 X7.7445 Y-17.0590
G01 X7.7456 Y-17.0747
G01 X7.7476 Y-17.0903
G01 X7.7598 Y-17.1728
G01 X7.7625 Y-17.1883
G01 X7.7659 Y-17.2036
G01 X7.7862 Y-17.2845
G01 X7.7904 Y-17.2996
G01 X7.7953 Y-17.3145
G01 X7.8234 Y-17.3931
G01 X7.8291 Y-17.4077
G01 X7.8354 Y-17.4221
G01 X7.8711 Y-17.4975
G01 X7.8782 Y-17.5115
G01 X7.8859 Y-17.5252
G01 X7.9288 Y-17.5967
G01 X7.9372 Y-17.6100
G01 X7.9462 Y-17.6229
G01 X7.9959 Y-17.6899
G01 X8.0056 Y-17.7022
G01 X8.0158 Y-17.7141
G01 X8.0719 Y-17.7759
G01 X8.0827 Y-17.7873
G01 X8.0941 Y-17.7981
G01 X8.1559 Y-17.8542
G01 X8.1678 Y-17.8644
G01 X8.1801 Y-17.8741
G01 X8.2471 Y-17.9238
G01 X8.2600 Y-17.9328
G01 X8.2733 Y-17.9412
G01 X8.3448 Y-17.9841
G01 X8.3585 Y-17.9918
G01 X8.3725 Y-17.9989
G01 X8.4479 Y-18.0346
G01 X8.4623 Y-18.0409
G01 X8.4769 Y-18.0466
G01 X8.5555 Y-18.0747
G01 X8.5704 Y-18.0796
G01 X8.5855 Y-18.0838
G01 X8.6664 Y-18.1041
G01 X8.6817 Y-18.1075
G01 X8.6972 Y-18.1102
G01 X8.7797 Y-18.1224
G01 X8.7953 Y-18.1244
G01 X8.8110 Y-18.1255
G01 X8.8943 Y-18.1296
G01 X8.9100 Y-18.1300
G01 X8.9257 Y-18.1296
G01 X9.0090 Y-18.1255
G01 X9.0247 Y-18.1244
G01 X9.0403 Y-18.1224
G01 X9.1228 Y-18.1102
G01 X9.1383 Y-18.1075
G01 X9.1536 Y-18.1041
G01 X9.2345 Y-18.0838
G01 X9.2496 Y-18.0796
G01 X9.2645 Y-18.0747
G01 X9.3431 Y-18.0466
G01 X9.3577 Y-18.0409
G01 X9.3721 Y-18.0346
G01 X9.4475 Y-17.9989
G01 X9.4615 Y-17.9918
G01 X9.4752 Y-17.9841
G01 X9.5467 Y-17.9412
G01 X9.5600 Y-17.9328
G01 X9.5729 Y-17.9238
G01 X9.6399 Y-17.8741
G01 X9.6522 Y-17.8644
G01 X9.6641 Y-17.8542
G01 X9.7259 Y-17.7981
G01 X9.7373 Y-17.7873
G01 X9.7481 Y-17.7759
G01 X9.8042 Y-17.7141
G01 X9.8144 Y-17.7022
G01 X9.8241 Y-17.6899
G01 X9.8738 Y-17.6229
G01 X9.8828 Y-17.6100
G01 X9.8912 Y-17.5967
G01 X9.9341 Y-17.5252
G01 X9.9418 Y-17.5115
G01 X9.9489 Y-17.4975
G01 X9.9846 Y-17.4221
G01 X9.9909 Y-17.4077
G01 X9.9966 Y-17.3931
G01 X10.0247 Y-17.3145
G01 X10.0296 Y-17.2996
G01 X10.0338 Y-17.2845
G01 X10.0541 Y-17.2036
G01 X10.0575 Y-17.1883
G01 X10.0602 Y-17.1728
G01 X10.0724 Y-17.0903
G01 X10.0744 Y-17.0747
G01 X10.0755 Y-17.0590
G01 X10.0796 Y-16.9757
G00 Z2.0000
G00 X9.9897 Y-19.5113
G01 F60.00
G01 Z-0.0000
G01 F120.00
G01 X9.9900 Y-19.5000
G01 X9.9897 Y-19.4887
G01 X9.9848 Y-19.3941
G01 X9.9712 Y-19.3004
G01 X9.9692 Y-19.2893
G01 X9.9465 Y-19.1974
G01 X9.9435 Y-19.1865
G01 X9.9119 Y-19.0972
G01 X9.9078 Y-19.0867
G01 X9.9032 Y-19.0764
G01 X9.8625 Y-18.9909
G01 X9.8140 Y-18.9095
G01 X9.8080 Y-18.9000
G01 X9.8015 Y-18.8908
G01 X9.7449 Y-18.8149
G01 X9.6815 Y-18.7445
G01 X9.6737 Y-18.7363
G01 X9.6655 Y-18.7285
G01 X9.5951 Y-18.6651
G01 X9.5862 Y-18.6582
G01 X9.5100 Y-18.6020
G01 X9.4289 Y-18.5531
G01 X9.4191 Y-18.5475
G01 X9.4090 Y-18.5424
G01 X9.3233 Y-18.5022
G01 X9.2342 Y-18.4700
G01 X9.2235 Y-18.4665
G01 X9.2126 Y-18.4635
G01 X9.1207 Y-18.4408
G01 X9.0271 Y-18.4266
G01 X9.0159 Y-18.4252
G01 X9.0046 Y-18.4244
G01 X8.9100 Y-18.4200
G01 X8.8987 Y-18.4203
G01 X8.8041 Y-18.4252
G01 X8.7929 Y-18.4266
G01 X8.6993 Y-18.4408
G01 X8.6074 Y-18.4635
G01 X8.5965 Y-18.4665
G01 X8.5858 Y-18.4700
G01 X8.4967 Y-18.5022
G01 X8.4864 Y-18.5068
G01 X8.4009 Y-18.5475
G01 X8.3911 Y-18.5531
G01 X8.3100 Y-18.6020
G01 X8.2338 Y-18.6582
G01 X8.2249 Y-18.6651
G01 X8.1545 Y-18.7285
G01 X8.1463 Y-18.7363
G01 X8.0825 Y-18.8063
G01 X8.0751 Y-18.8149
G01 X8.0682 Y-18.8238
G01 X8.0120 Y-18.9000
G01 X8.0060 Y-18.9095
G01 X7.9575 Y-18.9909
G01 X7.9524 Y-19.0010
G01 X7.9122 Y-19.0867
G01 X7.8800 Y-19.1758
G01 X7.8765 Y-19.1865
G01 X7.8532 Y-19.2783
G01 X7.8508 Y-19.2893
G01 X7.8488 Y-19.3004
G01 X7.8352 Y-19.3941
G01 X7.8303 Y-19.4887
G01 X7.8300 Y-19.5000
G01 X7.8344 Y-19.5946
G01 X7.8352 Y-19.6059
G01 X7.8366 Y-19.6171
G01 X7.8508 Y-19.7107
G01 X7.8532 Y-19.7217
G01 X7.8765 Y-19.8135
G01 X7.9081 Y-19.9028
G01 X7.9122 Y-19.9133
G01 X7.9168 Y-19.9236
G01 X7.9575 Y-20.0091
G01 X8.0060 Y-20.0905
G01 X8.0120 Y-20.1000
G01 X8.0185 Y-20.1092
G01 X8.0751 Y-20.1851
G01 X8.1385 Y-20.2555
G01 X8.1463 Y-20.2637
G01 X8.1545 Y-20.2715
G01 X8.2249 Y-20.3349
G01 X8.2338 Y-20.3418
G01 X8.3100 Y-20.3980
G01 X8.3911 Y-20.4469
G01 X8.4009 Y-20.4525
G01 X8.4110 Y-20.4576
G01 X8.4967 Y-20.4978
G01 X8.5858 Y-20.5300
G01 X8.5965 Y-20.5335
G01 X8.6074 Y-20.5365
G01 X8.6993 Y-20.5592
G01 X8.7929 Y-20.5734
G01 X8.8041 Y-20.5748
G01 X8.8154 Y-20.5756
G01 X8.9100 Y-20.5800
G01 X8.9213 Y-20.5797
G01 X9.0159 Y-20.5748
G01 X9.0271 Y-20.5734
G01 X9.1207 Y-20.5592
G01 X9.2126 Y-20.5365
G01 X9.2235 Y-20.5335
G01 X9.2342 Y-20.5300
G01 X9.3233 Y-20.4978
G01 X9.4090 Y-20.4576
G01 X9.4191 Y-20.4525
G01 X9.4289 Y-20.4469
G01 X9.5100 Y-20.3980
G01 X9.5192 Y-20.3915
G01 X9.5951 Y-20.3349
G01 X9.6655 Y-20.2715
G01 X9.6737 Y-20.2637
G01 X9.7375 Y-20.1937
G01 X9.7449 Y-20.1851
G01 X9.7518 Y-20.1762
G01 X9.8080 Y-20.1000
G01 X9.8569 Y-20.0189
G01 X9.8625 Y-20.0091
G01 X9.8676 Y-19.9990
G01 X9.9078 Y-19.9133
G01 X9.9400 Y-19.8242
G01 X9.9435 Y-19.8135
G01 X9.9668 Y-19.7217
G01 X9.9692 Y-19.7107
G01 X9.9834 Y-19.6171
G01 X9.9848 Y-19.6059
G01 X9.9897 Y-19.5113
G00 Z2.0000
G00 X9.8998 Y-19.5069
G01 F60.00
G01 Z-0.0000
G01 F120.00
G01 X9.8998 Y-19.4931
G01 X9.8952 Y-19.4030
G01 X9.8810 Y-19.3069
G01 X9.8574 Y-19.2126
G01 X9.8246 Y-19.1211
G01 X9.7831 Y-19.0333
G01 X9.7332 Y-18.9500
G01 X9.6753 Y-18.8720
G01 X9.6100 Y-18.8000
G01 X9.5380 Y-18.7347
G01 X9.4600 Y-18.6768
G01 X9.3767 Y-18.6269
G01 X9.2889 Y-18.5854
G01 X9.1974 Y-18.5526
G01 X9.1031 Y-18.5290
G01 X9.0070 Y-18.5148
G01 X8.9100 Y-18.5100
G01 X8.8130 Y-18.5148
G01 X8.7169 Y-18.5290
G01 X8.6226 Y-18.5526
G01 X8.5311 Y-18.5854
G01 X8.4433 Y-18.6269
G01 X8.3600 Y-18.6768
G01 X8.2820 Y-18.7347
G01 X8.2100 Y-18.8000
G01 X8.1447 Y-18.8720
G01 X8.0868 Y-18.9500
G01 X8.0369 Y-19.0333
G01 X7.9954 Y-19.1211
G01 X7.9626 Y-19.2126
G01 X7.9390 Y-19.3069
G01 X7.9248 Y-19.4030
G01 X7.9200 Y-19.5000
G01 X7.9248 Y-19.5970
G01 X7.9390 Y-19.6931
G01 X7.9626 Y-19.7874
G01 X7.9954 Y-19.8789
G01 X8.0369 Y-19.9667
G01 X8.0868 Y-20.0500
G01 X8.1447 Y-20.1280
G01 X8.2100 Y-20.2000
G01 X8.2820 Y-20.2653
G01 X8.3600 Y-20.3232
G01 X8.4433 Y-20.3731
G01 X8.5311 Y-20.4146
G01 X8.6226 Y-20.4474
G01 X8.7169 Y-20.4710
G01 X8.8130 Y-20.4852
G01 X8.9100 Y-20.4900
G01 X9.0070 Y-20.4852
G01 X9.1031 Y-20.4710
G01 X9.1974 Y-20.4474
G01 X9.2889 Y-20.4146
G01 X9.3767 Y-20.3731
G01 X9.4600 Y-20.3232
G01 X9.5380 Y-20.2653
G01 X9.6100 Y-20.2000
G01 X9.6753 Y-20.1280
G01 X9.7332 Y-20.0500
G01 X9.7831 Y-19.9667
G01 X9.8246 Y-19.8789
G01 X9.8574 Y-19.7874
G01 X9.8810 Y-19.6931
G01 X9.8952 Y-19.5970
G01 X9.8998 Y-19.5069
G00 Z2.0000
G00 X9.8099 Y-19.5025
G01 F60.00
G01 Z-0.0000
G01 F120.00
G01 X9.8057 Y-19.4118
G01 X9.7927 Y-19.3244
G01 X9.7712 Y-19.2387
G01 X9.7415 Y-19.1556
G01 X9.7037 Y-19.0757
G01 X9.6583 Y-19.0000
G01 X9.6057 Y-18.9290
G01 X9.5464 Y-18.8636
G01 X9.4810 Y-18.8043
G01 X9.4100 Y-18.7517
G01 X9.3343 Y-18.7063
G01 X9.2544 Y-18.6685
G01 X9.1713 Y-18.6388
G01 X9.0856 Y-18.6173
G01 X8.9982 Y-18.6043
G01 X8.9100 Y-18.6000
G01 X8.8218 Y-18.6043
G01 X8.7344 Y-18.6173
G01 X8.6487 Y-18.6388
G01 X8.5656 Y-18.6685
G01 X8.4857 Y-18.7063
G01 X8.4100 Y-18.7517
G01 X8.3390 Y-18.8043
G01 X8.2736 Y-18.8636
G01 X8.2143 Y-18.9290
G01 X8.1617 Y-19.0000
G01 X8.1163 Y-19.0757
G01 X8.0785 Y-19.1556
G01 X8.0488 Y-19.2387
G01 X8.0273 Y-19.3244
G01 X8.0143 Y-19.4118
G01 X8.0100 Y-19.5000
G01 X8.0143 Y-19.5882
G01 X8.0273 Y-19.6756
G01 X8.0488 Y-19.7613
G01 X8.0785 Y-19.8444
G01 X8.1163 Y-19.9243
G01 X8.1617 Y-20.0000
G01 X8.2143 Y-20.0710
G01 X8.2736 Y-20.1364
G01 X8.3390 Y-20.1957
G01 X8.4100 Y-20.2483
G01 X8.4857 Y-20.2937
G01 X8.5656 Y-20.3315
G01 X8.6487 Y-20.3612
G01 X8.7344 Y-20.3827
G01 X8.8218 Y-20.3957
G01 X8.9100 Y-20.4000
G01 X8.9982 Y-20.3957
G01 X9.0856 Y-20.3827
G01 X9.1713 Y-20.3612
G01 X9.2544 Y-20.3315
G01 X9.3343 Y-20.2937
G01 X9.4100 Y-20.2483
G01 X9.4810 Y-20.1957
G01 X9.5464 Y-20.1364
G01 X9.6057 Y-20.0710
G01 X9.6583 Y-20.0000
G01 X9.7037 Y-19.9243
G01 X9.7415 Y-19.8444
G01 X9.7712 Y-19.7613
G01 X9.7927 Y-19.6756
G01 X9.8057 Y-19.5882
G01 X9.8099 Y-19.5025
G00 Z2.0000
G00 X10.0796 Y-19.5157
G01 F60.00
G01 Z-0.0000
G01 F120.00
G01 X10.0800 Y-19.5000
G01 X10.0796 Y-19.4843
G01 X10.0755 Y-19.4010
G01 X10.0744 Y-19.3853
G01 X10.0724 Y-19.3697
G01 X10.0602 Y-19.2872
G01 X10.0575 Y-19.2717
G01 X10.0541 Y-19.2564
G01 X10.0338 Y-19.1755
G01 X10.0296 Y-19.1604
G01 X10.0247 Y-19.1455
G01 X9.9966 Y-19.0669
G01 X9.9909 Y-19.0523
G01 X9.9846 Y-19.0379
G01 X9.9489 Y-18.9625
G01 X9.9418 Y-18.9485
G01 X9.9341 Y-18.9348
G01 X9.8912 Y-18.8633
G01 X9.8828 Y-18.8500
G01 X9.8738 Y-18.8371
G01 X9.8241 Y-18.7701
G01 X9.8144 Y-18.7578
G01 X9.8042 Y-18.7459
G01 X9.7481 Y-18.6841
G01 X9.7373 Y-18.6727
G01 X9.7259 Y-18.6619
G01 X9.6641 Y-18.6058
G01 X9.6522 Y-18.5956
G01 X9.6399 Y-18.5859
G01 X9.5729 Y-18.5362
G01 X9.5600 Y-18.5272
G01 X9.5467 Y-18.5188
G01 X9.4752 Y-18.4759
G01 X9.4615 Y-18.4682
G01 X9.4475 Y-18.4611
G01 X9.3721 Y-18.4254
G01 X9.3577 Y-18.4191
G01 X9.3431 Y-18.4134
G01 X9.2645 Y-18.3853
G01 X9.2496 Y-18.3804
G01 X9.2345 Y-18.3762
G01 X9.1536 Y-18.3559
G01 X9.1383 Y-18.3525
G01 X9.1228 Y-18.3498
G01 X9.0403 Y-18.3376
G01 X9.0247 Y-18.3356
G01 X9.0090 Y-18.3345
G01 X8.9257 Y-18.3304
G01 X8.9100 Y-18.3300
G01 X8.8943 Y-18.3304
G01 X8.8110 Y-18.3345
G01 X8.7953 Y-18.3356
G01 X8.7797 Y-18.3376
G01 X8.6972 Y-18.3498
G01 X8.6817 Y-18.3525
G01 X8.6664 Y-18.3559
G01 X8.5855 Y-18.3762
G01 X8.5704 Y-18.3804
G01 X8.5555 Y-18.3853
G01 X8.4769 Y-18.4134
G01 X8.4623 Y-18.4191
G01 X8.4479 Y-18.4254
G01 X8.3725 Y-18.4611
G01 X8.3585 Y-18.4682
G01 X8.3448 Y-18.4759
G01 X8.2733 Y-18.5188
G01 X8.2600 Y-18.5272
G01 X8.2471 Y-18.5362
G01 X8.1801 Y-18.5859
G01 X8.1678 Y-18.5956
G01 X8.1559 Y-18.6058
G01 X8.0941 Y-18.6619
G01 X8.0827 Y-18.6727
G01 X8.0719 Y-18.6841
G01 X8.0158 Y-18.7459
G01 X8.0056 Y-18.7578
G01 X7.9959 Y-18.7701
G01 X7.9462 Y-18.8371
G01 X7.9372 Y-18.8500
G01 X7.9288 Y-18.8633
G01 X7.8859 Y-18.9348
G01 X7.8782 Y-18.9485
G01 X7.8711 Y-18.9625
G01 X7.8354 Y-19.0379
G01 X7.8291 Y-19.0523
G01 X7.8234 Y-19.0669
G01 X7.7953 Y-19.1455
G01 X7.7904 Y-19.1604
G01 X7.7862 Y-19.1755
G01 X7.7659 Y-19.2564
G01 X7.7625 Y-19.2717
G01 X7.7598 Y-19.2872
G01 X7.7476 Y-19.3697
G01 X7.7456 Y-19.3853
G01 X7.7445 Y-19.4010
G01 X7.7404 Y-19.4843
G01 X7.7400 Y-19.5000
G01 X7.7404 Y-19.5157
G01 X7.7445 Y-19.5990
G01 X7.7456 Y-19.6147
G01 X7.7476 Y-19.6303
G01 X7.7598 Y-19.7128
G01 X7.7625 Y-19.7283
G01 X7.7659 Y-19.7436
G01 X7.7862 Y-19.8245
G01 X7.7904 Y-19.8396
G01 X7.7953 Y-19.8545
G01 X7.8234 Y-19.9331
G01 X7.8291 Y-19.9477
G01 X7.8354 Y-19.9621
G01 X7.8711 Y-20.0375
G01 X7.8782 Y-20.0515
G01 X7.8859 Y-20.0652
G01 X7.9288 Y-20.1367
G01 X7.9372 Y-20.1500
G01 X7.9462 Y-20.1629
G01 X7.9959 Y-20.2299
G01 X8.0056 Y-20.2422
G01 X8.0158 Y-20.2541
G01 X8.0719 Y-20.3159
G01 X8.0827 Y-20.3273
G01 X8.0941 Y-20.3381
G01 X8.1559 Y-20.3942
G01 X8.1678 Y-20.4044
G01 X8.1801 Y-20.4141
G01 X8.2471 Y-20.4638
G01 X8.2600 Y-20.4728
G01 X8.2733 Y-20.4812
G01 X8.3448 Y-20.5241
G01 X8.3585 Y-20.5318
G01 X8.3725 Y-20.5389
G01 X8.4479 Y-20.5746
G01 X8.4623 Y-20.5809
G01 X8.4769 Y-20.5866
G01 X8.5555 Y-20.6147
G01 X8.5704 Y-20.6196
G01 X8.5855 Y-20.6238
G01 X8.6664 Y-20.6441
G01 X8.6817 Y-20.6475
G01 X8.6972 Y-20.6502
G01 X8.7797 Y-20.6624
G01 X8.7953 Y-20.6644
G01 X8.8110 Y-20.6655
G01 X8.8943 Y-20.6696
G01 X8.9100 Y-20.6700
G01 X8.9257 Y-20.6696
G01 X9.0090 Y-20.6655
G01 X9.0247 Y-20.6644
G01 X9.0403 Y-20.6624
G01 X9.1228 Y-20.6502
G01 X9.1383 Y-20.6475
G01 X9.1536 Y-20.6441
G01 X9.2345 Y-20.6238
G01 X9.2496 Y-20.6196
G01 X9.2645 Y-20.6147
G01 X9.3431 Y-20.5866
G01 X9.3577 Y-20.5809
G01 X9.3721 Y-20.5746
G01 X9.4475 Y-20.5389
G01 X9.4615 Y-20.5318
G01 X9.4752 Y-20.5241
G01 X9.5467 Y-20.4812
G01 X9.5600 Y-20.4728
G01 X9.5729 Y-20.4638
G01 X9.6399 Y-20.4141
G01 X9.6522 Y-20.4044
G01 X9.6641 Y-20.3942
G01 X9.7259 Y-20.3381
G01 X9.7373 Y-20.3273
G01 X9.7481 Y-20.3159
G01 X9.8042 Y-20.2541
G01 X9.8144 Y-20.2422
G01 X9.8241 Y-20.2299
G01 X9.8738 Y-20.1629
G01 X9.8828 Y-20.1500
G01 X9.8912 Y-20.1367
G01 X9.9341 Y-20.0652
G01 X9.9418 Y-20.0515
G01 X9.9489 Y-20.0375
G01 X9.9846 Y-19.9621
G01 X9.9909 Y-19.9477
G01 X9.9966 Y-19.9331
G01 X10.0247 Y-19.8545
G01 X10.0296 Y-19.8396
G01 X10.0338 Y-19.8245
G01 X10.0541 Y-19.7436
G01 X10.0575 Y-19.7283
G01 X10.0602 Y-19.7128
G01 X10.0724 Y-19.6303
G01 X10.0744 Y-19.6147
G01 X10.0755 Y-19.5990
G01 X10.0796 Y-19.5157
G00 Z2.0000
G00 X9.8044 Y-21.4348
G01 F60.00
G01 Z-0.0000
G01 F120.00
G01 X9.7518 Y-21.3638
G01 X9.7449 Y-21.3549
G01 X9.6815 Y-21.2845
G01 X9.6737 Y-21.2763
G01 X9.6655 Y-21.2685
G01 X9.5951 Y-21.2051
G01 X9.5862 Y-21.1982
G01 X9.5100 Y-21.1420
G01 X9.4289 Y-21.0931
G01 X9.4191 Y-21.0875
G01 X9.4090 Y-21.0824
G01 X9.3233 Y-21.0422
G01 X9.2342 Y-21.0100
G01 X9.2235 Y-21.0065
G01 X9.2126 Y-21.0035
G01 X9.1207 Y-20.9808
G01 X9.0271 Y-20.9666
G01 X9.0159 Y-20.9652
G01 X9.0046 Y-20.9644
G01 X8.9100 Y-20.9600
G01 X8.8987 Y-20.9603
G01 X8.8041 Y-20.9652
G01 X8.7929 Y-20.9666
G01 X8.6993 Y-20.9808
G01 X8.6074 Y-21.0035
G01 X8.5965 Y-21.0065
G01 X8.5858 Y-21.0100
G01 X8.4967 Y-21.0422
G01 X8.4864 Y-21.0468
G01 X8.4009 Y-21.0875
G01 X8.3911 Y-21.0931
G01 X8.3100 Y-21.1420
G01 X8.2338 Y-21.1982
G01 X8.2249 Y-21.2051
G01 X8.1545 Y-21.2685
G01 X8.1463 Y-21.2763
G01 X8.0825 Y-21.3463
G01 X8.0751 Y-21.3549
G01 X8.0682 Y-21.3638
G01 X8.0120 Y-21.4400
G01 X8.0060 Y-21.4495
G01 X7.9575 Y-21.5309
G01 X7.9524 Y-21.5410
G01 X7.9122 Y-21.6267
G01 X7.8800 Y-21.7158
G01 X7.8765 Y-21.7265
G01 X7.8532 Y-21.8183
G01 X7.8508 Y-21.8293
G01 X7.8488 Y-21.8404
G01 X7.8352 Y-21.9341
G01 X7.8303 Y-22.0287
G01 X7.8300 Y-22.0400
G01 X7.8344 Y-22.1346
G01 X7.8352 Y-22.1459
G01 X7.8366 Y-22.1571
G01 X7.8508 Y-22.2507
G01 X7.8532 Y-22.2617
G01 X7.8765 Y-22.3535
G01 X7.9081 Y-22.4428
G01 X7.9122 Y-22.4533
G01 X7.9168 Y-22.4636
G01 X7.9575 Y-22.5491
G01 X8.0060 Y-22.6305
G01 X8.0120 Y-22.6400
G01 X8.0185 Y-22.6492
G01 X8.0751 Y-22.7251
G01 X8.1385 Y-22.7955
G01 X8.1463 Y-22.8037
G01 X8.1545 Y-22.8115
G01 X8.2249 Y-22.8749
G01 X8.3008 Y-22.9315
G01 X8.3100 Y-22.9380
G01 X8.3195 Y-22.9440
G01 X8.4009 Y-22.9925
G01 X8.4864 Y-23.0332
G01 X8.4967 Y-23.0378
G01 X8.5072 Y-23.0419
G01 X8.5965 Y-23.0735
G01 X8.6883 Y-23.0968
G01 X8.6993 Y-23.0992
G01 X8.7104 Y-23.1012
G01 X8.8041 Y-23.1148
G01 X8.8987 Y-23.1197
G01 X8.9156 Y-23.1199
G01 X9.0046 Y-23.1156
