(G-CODE GENERATED BY FLATCAM v8.994 - www.flatcam.org - Version Date: 2020/11/7)

(Name: HARDWARE-Edge_Cuts.gbr_cutout_10_cnc)
(Type: G-code from Geometry)
(Units: MM)

(Created on Tuesday, 13 July 2021 at 15:58)

(This preprocessor is the default preprocessor used by FlatCAM.)
(It is made to work with MACH3 compatible motion controllers.)

(TOOL DIAMETER: 2.4 mm)
(Feedrate_XY: 120.0 mm/min)
(Feedrate_Z: 60.0 mm/min)
(Feedrate rapids 1500.0 mm/min)

(Z_Cut: -2.0 mm)
(DepthPerCut: 0.6 mm <=>4 passes)
(Z_Move: 2.0 mm)
(Z Start: None mm)
(Z End: 15.0 mm)
(X,Y End: None mm)
(Steps per circle: 64)
(Preprocessor Geometry: default)

(X range:   -1.3050 ...   57.2250  mm)
(Y range:  -58.9250 ...    0.8750  mm)

(Spindle Speed: 0.0 RPM)
G21
G90
G94

G01 F120.00

M5
G00 Z15.0000
G00 X0.0000 Y0.0000
T1
M6    
(MSG, Change to Tool Dia = 2.4000)
M0
G00 Z15.0000

M03
G01 F120.00
G00 X24.8600 Y0.8750
G01 F60.00
G01 Z-0.6000
G01 F120.00
G01 X-0.0050 Y0.8750
G01 X-0.1324 Y0.8688
G01 X-0.2586 Y0.8500
G01 X-0.3824 Y0.8190
G01 X-0.5025 Y0.7761
G01 X-0.6178 Y0.7215
G01 X-0.7273 Y0.6559
G01 X-0.8297 Y0.5799
G01 X-0.9243 Y0.4943
G01 X-1.0099 Y0.3997
G01 X-1.0859 Y0.2973
G01 X-1.1515 Y0.1878
G01 X-1.2061 Y0.0725
G01 X-1.2490 Y-0.0476
G01 X-1.2800 Y-0.1714
G01 X-1.2988 Y-0.2976
G01 X-1.3050 Y-0.4250
G01 X-1.3050 Y-25.7250
G00 X-1.3050 Y-25.7250
G01 F60.00
G01 Z-1.2000
G01 F120.00
G01 X-1.3050 Y-0.4250
G01 X-1.2988 Y-0.2976
G01 X-1.2800 Y-0.1714
G01 X-1.2490 Y-0.0476
G01 X-1.2061 Y0.0725
G01 X-1.1515 Y0.1878
G01 X-1.0859 Y0.2973
G01 X-1.0099 Y0.3997
G01 X-0.9243 Y0.4943
G01 X-0.8297 Y0.5799
G01 X-0.7273 Y0.6559
G01 X-0.6178 Y0.7215
G01 X-0.5025 Y0.7761
G01 X-0.3824 Y0.8190
G01 X-0.2586 Y0.8500
G01 X-0.1324 Y0.8688
G01 X-0.0050 Y0.8750
G01 X24.8600 Y0.8750
G00 X24.8600 Y0.8750
G01 F60.00
G01 Z-1.8000
G01 F120.00
G01 X-0.0050 Y0.8750
G01 X-0.1324 Y0.8688
G01 X-0.2586 Y0.8500
G01 X-0.3824 Y0.8190
G01 X-0.5025 Y0.7761
G01 X-0.6178 Y0.7215
G01 X-0.7273 Y0.6559
G01 X-0.8297 Y0.5799
G01 X-0.9243 Y0.4943
G01 X-1.0099 Y0.3997
G01 X-1.0859 Y0.2973
G01 X-1.1515 Y0.1878
G01 X-1.2061 Y0.0725
G01 X-1.2490 Y-0.0476
G01 X-1.2800 Y-0.1714
G01 X-1.2988 Y-0.2976
G01 X-1.3050 Y-0.4250
G01 X-1.3050 Y-25.7250
G00 X-1.3050 Y-25.7250
G01 F60.00
G01 Z-2.0000
G01 F120.00
G01 X-1.3050 Y-0.4250
G01 X-1.2988 Y-0.2976
G01 X-1.2800 Y-0.1714
G01 X-1.2490 Y-0.0476
G01 X-1.2061 Y0.0725
G01 X-1.1515 Y0.1878
G01 X-1.0859 Y0.2973
G01 X-1.0099 Y0.3997
G01 X-0.9243 Y0.4943
G01 X-0.8297 Y0.5799
G01 X-0.7273 Y0.6559
G01 X-0.6178 Y0.7215
G01 X-0.5025 Y0.7761
G01 X-0.3824 Y0.8190
G01 X-0.2586 Y0.8500
G01 X-0.1324 Y0.8688
G01 X-0.0050 Y0.8750
G01 X24.8600 Y0.8750
G00 Z2.0000
G00 X31.2600 Y0.8750
G01 F60.00
G01 Z-0.6000
G01 F120.00
G01 X55.9250 Y0.8750
G01 X56.0524 Y0.8688
G01 X56.1786 Y0.8500
G01 X56.3024 Y0.8190
G01 X56.4225 Y0.7761
G01 X56.5378 Y0.7215
G01 X56.6473 Y0.6559
G01 X56.7497 Y0.5799
G01 X56.8443 Y0.4943
G01 X56.9299 Y0.3997
G01 X57.0059 Y0.2973
G01 X57.0715 Y0.1878
G01 X57.1261 Y0.0725
G01 X57.1690 Y-0.0476
G01 X57.2000 Y-0.1714
G01 X57.2188 Y-0.2976
G01 X57.2250 Y-0.4250
G01 X57.2250 Y-25.7250
G00 X57.2250 Y-25.7250
G01 F60.00
G01 Z-1.2000
G01 F120.00
G01 X57.2250 Y-0.4250
G01 X57.2188 Y-0.2976
G01 X57.2000 Y-0.1714
G01 X57.1690 Y-0.0476
G01 X57.1261 Y0.0725
G01 X57.0715 Y0.1878
G01 X57.0059 Y0.2973
G01 X56.9299 Y0.3997
G01 X56.8443 Y0.4943
G01 X56.7497 Y0.5799
G01 X56.6473 Y0.6559
G01 X56.5378 Y0.7215
G01 X56.4225 Y0.7761
G01 X56.3024 Y0.8190
G01 X56.1786 Y0.8500
G01 X56.0524 Y0.8688
G01 X55.9250 Y0.8750
G01 X31.2600 Y0.8750
G00 X31.2600 Y0.8750
G01 F60.00
G01 Z-1.8000
G01 F120.00
G01 X55.9250 Y0.8750
G01 X56.0524 Y0.8688
G01 X56.1786 Y0.8500
G01 X56.3024 Y0.8190
G01 X56.4225 Y0.7761
G01 X56.5378 Y0.7215
G01 X56.6473 Y0.6559
G01 X56.7497 Y0.5799
G01 X56.8443 Y0.4943
G01 X56.9299 Y0.3997
G01 X57.0059 Y0.2973
G01 X57.0715 Y0.1878
G01 X57.1261 Y0.0725
G01 X57.1690 Y-0.0476
G01 X57.2000 Y-0.1714
G01 X57.2188 Y-0.2976
G01 X57.2250 Y-0.4250
G01 X57.2250 Y-25.7250
G00 X57.2250 Y-25.7250
G01 F60.00
G01 Z-2.0000
G01 F120.00
G01 X57.2250 Y-0.4250
G01 X57.2188 Y-0.2976
G01 X57.2000 Y-0.1714
G01 X57.1690 Y-0.0476
G01 X57.1261 Y0.0725
G01 X57.0715 Y0.1878
G01 X57.0059 Y0.2973
G01 X56.9299 Y0.3997
G01 X56.8443 Y0.4943
G01 X56.7497 Y0.5799
G01 X56.6473 Y0.6559
G01 X56.5378 Y0.7215
G01 X56.4225 Y0.7761
G01 X56.3024 Y0.8190
G01 X56.1786 Y0.8500
G01 X56.0524 Y0.8688
G01 X55.9250 Y0.8750
G01 X31.2600 Y0.8750
G00 Z2.0000
G00 X57.2250 Y-32.1250
G01 F60.00
G01 Z-0.6000
G01 F120.00
G01 X57.2250 Y-57.6250
G01 X57.2188 Y-57.7524
G01 X57.2000 Y-57.8786
G01 X57.1690 Y-58.0024
G01 X57.1261 Y-58.1225
G01 X57.0715 Y-58.2378
G01 X57.0059 Y-58.3473
G01 X56.9299 Y-58.4497
G01 X56.8443 Y-58.5443
G01 X56.7497 Y-58.6299
G01 X56.6473 Y-58.7059
G01 X56.5378 Y-58.7715
G01 X56.4225 Y-58.8261
G01 X56.3024 Y-58.8690
G01 X56.1786 Y-58.9000
G01 X56.0524 Y-58.9188
G01 X55.9250 Y-58.9250
G01 X31.2600 Y-58.9250
G00 X31.2600 Y-58.9250
G01 F60.00
G01 Z-1.2000
G01 F120.00
G01 X55.9250 Y-58.9250
G01 X56.0524 Y-58.9188
G01 X56.1786 Y-58.9000
G01 X56.3024 Y-58.8690
G01 X56.4225 Y-58.8261
G01 X56.5378 Y-58.7715
G01 X56.6473 Y-58.7059
G01 X56.7497 Y-58.6299
G01 X56.8443 Y-58.5443
G01 X56.9299 Y-58.4497
G01 X57.0059 Y-58.3473
G01 X57.0715 Y-58.2378
G01 X57.1261 Y-58.1225
G01 X57.1690 Y-58.0024
G01 X57.2000 Y-57.8786
G01 X57.2188 Y-57.7524
G01 X57.2250 Y-57.6250
G01 X57.2250 Y-32.1250
G00 X57.2250 Y-32.1250
G01 F60.00
G01 Z-1.8000
G01 F120.00
G01 X57.2250 Y-57.6250
G01 X57.2188 Y-57.7524
G01 X57.2000 Y-57.8786
G01 X57.1690 Y-58.0024
G01 X57.1261 Y-58.1225
G01 X57.0715 Y-58.2378
G01 X57.0059 Y-58.3473
G01 X56.9299 Y-58.4497
G01 X56.8443 Y-58.5443
G01 X56.7497 Y-58.6299
G01 X56.6473 Y-58.7059
G01 X56.5378 Y-58.7715
G01 X56.4225 Y-58.8261
G01 X56.3024 Y-58.8690
G01 X56.1786 Y-58.9000
G01 X56.0524 Y-58.9188
G01 X55.9250 Y-58.9250
G01 X31.2600 Y-58.9250
G00 X31.2600 Y-58.9250
G01 F60.00
G01 Z-2.0000
G01 F120.00
G01 X55.9250 Y-58.9250
G01 X56.0524 Y-58.9188
G01 X56.1786 Y-58.9000
G01 X56.3024 Y-58.8690
G01 X56.4225 Y-58.8261
G01 X56.5378 Y-58.7715
G01 X56.6473 Y-58.7059
G01 X56.7497 Y-58.6299
G01 X56.8443 Y-58.5443
G01 X56.9299 Y-58.4497
G01 X57.0059 Y-58.3473
G01 X57.0715 Y-58.2378
G01 X57.1261 Y-58.1225
G01 X57.1690 Y-58.0024
G01 X57.2000 Y-57.8786
G01 X57.2188 Y-57.7524
G01 X57.2250 Y-57.6250
G01 X57.2250 Y-32.1250
G00 Z2.0000
G00 X24.8600 Y-58.9250
G01 F60.00
G01 Z-0.6000
G01 F120.00
G01 X-0.0050 Y-58.9250
G01 X-0.1324 Y-58.9188
G01 X-0.2586 Y-58.9000
G01 X-0.3824 Y-58.8690
G01 X-0.5025 Y-58.8261
G01 X-0.6178 Y-58.7715
G01 X-0.7273 Y-58.7059
G01 X-0.8297 Y-58.6299
G01 X-0.9243 Y-58.5443
G01 X-1.0099 Y-58.4497
G01 X-1.0859 Y-58.3473
G01 X-1.1515 Y-58.2378
G01 X-1.2061 Y-58.1225
G01 X-1.2490 Y-58.0024
G01 X-1.2800 Y-57.8786
G01 X-1.2988 Y-57.7524
G01 X-1.3050 Y-57.6250
G01 X-1.3050 Y-32.1250
G00 X-1.3050 Y-32.1250
G01 F60.00
G01 Z-1.2000
G01 F120.00
G01 X-1.3050 Y-57.6250
G01 X-1.2988 Y-57.7524
G01 X-1.2800 Y-57.8786
G01 X-1.2490 Y-58.0024
G01 X-1.2061 Y-58.1225
G01 X-1.1515 Y-58.2378
G01 X-1.0859 Y-58.3473
G01 X-1.0099 Y-58.4497
G01 X-0.9243 Y-58.5443
G01 X-0.8297 Y-58.6299
G01 X-0.7273 Y-58.7059
G01 X-0.6178 Y-58.7715
G01 X-0.5025 Y-58.8261
G01 X-0.3824 Y-58.8690
G01 X-0.2586 Y-58.9000
G01 X-0.1324 Y-58.9188
G01 X-0.0050 Y-58.9250
G01 X24.8600 Y-58.9250
G00 X24.8600 Y-58.9250
G01 F60.00
G01 Z-1.8000
G01 F120.00
G01 X-0.0050 Y-58.9250
G01 X-0.1324 Y-58.9188
G01 X-0.2586 Y-58.9000
G01 X-0.3824 Y-58.8690
G01 X-0.5025 Y-58.8261
G01 X-0.6178 Y-58.7715
G01 X-0.7273 Y-58.7059
G01 X-0.8297 Y-58.6299
G01 X-0.9243 Y-58.5443
G01 X-1.0099 Y-58.4497
G01 X-1.0859 Y-58.3473
G01 X-1.1515 Y-58.2378
G01 X-1.2061 Y-58.1225
G01 X-1.2490 Y-58.0024
G01 X-1.2800 Y-57.8786
G01 X-1.2988 Y-57.7524
G01 X-1.3050 Y-57.6250
G01 X-1.3050 Y-32.1250
G00 X-1.3050 Y-32.1250
G01 F60.00
G01 Z-2.0000
G01 F120.00
G01 X-1.3050 Y-57.6250
G01 X-1.2988 Y-57.7524
G01 X-1.2800 Y-57.8786
G01 X-1.2490 Y-58.0024
G01 X-1.2061 Y-58.1225
G01 X-1.1515 Y-58.2378
G01 X-1.0859 Y-58.3473
G01 X-1.0099 Y-58.4497
G01 X-0.9243 Y-58.5443
G01 X-0.8297 Y-58.6299
G01 X-0.7273 Y-58.7059
G01 X-0.6178 Y-58.7715
G01 X-0.5025 Y-58.8261
G01 X-0.3824 Y-58.8690
G01 X-0.2586 Y-58.9000
G01 X-0.1324 Y-58.9188
G01 X-0.0050 Y-58.9250
G01 X24.8600 Y-58.9250
G00 Z2.0000
M05
G00 Z2.0000
G00 Z15.00


