(G-CODE GENERATED BY FLATCAM v8.994 - www.flatcam.org - Version Date: 2020/11/7)

(Name: HARDWARE-PTH.drl_cnc)
(Type: G-code from Geometry)
(Units: MM)

(Created on Tuesday, 13 July 2021 at 15:41)

(This preprocessor is the default preprocessor used by FlatCAM.)
(It is made to work with MACH3 compatible motion controllers.)


(TOOLS DIAMETER: )
(Tool: 1 -> Dia: 0.4)
(Tool: 2 -> Dia: 0.76)
(Tool: 3 -> Dia: 0.8)
(Tool: 4 -> Dia: 0.9)
(Tool: 5 -> Dia: 1.0)

(FEEDRATE Z: )
(Tool: 1 -> Feedrate: 300)
(Tool: 2 -> Feedrate: 300)
(Tool: 3 -> Feedrate: 300)
(Tool: 4 -> Feedrate: 300)
(Tool: 5 -> Feedrate: 300)

(FEEDRATE RAPIDS: )
(Tool: 1 -> Feedrate Rapids: 1500)
(Tool: 2 -> Feedrate Rapids: 1500)
(Tool: 3 -> Feedrate Rapids: 1500)
(Tool: 4 -> Feedrate Rapids: 1500)
(Tool: 5 -> Feedrate Rapids: 1500)

(Z_CUT: )
(Tool: 1 -> Z_Cut: -2.1)
(Tool: 2 -> Z_Cut: -2.1)
(Tool: 3 -> Z_Cut: -2.1)
(Tool: 4 -> Z_Cut: -2.1)
(Tool: 5 -> Z_Cut: -2.1)

(Tools Offset: )
(Tool: 1 -> Offset Z: 0.0)
(Tool: 2 -> Offset Z: 0.0)
(Tool: 3 -> Offset Z: 0.0)
(Tool: 4 -> Offset Z: 0.0)
(Tool: 5 -> Offset Z: 0.0)

(Z_MOVE: )
(Tool: 1 -> Z_Move: 3.0)
(Tool: 2 -> Z_Move: 3.0)
(Tool: 3 -> Z_Move: 3.0)
(Tool: 4 -> Z_Move: 3.0)
(Tool: 5 -> Z_Move: 3.0)

(Z Toolchange: 15.0 mm)
(X,Y Toolchange: 0.0000, 0.0000 mm)
(Z Start: None mm)
(Z End: 3.0 mm)
(X,Y End: None mm)
(Steps per circle: 64)
(Preprocessor Excellon: default)

(X range:    2.3600 ...   53.2250  mm)
(Y range:  -54.9250 ...   -3.1250  mm)

(Spindle Speed: 0 RPM)
G21
G90
G94

G01 F300.00

M5
G00 Z15.0000
T1
G00 X0.0000 Y0.0000                
M6
(MSG, Change to Tool Dia = 0.4000 ||| Total drills for tool T1 = 100)
M0
G00 Z15.0000

G01 F300.00
M03
G00 X2.5600 Y-32.8350
G01 Z-2.1000
G01 Z0
G00 Z3.0000
G00 X6.3700 Y-36.0100
G01 Z-2.1000
G01 Z0
G00 Z3.0000
G00 X8.9100 Y-36.0100
G01 Z-2.1000
G01 Z0
G00 Z3.0000
G00 X8.9100 Y-38.5500
G01 Z-2.1000
G01 Z0
G00 Z3.0000
G00 X6.3700 Y-38.5500
G01 Z-2.1000
G01 Z0
G00 Z3.0000
G00 X6.3700 Y-41.0900
G01 Z-2.1000
G01 Z0
G00 Z3.0000
G00 X8.9100 Y-41.0900
G01 Z-2.1000
G01 Z0
G00 Z3.0000
G00 X8.9100 Y-43.6300
G01 Z-2.1000
G01 Z0
G00 Z3.0000
G00 X6.3700 Y-43.6300
G01 Z-2.1000
G01 Z0
G00 Z3.0000
G00 X6.3700 Y-46.1700
G01 Z-2.1000
G01 Z0
G00 Z3.0000
G00 X3.1950 Y-54.4250
G01 Z-2.1000
G01 Z0
G00 Z3.0000
G00 X11.4500 Y-52.5200
G01 Z-2.1000
G01 Z0
G00 Z3.0000
G00 X8.9100 Y-46.1700
G01 Z-2.1000
G01 Z0
G00 Z3.0000
G00 X11.4500 Y-44.9000
G01 Z-2.1000
G01 Z0
G00 Z3.0000
G00 X17.8000 Y-41.0900
G01 Z-2.1000
G01 Z0
G00 Z3.0000
G00 X19.8200 Y-46.1700
G01 Z-2.1000
G01 Z0
G00 Z3.0000
G00 X20.8400 Y-48.7100
G01 Z-2.1000
G01 Z0
G00 Z3.0000
G00 X22.8800 Y-48.7100
G01 Z-2.1000
G01 Z0
G00 Z3.0000
G00 X21.8600 Y-46.1700
G01 Z-2.1000
G01 Z0
G00 Z3.0000
G00 X24.7850 Y-42.3600
G01 Z-2.1000
G01 Z0
G00 Z3.0000
G00 X24.7850 Y-38.5500
G01 Z-2.1000
G01 Z0
G00 Z3.0000
G00 X21.6100 Y-33.4700
G01 Z-2.1000
G01 Z0
G00 Z3.0000
G00 X21.6100 Y-30.9300
G01 Z-2.1000
G01 Z0
G00 Z3.0000
G00 X21.6100 Y-28.3900
G01 Z-2.1000
G01 Z0
G00 Z3.0000
G00 X21.6100 Y-25.8500
G01 Z-2.1000
G01 Z0
G00 Z3.0000
G00 X19.7050 Y-23.9450
G01 Z-2.1000
G01 Z0
G00 Z3.0000
G00 X21.6100 Y-19.5000
G01 Z-2.1000
G01 Z0
G00 Z3.0000
G00 X21.6100 Y-16.9600
G01 Z-2.1000
G01 Z0
G00 Z3.0000
G00 X21.6100 Y-14.4200
G01 Z-2.1000
G01 Z0
G00 Z3.0000
G00 X21.6100 Y-11.8800
G01 Z-2.1000
G01 Z0
G00 Z3.0000
G00 X29.2300 Y-11.8800
G01 Z-2.1000
G01 Z0
G00 Z3.0000
G00 X29.2300 Y-14.4200
G01 Z-2.1000
G01 Z0
G00 Z3.0000
G00 X29.2300 Y-16.9600
G01 Z-2.1000
G01 Z0
G00 Z3.0000
G00 X29.2300 Y-19.5000
G01 Z-2.1000
G01 Z0
G00 Z3.0000
G00 X29.2300 Y-25.8500
G01 Z-2.1000
G01 Z0
G00 Z3.0000
G00 X29.2300 Y-28.3900
G01 Z-2.1000
G01 Z0
G00 Z3.0000
G00 X29.2300 Y-30.9300
G01 Z-2.1000
G01 Z0
G00 Z3.0000
G00 X29.2300 Y-33.4700
G01 Z-2.1000
G01 Z0
G00 Z3.0000
G00 X34.3100 Y-31.5650
G01 Z-2.1000
G01 Z0
G00 Z3.0000
G00 X34.3100 Y-34.0650
G01 Z-2.1000
G01 Z0
G00 Z3.0000
G00 X34.9450 Y-40.4550
G01 Z-2.1000
G01 Z0
G00 Z3.0000
G00 X33.6750 Y-42.9950
G01 Z-2.1000
G01 Z0
G00 Z3.0000
G00 X36.2150 Y-42.9950
G01 Z-2.1000
G01 Z0
G00 Z3.0000
G00 X37.4850 Y-40.4550
G01 Z-2.1000
G01 Z0
G00 Z3.0000
G00 X38.7550 Y-42.9950
G01 Z-2.1000
G01 Z0
G00 Z3.0000
G00 X40.0250 Y-40.4550
G01 Z-2.1000
G01 Z0
G00 Z3.0000
G00 X42.5650 Y-40.4550
G01 Z-2.1000
G01 Z0
G00 Z3.0000
G00 X41.2950 Y-42.9950
G01 Z-2.1000
G01 Z0
G00 Z3.0000
G00 X52.7250 Y-54.4250
G01 Z-2.1000
G01 Z0
G00 Z3.0000
G00 X48.9150 Y-40.4550
G01 Z-2.1000
G01 Z0
G00 Z3.0000
G00 X44.4050 Y-36.7100
G01 Z-2.1000
G01 Z0
G00 Z3.0000
G00 X49.5500 Y-32.2000
G01 Z-2.1000
G01 Z0
G00 Z3.0000
G00 X49.5500 Y-29.7000
G01 Z-2.1000
G01 Z0
G00 Z3.0000
G00 X49.5500 Y-23.2700
G01 Z-2.1000
G01 Z0
G00 Z3.0000
G00 X49.5500 Y-20.7700
G01 Z-2.1000
G01 Z0
G00 Z3.0000
G00 X43.8350 Y-25.8500
G01 Z-2.1000
G01 Z0
G00 Z3.0000
G00 X37.4850 Y-22.6750
G01 Z-2.1000
G01 Z0
G00 Z3.0000
G00 X34.3100 Y-18.8650
G01 Z-2.1000
G01 Z0
G00 Z3.0000
G00 X34.3100 Y-16.3650
G01 Z-2.1000
G01 Z0
G00 Z3.0000
G00 X34.3100 Y-13.1500
G01 Z-2.1000
G01 Z0
G00 Z3.0000
G00 X34.3100 Y-10.6500
G01 Z-2.1000
G01 Z0
G00 Z3.0000
G00 X49.5500 Y-13.1500
G01 Z-2.1000
G01 Z0
G00 Z3.0000
G00 X49.5500 Y-10.6500
G01 Z-2.1000
G01 Z0
G00 Z3.0000
G00 X52.7250 Y-3.6250
G01 Z-2.1000
G01 Z0
G00 Z3.0000
G00 X47.0100 Y-5.5300
G01 Z-2.1000
G01 Z0
G00 Z3.0000
G00 X44.4700 Y-5.5300
G01 Z-2.1000
G01 Z0
G00 Z3.0000
G00 X41.9300 Y-5.5300
G01 Z-2.1000
G01 Z0
G00 Z3.0000
G00 X39.3900 Y-5.5300
G01 Z-2.1000
G01 Z0
G00 Z3.0000
G00 X36.8500 Y-5.5300
G01 Z-2.1000
G01 Z0
G00 Z3.0000
G00 X29.2300 Y-5.5300
G01 Z-2.1000
G01 Z0
G00 Z3.0000
G00 X26.6900 Y-5.5300
G01 Z-2.1000
G01 Z0
G00 Z3.0000
G00 X24.1500 Y-5.5300
G01 Z-2.1000
G01 Z0
G00 Z3.0000
G00 X21.6100 Y-5.5300
G01 Z-2.1000
G01 Z0
G00 Z3.0000
G00 X19.0700 Y-5.5300
G01 Z-2.1000
G01 Z0
G00 Z3.0000
G00 X16.5300 Y-5.5300
G01 Z-2.1000
G01 Z0
G00 Z3.0000
G00 X16.5300 Y-13.7850
G01 Z-2.1000
G01 Z0
G00 Z3.0000
G00 X16.5300 Y-16.2850
G01 Z-2.1000
G01 Z0
G00 Z3.0000
G00 X16.5300 Y-19.5000
G01 Z-2.1000
G01 Z0
G00 Z3.0000
G00 X16.5300 Y-22.0000
G01 Z-2.1000
G01 Z0
G00 Z3.0000
G00 X16.5300 Y-27.7950
G01 Z-2.1000
G01 Z0
G00 Z3.0000
G00 X16.5300 Y-30.2950
G01 Z-2.1000
G01 Z0
G00 Z3.0000
G00 X16.5300 Y-33.5100
G01 Z-2.1000
G01 Z0
G00 Z3.0000
G00 X16.5300 Y-36.0100
G01 Z-2.1000
G01 Z0
G00 Z3.0000
G00 X12.7200 Y-33.4700
G01 Z-2.1000
G01 Z0
G00 Z3.0000
G00 X8.9100 Y-33.4700
G01 Z-2.1000
G01 Z0
G00 Z3.0000
G00 X8.9100 Y-30.9300
G01 Z-2.1000
G01 Z0
G00 Z3.0000
G00 X8.9100 Y-28.3900
G01 Z-2.1000
G01 Z0
G00 Z3.0000
G00 X8.9100 Y-25.8500
G01 Z-2.1000
G01 Z0
G00 Z3.0000
G00 X8.9100 Y-23.3100
G01 Z-2.1000
G01 Z0
G00 Z3.0000
G00 X8.9100 Y-20.7700
G01 Z-2.1000
G01 Z0
G00 Z3.0000
G00 X8.9100 Y-18.2300
G01 Z-2.1000
G01 Z0
G00 Z3.0000
G00 X8.9100 Y-15.6900
G01 Z-2.1000
G01 Z0
G00 Z3.0000
G00 X6.3700 Y-15.6900
G01 Z-2.1000
G01 Z0
G00 Z3.0000
G00 X6.3700 Y-18.2300
G01 Z-2.1000
G01 Z0
G00 Z3.0000
G00 X6.3700 Y-20.7700
G01 Z-2.1000
G01 Z0
G00 Z3.0000
G00 X6.3700 Y-23.3100
G01 Z-2.1000
G01 Z0
G00 Z3.0000
G00 X6.3700 Y-25.8500
G01 Z-2.1000
G01 Z0
G00 Z3.0000
G00 X6.3700 Y-28.3900
G01 Z-2.1000
G01 Z0
G00 Z3.0000
G00 X6.3700 Y-30.9300
G01 Z-2.1000
G01 Z0
G00 Z3.0000
G00 X6.3700 Y-33.4700
G01 Z-2.1000
G01 Z0
G00 Z3.0000
M05
G00 Z3.00


