(G-CODE GENERATED BY FLATCAM v8.994 - www.flatcam.org - Version Date: 2020/11/7)

(Name: HARDWARE-B_Mask.gbr_mt_paint_1_cnc)
(Type: G-code from Geometry)
(Units: MM)

(Created on Tuesday, 13 July 2021 at 16:35)

(This preprocessor is the default preprocessor used by FlatCAM.)
(It is made to work with MACH3 compatible motion controllers.)

(TOOL DIAMETER: 0.3 mm)
(Feedrate_XY: 120.0 mm/min)
(Feedrate_Z: 60.0 mm/min)
(Feedrate rapids 1500.0 mm/min)

(Z_Cut: -0.3732 mm)
(Z_Move: 2.0 mm)
(Z Start: None mm)
(Z End: 15.0 mm)
(X,Y End: None mm)
(Steps per circle: 64)
(Preprocessor Geometry: default)

(X range:   38.6700 ...   83.2000  mm)
(Y range:  -96.0098 ...  -48.8300  mm)

(Spindle Speed: 0.0 RPM)
G21
G90
G94

G01 F120.00

M5
G00 Z15.0000
G00 X0.0000 Y0.0000
T1
M6    
(MSG, Change to Tool Dia = 0.3000)
M0
G00 Z15.0000

M03
G01 F120.00
G00 X49.3100 Y-49.7500
G01 F60.00
G01 Z-0.3732
G01 F120.00
G01 X49.3100 Y-49.3100
G01 X49.7500 Y-49.3100
G01 X49.7500 Y-49.7500
G01 X49.3100 Y-49.7500
G01 X49.0700 Y-49.9900
G01 X49.0700 Y-49.0700
G01 X49.9900 Y-49.0700
G01 X49.9900 Y-49.9900
G01 X49.0700 Y-49.9900
G01 X48.8300 Y-50.2300
G01 X48.8300 Y-48.8300
G01 X50.2300 Y-48.8300
G01 X50.2300 Y-50.2300
G01 X48.8300 Y-50.2300
G00 Z2.0000
G00 X52.0700 Y-50.2298
G01 F60.00
G01 Z-0.3732
G01 F120.00
G01 X52.1386 Y-50.2264
G01 X52.2065 Y-50.2164
G01 X52.2731 Y-50.1997
G01 X52.3378 Y-50.1765
G01 X52.3999 Y-50.1472
G01 X52.4588 Y-50.1119
G01 X52.5140 Y-50.0710
G01 X52.5648 Y-50.0248
G01 X52.6110 Y-49.9740
G01 X52.6519 Y-49.9188
G01 X52.6872 Y-49.8599
G01 X52.7165 Y-49.7978
G01 X52.7397 Y-49.7331
G01 X52.7564 Y-49.6665
G01 X52.7664 Y-49.5986
G01 X52.7698 Y-49.5300
G01 X52.7664 Y-49.4614
G01 X52.7564 Y-49.3935
G01 X52.7397 Y-49.3269
G01 X52.7165 Y-49.2622
G01 X52.6872 Y-49.2001
G01 X52.6519 Y-49.1412
G01 X52.6110 Y-49.0860
G01 X52.5648 Y-49.0352
G01 X52.5140 Y-48.9890
G01 X52.4588 Y-48.9481
G01 X52.3999 Y-48.9128
G01 X52.3378 Y-48.8835
G01 X52.2731 Y-48.8603
G01 X52.2065 Y-48.8436
G01 X52.1386 Y-48.8336
G01 X52.0700 Y-48.8302
G01 X52.0014 Y-48.8336
G01 X51.9335 Y-48.8436
G01 X51.8669 Y-48.8603
G01 X51.8022 Y-48.8835
G01 X51.7401 Y-48.9128
G01 X51.6812 Y-48.9481
G01 X51.6260 Y-48.9890
G01 X51.5752 Y-49.0352
G01 X51.5290 Y-49.0860
G01 X51.4881 Y-49.1412
G01 X51.4528 Y-49.2001
G01 X51.4235 Y-49.2622
G01 X51.4003 Y-49.3269
G01 X51.3836 Y-49.3935
G01 X51.3736 Y-49.4614
G01 X51.3702 Y-49.5300
G01 X51.3736 Y-49.5986
G01 X51.3836 Y-49.6665
G01 X51.4003 Y-49.7331
G01 X51.4235 Y-49.7978
G01 X51.4528 Y-49.8599
G01 X51.4881 Y-49.9188
G01 X51.5290 Y-49.9740
G01 X51.5752 Y-50.0248
G01 X51.6260 Y-50.0710
G01 X51.6812 Y-50.1119
G01 X51.7401 Y-50.1472
G01 X51.8022 Y-50.1765
G01 X51.8669 Y-50.1997
G01 X51.9335 Y-50.2164
G01 X52.0014 Y-50.2264
G01 X52.0700 Y-50.2298
G01 X52.0700 Y-49.9895
G01 X52.1150 Y-49.9873
G01 X52.1596 Y-49.9807
G01 X52.2034 Y-49.9697
G01 X52.2459 Y-49.9545
G01 X52.2866 Y-49.9353
G01 X52.3253 Y-49.9121
G01 X52.3615 Y-49.8852
G01 X52.3949 Y-49.8549
G01 X52.4252 Y-49.8215
G01 X52.4521 Y-49.7853
G01 X52.4753 Y-49.7466
G01 X52.4945 Y-49.7059
G01 X52.5097 Y-49.6634
G01 X52.5207 Y-49.6196
G01 X52.5273 Y-49.5750
G01 X52.5295 Y-49.5300
G01 X52.5273 Y-49.4850
G01 X52.5207 Y-49.4404
G01 X52.5097 Y-49.3966
G01 X52.4945 Y-49.3541
G01 X52.4753 Y-49.3134
G01 X52.4521 Y-49.2747
G01 X52.4252 Y-49.2385
G01 X52.3949 Y-49.2051
G01 X52.3615 Y-49.1748
G01 X52.3253 Y-49.1479
G01 X52.2866 Y-49.1247
G01 X52.2459 Y-49.1055
G01 X52.2034 Y-49.0903
G01 X52.1596 Y-49.0793
G01 X52.1150 Y-49.0727
G01 X52.0700 Y-49.0705
G01 X52.0250 Y-49.0727
G01 X51.9804 Y-49.0793
G01 X51.9366 Y-49.0903
G01 X51.8941 Y-49.1055
G01 X51.8534 Y-49.1247
G01 X51.8147 Y-49.1479
G01 X51.7785 Y-49.1748
G01 X51.7451 Y-49.2051
G01 X51.7148 Y-49.2385
G01 X51.6879 Y-49.2747
G01 X51.6647 Y-49.3134
G01 X51.6455 Y-49.3541
G01 X51.6303 Y-49.3966
G01 X51.6193 Y-49.4404
G01 X51.6127 Y-49.4850
G01 X51.6105 Y-49.5300
G01 X51.6127 Y-49.5750
G01 X51.6193 Y-49.6196
G01 X51.6303 Y-49.6634
G01 X51.6455 Y-49.7059
G01 X51.6647 Y-49.7466
G01 X51.6879 Y-49.7853
G01 X51.7148 Y-49.8215
G01 X51.7451 Y-49.8549
G01 X51.7785 Y-49.8852
G01 X51.8147 Y-49.9121
G01 X51.8534 Y-49.9353
G01 X51.8941 Y-49.9545
G01 X51.9366 Y-49.9697
G01 X51.9804 Y-49.9807
G01 X52.0250 Y-49.9873
G01 X52.0700 Y-49.9895
G01 X52.0700 Y-49.7492
G01 X52.0915 Y-49.7482
G01 X52.1128 Y-49.7450
G01 X52.1336 Y-49.7398
G01 X52.1539 Y-49.7326
G01 X52.1733 Y-49.7234
G01 X52.1918 Y-49.7123
G01 X52.2091 Y-49.6995
G01 X52.2250 Y-49.6850
G01 X52.2395 Y-49.6691
G01 X52.2523 Y-49.6518
G01 X52.2634 Y-49.6333
G01 X52.2726 Y-49.6139
G01 X52.2798 Y-49.5936
G01 X52.2850 Y-49.5728
G01 X52.2882 Y-49.5515
G01 X52.2892 Y-49.5300
G01 X52.2882 Y-49.5085
G01 X52.2850 Y-49.4872
G01 X52.2798 Y-49.4664
G01 X52.2726 Y-49.4461
G01 X52.2634 Y-49.4267
G01 X52.2523 Y-49.4082
G01 X52.2395 Y-49.3909
G01 X52.2250 Y-49.3750
G01 X52.2091 Y-49.3605
G01 X52.1918 Y-49.3477
G01 X52.1733 Y-49.3366
G01 X52.1539 Y-49.3274
G01 X52.1336 Y-49.3202
G01 X52.1128 Y-49.3150
G01 X52.0915 Y-49.3118
G01 X52.0700 Y-49.3108
G01 X52.0485 Y-49.3118
G01 X52.0272 Y-49.3150
G01 X52.0064 Y-49.3202
G01 X51.9861 Y-49.3274
G01 X51.9667 Y-49.3366
G01 X51.9482 Y-49.3477
G01 X51.9309 Y-49.3605
G01 X51.9150 Y-49.3750
G01 X51.9005 Y-49.3909
G01 X51.8877 Y-49.4082
G01 X51.8766 Y-49.4267
G01 X51.8674 Y-49.4461
G01 X51.8602 Y-49.4664
G01 X51.8550 Y-49.4872
G01 X51.8518 Y-49.5085
G01 X51.8508 Y-49.5300
G01 X51.8518 Y-49.5515
G01 X51.8550 Y-49.5728
G01 X51.8602 Y-49.5936
G01 X51.8674 Y-49.6139
G01 X51.8766 Y-49.6333
G01 X51.8877 Y-49.6518
G01 X51.9005 Y-49.6691
G01 X51.9150 Y-49.6850
G01 X51.9309 Y-49.6995
G01 X51.9482 Y-49.7123
G01 X51.9667 Y-49.7234
G01 X51.9861 Y-49.7326
G01 X52.0064 Y-49.7398
G01 X52.0272 Y-49.7450
G01 X52.0485 Y-49.7482
G01 X52.0700 Y-49.7492
G00 Z2.0000
G00 X54.6100 Y-50.2298
G01 F60.00
G01 Z-0.3732
G01 F120.00
G01 X54.6786 Y-50.2264
G01 X54.7465 Y-50.2164
G01 X54.8131 Y-50.1997
G01 X54.8778 Y-50.1765
G01 X54.9399 Y-50.1472
G01 X54.9988 Y-50.1119
G01 X55.0540 Y-50.0710
G01 X55.1048 Y-50.0248
G01 X55.1510 Y-49.9740
G01 X55.1919 Y-49.9188
G01 X55.2272 Y-49.8599
G01 X55.2565 Y-49.7978
G01 X55.2797 Y-49.7331
G01 X55.2964 Y-49.6665
G01 X55.3064 Y-49.5986
G01 X55.3098 Y-49.5300
G01 X55.3064 Y-49.4614
G01 X55.2964 Y-49.3935
G01 X55.2797 Y-49.3269
G01 X55.2565 Y-49.2622
G01 X55.2272 Y-49.2001
G01 X55.1919 Y-49.1412
G01 X55.1510 Y-49.0860
G01 X55.1048 Y-49.0352
G01 X55.0540 Y-48.9890
G01 X54.9988 Y-48.9481
G01 X54.9399 Y-48.9128
G01 X54.8778 Y-48.8835
G01 X54.8131 Y-48.8603
G01 X54.7465 Y-48.8436
G01 X54.6786 Y-48.8336
G01 X54.6100 Y-48.8302
G01 X54.5414 Y-48.8336
G01 X54.4735 Y-48.8436
G01 X54.4069 Y-48.8603
G01 X54.3422 Y-48.8835
G01 X54.2801 Y-48.9128
G01 X54.2212 Y-48.9481
G01 X54.1660 Y-48.9890
G01 X54.1152 Y-49.0352
G01 X54.0690 Y-49.0860
G01 X54.0281 Y-49.1412
G01 X53.9928 Y-49.2001
G01 X53.9635 Y-49.2622
G01 X53.9403 Y-49.3269
G01 X53.9236 Y-49.3935
G01 X53.9136 Y-49.4614
G01 X53.9102 Y-49.5300
G01 X53.9136 Y-49.5986
G01 X53.9236 Y-49.6665
G01 X53.9403 Y-49.7331
G01 X53.9635 Y-49.7978
G01 X53.9928 Y-49.8599
G01 X54.0281 Y-49.9188
G01 X54.0690 Y-49.9740
G01 X54.1152 Y-50.0248
G01 X54.1660 Y-50.0710
G01 X54.2212 Y-50.1119
G01 X54.2801 Y-50.1472
G01 X54.3422 Y-50.1765
G01 X54.4069 Y-50.1997
G01 X54.4735 Y-50.2164
G01 X54.5414 Y-50.2264
G01 X54.6100 Y-50.2298
G01 X54.6100 Y-49.9895
G01 X54.6550 Y-49.9873
G01 X54.6996 Y-49.9807
G01 X54.7434 Y-49.9697
G01 X54.7859 Y-49.9545
G01 X54.8266 Y-49.9353
G01 X54.8653 Y-49.9121
G01 X54.9015 Y-49.8852
G01 X54.9349 Y-49.8549
G01 X54.9652 Y-49.8215
G01 X54.9921 Y-49.7853
G01 X55.0153 Y-49.7466
G01 X55.0345 Y-49.7059
G01 X55.0497 Y-49.6634
G01 X55.0607 Y-49.6196
G01 X55.0673 Y-49.5750
G01 X55.0695 Y-49.5300
G01 X55.0673 Y-49.4850
G01 X55.0607 Y-49.4404
G01 X55.0497 Y-49.3966
G01 X55.0345 Y-49.3541
G01 X55.0153 Y-49.3134
G01 X54.9921 Y-49.2747
G01 X54.9652 Y-49.2385
G01 X54.9349 Y-49.2051
G01 X54.9015 Y-49.1748
G01 X54.8653 Y-49.1479
G01 X54.8266 Y-49.1247
G01 X54.7859 Y-49.1055
G01 X54.7434 Y-49.0903
G01 X54.6996 Y-49.0793
G01 X54.6550 Y-49.0727
G01 X54.6100 Y-49.0705
G01 X54.5650 Y-49.0727
G01 X54.5204 Y-49.0793
G01 X54.4766 Y-49.0903
G01 X54.4341 Y-49.1055
G01 X54.3934 Y-49.1247
G01 X54.3547 Y-49.1479
G01 X54.3185 Y-49.1748
G01 X54.2851 Y-49.2051
G01 X54.2548 Y-49.2385
G01 X54.2279 Y-49.2747
G01 X54.2047 Y-49.3134
G01 X54.1855 Y-49.3541
G01 X54.1703 Y-49.3966
G01 X54.1593 Y-49.4404
G01 X54.1527 Y-49.4850
G01 X54.1505 Y-49.5300
G01 X54.1527 Y-49.5750
G01 X54.1593 Y-49.6196
G01 X54.1703 Y-49.6634
G01 X54.1855 Y-49.7059
G01 X54.2047 Y-49.7466
G01 X54.2279 Y-49.7853
G01 X54.2548 Y-49.8215
G01 X54.2851 Y-49.8549
G01 X54.3185 Y-49.8852
G01 X54.3547 Y-49.9121
G01 X54.3934 Y-49.9353
G01 X54.4341 Y-49.9545
G01 X54.4766 Y-49.9697
G01 X54.5204 Y-49.9807
G01 X54.5650 Y-49.9873
G01 X54.6100 Y-49.9895
G01 X54.6100 Y-49.7492
G01 X54.6315 Y-49.7482
G01 X54.6528 Y-49.7450
G01 X54.6736 Y-49.7398
G01 X54.6939 Y-49.7326
G01 X54.7133 Y-49.7234
G01 X54.7318 Y-49.7123
G01 X54.7491 Y-49.6995
G01 X54.7650 Y-49.6850
G01 X54.7795 Y-49.6691
G01 X54.7923 Y-49.6518
G01 X54.8034 Y-49.6333
G01 X54.8126 Y-49.6139
G01 X54.8198 Y-49.5936
G01 X54.8250 Y-49.5728
G01 X54.8282 Y-49.5515
G01 X54.8292 Y-49.5300
G01 X54.8282 Y-49.5085
G01 X54.8250 Y-49.4872
G01 X54.8198 Y-49.4664
G01 X54.8126 Y-49.4461
G01 X54.8034 Y-49.4267
G01 X54.7923 Y-49.4082
G01 X54.7795 Y-49.3909
G01 X54.7650 Y-49.3750
G01 X54.7491 Y-49.3605
G01 X54.7318 Y-49.3477
G01 X54.7133 Y-49.3366
G01 X54.6939 Y-49.3274
G01 X54.6736 Y-49.3202
G01 X54.6528 Y-49.3150
G01 X54.6315 Y-49.3118
G01 X54.6100 Y-49.3108
G01 X54.5885 Y-49.3118
G01 X54.5672 Y-49.3150
G01 X54.5464 Y-49.3202
G01 X54.5261 Y-49.3274
G01 X54.5067 Y-49.3366
G01 X54.4882 Y-49.3477
G01 X54.4709 Y-49.3605
G01 X54.4550 Y-49.3750
G01 X54.4405 Y-49.3909
G01 X54.4277 Y-49.4082
G01 X54.4166 Y-49.4267
G01 X54.4074 Y-49.4461
G01 X54.4002 Y-49.4664
G01 X54.3950 Y-49.4872
G01 X54.3918 Y-49.5085
G01 X54.3908 Y-49.5300
G01 X54.3918 Y-49.5515
G01 X54.3950 Y-49.5728
G01 X54.4002 Y-49.5936
G01 X54.4074 Y-49.6139
G01 X54.4166 Y-49.6333
G01 X54.4277 Y-49.6518
G01 X54.4405 Y-49.6691
G01 X54.4550 Y-49.6850
G01 X54.4709 Y-49.6995
G01 X54.4882 Y-49.7123
G01 X54.5067 Y-49.7234
G01 X54.5261 Y-49.7326
G01 X54.5464 Y-49.7398
G01 X54.5672 Y-49.7450
G01 X54.5885 Y-49.7482
G01 X54.6100 Y-49.7492
G00 Z2.0000
G00 X57.1500 Y-50.2298
G01 F60.00
G01 Z-0.3732
G01 F120.00
G01 X57.2186 Y-50.2264
G01 X57.2865 Y-50.2164
G01 X57.3531 Y-50.1997
G01 X57.4178 Y-50.1765
G01 X57.4799 Y-50.1472
G01 X57.5388 Y-50.1119
G01 X57.5940 Y-50.0710
G01 X57.6448 Y-50.0248
G01 X57.6910 Y-49.9740
G01 X57.7319 Y-49.9188
G01 X57.7672 Y-49.8599
G01 X57.7965 Y-49.7978
G01 X57.8197 Y-49.7331
G01 X57.8364 Y-49.6665
G01 X57.8464 Y-49.5986
G01 X57.8498 Y-49.5300
G01 X57.8464 Y-49.4614
G01 X57.8364 Y-49.3935
G01 X57.8197 Y-49.3269
G01 X57.7965 Y-49.2622
G01 X57.7672 Y-49.2001
G01 X57.7319 Y-49.1412
G01 X57.6910 Y-49.0860
G01 X57.6448 Y-49.0352
G01 X57.5940 Y-48.9890
G01 X57.5388 Y-48.9481
G01 X57.4799 Y-48.9128
G01 X57.4178 Y-48.8835
G01 X57.3531 Y-48.8603
G01 X57.2865 Y-48.8436
G01 X57.2186 Y-48.8336
G01 X57.1500 Y-48.8302
G01 X57.0814 Y-48.8336
G01 X57.0135 Y-48.8436
G01 X56.9469 Y-48.8603
G01 X56.8822 Y-48.8835
G01 X56.8201 Y-48.9128
G01 X56.7612 Y-48.9481
G01 X56.7060 Y-48.9890
G01 X56.6552 Y-49.0352
G01 X56.6090 Y-49.0860
G01 X56.5681 Y-49.1412
G01 X56.5328 Y-49.2001
G01 X56.5035 Y-49.2622
G01 X56.4803 Y-49.3269
G01 X56.4636 Y-49.3935
G01 X56.4536 Y-49.4614
G01 X56.4502 Y-49.5300
G01 X56.4536 Y-49.5986
G01 X56.4636 Y-49.6665
G01 X56.4803 Y-49.7331
G01 X56.5035 Y-49.7978
G01 X56.5328 Y-49.8599
G01 X56.5681 Y-49.9188
G01 X56.6090 Y-49.9740
G01 X56.6552 Y-50.0248
G01 X56.7060 Y-50.0710
G01 X56.7612 Y-50.1119
G01 X56.8201 Y-50.1472
G01 X56.8822 Y-50.1765
G01 X56.9469 Y-50.1997
G01 X57.0135 Y-50.2164
G01 X57.0814 Y-50.2264
G01 X57.1500 Y-50.2298
G01 X57.1500 Y-49.9895
G01 X57.1950 Y-49.9873
G01 X57.2396 Y-49.9807
G01 X57.2834 Y-49.9697
G01 X57.3259 Y-49.9545
G01 X57.3666 Y-49.9353
G01 X57.4053 Y-49.9121
G01 X57.4415 Y-49.8852
G01 X57.4749 Y-49.8549
G01 X57.5052 Y-49.8215
G01 X57.5321 Y-49.7853
G01 X57.5553 Y-49.7466
G01 X57.5745 Y-49.7059
G01 X57.5897 Y-49.6634
G01 X57.6007 Y-49.6196
G01 X57.6073 Y-49.5750
G01 X57.6095 Y-49.5300
G01 X57.6073 Y-49.4850
G01 X57.6007 Y-49.4404
G01 X57.5897 Y-49.3966
G01 X57.5745 Y-49.3541
G01 X57.5553 Y-49.3134
G01 X57.5321 Y-49.2747
G01 X57.5052 Y-49.2385
G01 X57.4749 Y-49.2051
G01 X57.4415 Y-49.1748
G01 X57.4053 Y-49.1479
G01 X57.3666 Y-49.1247
G01 X57.3259 Y-49.1055
G01 X57.2834 Y-49.0903
G01 X57.2396 Y-49.0793
G01 X57.1950 Y-49.0727
G01 X57.1500 Y-49.0705
G01 X57.1050 Y-49.0727
G01 X57.0604 Y-49.0793
G01 X57.0166 Y-49.0903
G01 X56.9741 Y-49.1055
G01 X56.9334 Y-49.1247
G01 X56.8947 Y-49.1479
G01 X56.8585 Y-49.1748
G01 X56.8251 Y-49.2051
G01 X56.7948 Y-49.2385
G01 X56.7679 Y-49.2747
G01 X56.7447 Y-49.3134
G01 X56.7255 Y-49.3541
G01 X56.7103 Y-49.3966
G01 X56.6993 Y-49.4404
G01 X56.6927 Y-49.4850
G01 X56.6905 Y-49.5300
G01 X56.6927 Y-49.5750
G01 X56.6993 Y-49.6196
G01 X56.7103 Y-49.6634
G01 X56.7255 Y-49.7059
G01 X56.7447 Y-49.7466
G01 X56.7679 Y-49.7853
G01 X56.7948 Y-49.8215
G01 X56.8251 Y-49.8549
G01 X56.8585 Y-49.8852
G01 X56.8947 Y-49.9121
G01 X56.9334 Y-49.9353
G01 X56.9741 Y-49.9545
G01 X57.0166 Y-49.9697
G01 X57.0604 Y-49.9807
G01 X57.1050 Y-49.9873
G01 X57.1500 Y-49.9895
G01 X57.1500 Y-49.7492
G01 X57.1715 Y-49.7482
G01 X57.1928 Y-49.7450
G01 X57.2136 Y-49.7398
G01 X57.2339 Y-49.7326
G01 X57.2533 Y-49.7234
G01 X57.2718 Y-49.7123
G01 X57.2891 Y-49.6995
G01 X57.3050 Y-49.6850
G01 X57.3195 Y-49.6691
G01 X57.3323 Y-49.6518
G01 X57.3434 Y-49.6333
G01 X57.3526 Y-49.6139
G01 X57.3598 Y-49.5936
G01 X57.3650 Y-49.5728
G01 X57.3682 Y-49.5515
G01 X57.3692 Y-49.5300
G01 X57.3682 Y-49.5085
G01 X57.3650 Y-49.4872
G01 X57.3598 Y-49.4664
G01 X57.3526 Y-49.4461
G01 X57.3434 Y-49.4267
G01 X57.3323 Y-49.4082
G01 X57.3195 Y-49.3909
G01 X57.3050 Y-49.3750
G01 X57.2891 Y-49.3605
G01 X57.2718 Y-49.3477
G01 X57.2533 Y-49.3366
G01 X57.2339 Y-49.3274
G01 X57.2136 Y-49.3202
G01 X57.1928 Y-49.3150
G01 X57.1715 Y-49.3118
G01 X57.1500 Y-49.3108
G01 X57.1285 Y-49.3118
G01 X57.1072 Y-49.3150
G01 X57.0864 Y-49.3202
G01 X57.0661 Y-49.3274
G01 X57.0467 Y-49.3366
G01 X57.0282 Y-49.3477
G01 X57.0109 Y-49.3605
G01 X56.9950 Y-49.3750
G01 X56.9805 Y-49.3909
G01 X56.9677 Y-49.4082
G01 X56.9566 Y-49.4267
G01 X56.9474 Y-49.4461
G01 X56.9402 Y-49.4664
G01 X56.9350 Y-49.4872
G01 X56.9318 Y-49.5085
G01 X56.9308 Y-49.5300
G01 X56.9318 Y-49.5515
G01 X56.9350 Y-49.5728
G01 X56.9402 Y-49.5936
G01 X56.9474 Y-49.6139
G01 X56.9566 Y-49.6333
G01 X56.9677 Y-49.6518
G01 X56.9805 Y-49.6691
G01 X56.9950 Y-49.6850
G01 X57.0109 Y-49.6995
G01 X57.0282 Y-49.7123
G01 X57.0467 Y-49.7234
G01 X57.0661 Y-49.7326
G01 X57.0864 Y-49.7398
G01 X57.1072 Y-49.7450
G01 X57.1285 Y-49.7482
G01 X57.1500 Y-49.7492
G00 Z2.0000
G00 X59.6900 Y-50.2298
G01 F60.00
G01 Z-0.3732
G01 F120.00
G01 X59.7586 Y-50.2264
G01 X59.8265 Y-50.2164
G01 X59.8931 Y-50.1997
G01 X59.9578 Y-50.1765
G01 X60.0199 Y-50.1472
G01 X60.0788 Y-50.1119
G01 X60.1340 Y-50.0710
G01 X60.1848 Y-50.0248
G01 X60.2310 Y-49.9740
G01 X60.2719 Y-49.9188
G01 X60.3072 Y-49.8599
G01 X60.3365 Y-49.7978
G01 X60.3597 Y-49.7331
G01 X60.3764 Y-49.6665
G01 X60.3864 Y-49.5986
G01 X60.3898 Y-49.5300
G01 X60.3864 Y-49.4614
G01 X60.3764 Y-49.3935
G01 X60.3597 Y-49.3269
G01 X60.3365 Y-49.2622
G01 X60.3072 Y-49.2001
G01 X60.2719 Y-49.1412
G01 X60.2310 Y-49.0860
G01 X60.1848 Y-49.0352
G01 X60.1340 Y-48.9890
G01 X60.0788 Y-48.9481
G01 X60.0199 Y-48.9128
G01 X59.9578 Y-48.8835
G01 X59.8931 Y-48.8603
G01 X59.8265 Y-48.8436
G01 X59.7586 Y-48.8336
G01 X59.6900 Y-48.8302
G01 X59.6214 Y-48.8336
G01 X59.5535 Y-48.8436
G01 X59.4869 Y-48.8603
G01 X59.4222 Y-48.8835
G01 X59.3601 Y-48.9128
G01 X59.3012 Y-48.9481
G01 X59.2460 Y-48.9890
G01 X59.1952 Y-49.0352
G01 X59.1490 Y-49.0860
G01 X59.1081 Y-49.1412
G01 X59.0728 Y-49.2001
G01 X59.0435 Y-49.2622
G01 X59.0203 Y-49.3269
G01 X59.0036 Y-49.3935
G01 X58.9936 Y-49.4614
G01 X58.9902 Y-49.5300
G01 X58.9936 Y-49.5986
G01 X59.0036 Y-49.6665
G01 X59.0203 Y-49.7331
G01 X59.0435 Y-49.7978
G01 X59.0728 Y-49.8599
G01 X59.1081 Y-49.9188
G01 X59.1490 Y-49.9740
G01 X59.1952 Y-50.0248
G01 X59.2460 Y-50.0710
G01 X59.3012 Y-50.1119
G01 X59.3601 Y-50.1472
G01 X59.4222 Y-50.1765
G01 X59.4869 Y-50.1997
G01 X59.5535 Y-50.2164
G01 X59.6214 Y-50.2264
G01 X59.6900 Y-50.2298
G01 X59.6900 Y-49.9895
G01 X59.7350 Y-49.9873
G01 X59.7796 Y-49.9807
G01 X59.8234 Y-49.9697
G01 X59.8659 Y-49.9545
G01 X59.9066 Y-49.9353
G01 X59.9453 Y-49.9121
G01 X59.9815 Y-49.8852
G01 X60.0149 Y-49.8549
G01 X60.0452 Y-49.8215
G01 X60.0721 Y-49.7853
G01 X60.0953 Y-49.7466
G01 X60.1145 Y-49.7059
G01 X60.1297 Y-49.6634
G01 X60.1407 Y-49.6196
G01 X60.1473 Y-49.5750
G01 X60.1495 Y-49.5300
G01 X60.1473 Y-49.4850
G01 X60.1407 Y-49.4404
G01 X60.1297 Y-49.3966
G01 X60.1145 Y-49.3541
G01 X60.0953 Y-49.3134
G01 X60.0721 Y-49.2747
G01 X60.0452 Y-49.2385
G01 X60.0149 Y-49.2051
G01 X59.9815 Y-49.1748
G01 X59.9453 Y-49.1479
G01 X59.9066 Y-49.1247
G01 X59.8659 Y-49.1055
G01 X59.8234 Y-49.0903
G01 X59.7796 Y-49.0793
G01 X59.7350 Y-49.0727
G01 X59.6900 Y-49.0705
G01 X59.6450 Y-49.0727
G01 X59.6004 Y-49.0793
G01 X59.5566 Y-49.0903
G01 X59.5141 Y-49.1055
G01 X59.4734 Y-49.1247
G01 X59.4347 Y-49.1479
G01 X59.3985 Y-49.1748
G01 X59.3651 Y-49.2051
G01 X59.3348 Y-49.2385
G01 X59.3079 Y-49.2747
G01 X59.2847 Y-49.3134
G01 X59.2655 Y-49.3541
G01 X59.2503 Y-49.3966
G01 X59.2393 Y-49.4404
G01 X59.2327 Y-49.4850
G01 X59.2305 Y-49.5300
G01 X59.2327 Y-49.5750
G01 X59.2393 Y-49.6196
G01 X59.2503 Y-49.6634
G01 X59.2655 Y-49.7059
G01 X59.2847 Y-49.7466
G01 X59.3079 Y-49.7853
G01 X59.3348 Y-49.8215
G01 X59.3651 Y-49.8549
G01 X59.3985 Y-49.8852
G01 X59.4347 Y-49.9121
G01 X59.4734 Y-49.9353
G01 X59.5141 Y-49.9545
G01 X59.5566 Y-49.9697
G01 X59.6004 Y-49.9807
G01 X59.6450 Y-49.9873
G01 X59.6900 Y-49.9895
G01 X59.6900 Y-49.7492
G01 X59.7115 Y-49.7482
G01 X59.7328 Y-49.7450
G01 X59.7536 Y-49.7398
G01 X59.7739 Y-49.7326
G01 X59.7933 Y-49.7234
G01 X59.8118 Y-49.7123
G01 X59.8291 Y-49.6995
G01 X59.8450 Y-49.6850
G01 X59.8595 Y-49.6691
G01 X59.8723 Y-49.6518
G01 X59.8834 Y-49.6333
G01 X59.8926 Y-49.6139
G01 X59.8998 Y-49.5936
G01 X59.9050 Y-49.5728
G01 X59.9082 Y-49.5515
G01 X59.9092 Y-49.5300
G01 X59.9082 Y-49.5085
G01 X59.9050 Y-49.4872
G01 X59.8998 Y-49.4664
G01 X59.8926 Y-49.4461
G01 X59.8834 Y-49.4267
G01 X59.8723 Y-49.4082
G01 X59.8595 Y-49.3909
G01 X59.8450 Y-49.3750
G01 X59.8291 Y-49.3605
G01 X59.8118 Y-49.3477
G01 X59.7933 Y-49.3366
G01 X59.7739 Y-49.3274
G01 X59.7536 Y-49.3202
G01 X59.7328 Y-49.3150
G01 X59.7115 Y-49.3118
G01 X59.6900 Y-49.3108
G01 X59.6685 Y-49.3118
G01 X59.6472 Y-49.3150
G01 X59.6264 Y-49.3202
G01 X59.6061 Y-49.3274
G01 X59.5867 Y-49.3366
G01 X59.5682 Y-49.3477
G01 X59.5509 Y-49.3605
G01 X59.5350 Y-49.3750
G01 X59.5205 Y-49.3909
G01 X59.5077 Y-49.4082
G01 X59.4966 Y-49.4267
G01 X59.4874 Y-49.4461
G01 X59.4802 Y-49.4664
G01 X59.4750 Y-49.4872
G01 X59.4718 Y-49.5085
G01 X59.4708 Y-49.5300
G01 X59.4718 Y-49.5515
G01 X59.4750 Y-49.5728
G01 X59.4802 Y-49.5936
G01 X59.4874 Y-49.6139
G01 X59.4966 Y-49.6333
G01 X59.5077 Y-49.6518
G01 X59.5205 Y-49.6691
G01 X59.5350 Y-49.6850
G01 X59.5509 Y-49.6995
G01 X59.5682 Y-49.7123
G01 X59.5867 Y-49.7234
G01 X59.6061 Y-49.7326
G01 X59.6264 Y-49.7398
G01 X59.6472 Y-49.7450
G01 X59.6685 Y-49.7482
G01 X59.6900 Y-49.7492
G00 Z2.0000
G00 X62.2300 Y-50.2298
G01 F60.00
G01 Z-0.3732
G01 F120.00
G01 X62.2986 Y-50.2264
G01 X62.3665 Y-50.2164
G01 X62.4331 Y-50.1997
G01 X62.4978 Y-50.1765
G01 X62.5599 Y-50.1472
G01 X62.6188 Y-50.1119
G01 X62.6740 Y-50.0710
G01 X62.7248 Y-50.0248
G01 X62.7710 Y-49.9740
G01 X62.8119 Y-49.9188
G01 X62.8472 Y-49.8599
G01 X62.8765 Y-49.7978
G01 X62.8997 Y-49.7331
G01 X62.9164 Y-49.6665
G01 X62.9264 Y-49.5986
G01 X62.9298 Y-49.5300
G01 X62.9264 Y-49.4614
G01 X62.9164 Y-49.3935
G01 X62.8997 Y-49.3269
G01 X62.8765 Y-49.2622
G01 X62.8472 Y-49.2001
G01 X62.8119 Y-49.1412
G01 X62.7710 Y-49.0860
G01 X62.7248 Y-49.0352
G01 X62.6740 Y-48.9890
G01 X62.6188 Y-48.9481
G01 X62.5599 Y-48.9128
G01 X62.4978 Y-48.8835
G01 X62.4331 Y-48.8603
G01 X62.3665 Y-48.8436
G01 X62.2986 Y-48.8336
G01 X62.2300 Y-48.8302
G01 X62.1614 Y-48.8336
G01 X62.0935 Y-48.8436
G01 X62.0269 Y-48.8603
G01 X61.9622 Y-48.8835
G01 X61.9001 Y-48.9128
G01 X61.8412 Y-48.9481
G01 X61.7860 Y-48.9890
G01 X61.7352 Y-49.0352
G01 X61.6890 Y-49.0860
G01 X61.6481 Y-49.1412
G01 X61.6128 Y-49.2001
G01 X61.5835 Y-49.2622
G01 X61.5603 Y-49.3269
G01 X61.5436 Y-49.3935
G01 X61.5336 Y-49.4614
G01 X61.5302 Y-49.5300
G01 X61.5336 Y-49.5986
G01 X61.5436 Y-49.6665
G01 X61.5603 Y-49.7331
G01 X61.5835 Y-49.7978
G01 X61.6128 Y-49.8599
G01 X61.6481 Y-49.9188
G01 X61.6890 Y-49.9740
G01 X61.7352 Y-50.0248
G01 X61.7860 Y-50.0710
G01 X61.8412 Y-50.1119
G01 X61.9001 Y-50.1472
G01 X61.9622 Y-50.1765
G01 X62.0269 Y-50.1997
G01 X62.0935 Y-50.2164
G01 X62.1614 Y-50.2264
G01 X62.2300 Y-50.2298
G01 X62.2300 Y-49.9895
G01 X62.2750 Y-49.9873
G01 X62.3196 Y-49.9807
G01 X62.3634 Y-49.9697
G01 X62.4059 Y-49.9545
G01 X62.4466 Y-49.9353
G01 X62.4853 Y-49.9121
G01 X62.5215 Y-49.8852
G01 X62.5549 Y-49.8549
G01 X62.5852 Y-49.8215
G01 X62.6121 Y-49.7853
G01 X62.6353 Y-49.7466
G01 X62.6545 Y-49.7059
G01 X62.6697 Y-49.6634
G01 X62.6807 Y-49.6196
G01 X62.6873 Y-49.5750
G01 X62.6895 Y-49.5300
G01 X62.6873 Y-49.4850
G01 X62.6807 Y-49.4404
G01 X62.6697 Y-49.3966
G01 X62.6545 Y-49.3541
G01 X62.6353 Y-49.3134
G01 X62.6121 Y-49.2747
G01 X62.5852 Y-49.2385
G01 X62.5549 Y-49.2051
G01 X62.5215 Y-49.1748
G01 X62.4853 Y-49.1479
G01 X62.4466 Y-49.1247
G01 X62.4059 Y-49.1055
G01 X62.3634 Y-49.0903
G01 X62.3196 Y-49.0793
G01 X62.2750 Y-49.0727
G01 X62.2300 Y-49.0705
G01 X62.1850 Y-49.0727
G01 X62.1404 Y-49.0793
G01 X62.0966 Y-49.0903
G01 X62.0541 Y-49.1055
G01 X62.0134 Y-49.1247
G01 X61.9747 Y-49.1479
G01 X61.9385 Y-49.1748
G01 X61.9051 Y-49.2051
G01 X61.8748 Y-49.2385
G01 X61.8479 Y-49.2747
G01 X61.8247 Y-49.3134
G01 X61.8055 Y-49.3541
G01 X61.7903 Y-49.3966
G01 X61.7793 Y-49.4404
G01 X61.7727 Y-49.4850
G01 X61.7705 Y-49.5300
G01 X61.7727 Y-49.5750
G01 X61.7793 Y-49.6196
G01 X61.7903 Y-49.6634
G01 X61.8055 Y-49.7059
G01 X61.8247 Y-49.7466
G01 X61.8479 Y-49.7853
G01 X61.8748 Y-49.8215
G01 X61.9051 Y-49.8549
G01 X61.9385 Y-49.8852
G01 X61.9747 Y-49.9121
G01 X62.0134 Y-49.9353
G01 X62.0541 Y-49.9545
G01 X62.0966 Y-49.9697
G01 X62.1404 Y-49.9807
G01 X62.1850 Y-49.9873
G01 X62.2300 Y-49.9895
G01 X62.2300 Y-49.7492
G01 X62.2515 Y-49.7482
G01 X62.2728 Y-49.7450
G01 X62.2936 Y-49.7398
G01 X62.3139 Y-49.7326
G01 X62.3333 Y-49.7234
G01 X62.3518 Y-49.7123
G01 X62.3691 Y-49.6995
G01 X62.3850 Y-49.6850
G01 X62.3995 Y-49.6691
G01 X62.4123 Y-49.6518
G01 X62.4234 Y-49.6333
G01 X62.4326 Y-49.6139
G01 X62.4398 Y-49.5936
G01 X62.4450 Y-49.5728
G01 X62.4482 Y-49.5515
G01 X62.4492 Y-49.5300
G01 X62.4482 Y-49.5085
G01 X62.4450 Y-49.4872
G01 X62.4398 Y-49.4664
G01 X62.4326 Y-49.4461
G01 X62.4234 Y-49.4267
G01 X62.4123 Y-49.4082
G01 X62.3995 Y-49.3909
G01 X62.3850 Y-49.3750
G01 X62.3691 Y-49.3605
G01 X62.3518 Y-49.3477
G01 X62.3333 Y-49.3366
G01 X62.3139 Y-49.3274
G01 X62.2936 Y-49.3202
G01 X62.2728 Y-49.3150
G01 X62.2515 Y-49.3118
G01 X62.2300 Y-49.3108
G01 X62.2085 Y-49.3118
G01 X62.1872 Y-49.3150
G01 X62.1664 Y-49.3202
G01 X62.1461 Y-49.3274
G01 X62.1267 Y-49.3366
G01 X62.1082 Y-49.3477
G01 X62.0909 Y-49.3605
G01 X62.0750 Y-49.3750
G01 X62.0605 Y-49.3909
G01 X62.0477 Y-49.4082
G01 X62.0366 Y-49.4267
G01 X62.0274 Y-49.4461
G01 X62.0202 Y-49.4664
G01 X62.0150 Y-49.4872
G01 X62.0118 Y-49.5085
G01 X62.0108 Y-49.5300
G01 X62.0118 Y-49.5515
G01 X62.0150 Y-49.5728
G01 X62.0202 Y-49.5936
G01 X62.0274 Y-49.6139
G01 X62.0366 Y-49.6333
G01 X62.0477 Y-49.6518
G01 X62.0605 Y-49.6691
G01 X62.0750 Y-49.6850
G01 X62.0909 Y-49.6995
G01 X62.1082 Y-49.7123
G01 X62.1267 Y-49.7234
G01 X62.1461 Y-49.7326
G01 X62.1664 Y-49.7398
G01 X62.1872 Y-49.7450
G01 X62.2085 Y-49.7482
G01 X62.2300 Y-49.7492
G00 Z2.0000
G00 X62.2300 Y-56.0492
G01 F60.00
G01 Z-0.3732
G01 F120.00
G01 X62.2134 Y-56.0484
G01 X62.1970 Y-56.0460
G01 X62.1809 Y-56.0420
G01 X62.1652 Y-56.0364
G01 X62.1502 Y-56.0293
G01 X62.1360 Y-56.0207
G01 X62.1226 Y-56.0108
G01 X62.1103 Y-55.9997
G01 X62.0992 Y-55.9874
G01 X62.0893 Y-55.9740
G01 X62.0807 Y-55.9598
G01 X62.0736 Y-55.9448
G01 X62.0680 Y-55.9291
G01 X62.0640 Y-55.9130
G01 X62.0616 Y-55.8966
G01 X62.0608 Y-55.8800
G01 X62.0616 Y-55.8634
G01 X62.0640 Y-55.8470
G01 X62.0680 Y-55.8309
G01 X62.0736 Y-55.8152
G01 X62.0807 Y-55.8002
G01 X62.0893 Y-55.7860
G01 X62.0992 Y-55.7726
G01 X62.1103 Y-55.7603
G01 X62.1226 Y-55.7492
G01 X62.1360 Y-55.7393
G01 X62.1502 Y-55.7307
G01 X62.1652 Y-55.7236
G01 X62.1809 Y-55.7180
G01 X62.1970 Y-55.7140
G01 X62.2134 Y-55.7116
G01 X62.2300 Y-55.7108
G01 X62.2466 Y-55.7116
G01 X62.2630 Y-55.7140
G01 X62.2791 Y-55.7180
G01 X62.2948 Y-55.7236
G01 X62.3098 Y-55.7307
G01 X62.3240 Y-55.7393
G01 X62.3374 Y-55.7492
G01 X62.3497 Y-55.7603
G01 X62.3608 Y-55.7726
G01 X62.3707 Y-55.7860
G01 X62.3793 Y-55.8002
G01 X62.3864 Y-55.8152
G01 X62.3920 Y-55.8309
G01 X62.3960 Y-55.8470
G01 X62.3984 Y-55.8634
G01 X62.3992 Y-55.8800
G01 X62.3984 Y-55.8966
G01 X62.3960 Y-55.9130
G01 X62.3920 Y-55.9291
G01 X62.3864 Y-55.9448
G01 X62.3793 Y-55.9598
G01 X62.3707 Y-55.9740
G01 X62.3608 Y-55.9874
G01 X62.3497 Y-55.9997
G01 X62.3374 Y-56.0108
G01 X62.3240 Y-56.0207
G01 X62.3098 Y-56.0293
G01 X62.2948 Y-56.0364
G01 X62.2791 Y-56.0420
G01 X62.2630 Y-56.0460
G01 X62.2466 Y-56.0484
G01 X62.2300 Y-56.0492
G01 X62.2300 Y-56.2895
G01 X62.1899 Y-56.2876
G01 X62.1501 Y-56.2817
G01 X62.1111 Y-56.2719
G01 X62.0733 Y-56.2584
G01 X62.0369 Y-56.2412
G01 X62.0025 Y-56.2205
G01 X61.9702 Y-56.1966
G01 X61.9404 Y-56.1696
G01 X61.9134 Y-56.1398
G01 X61.8895 Y-56.1075
G01 X61.8688 Y-56.0731
G01 X61.8516 Y-56.0367
G01 X61.8381 Y-55.9989
G01 X61.8283 Y-55.9599
G01 X61.8224 Y-55.9201
G01 X61.8205 Y-55.8800
G01 X61.8224 Y-55.8399
G01 X61.8283 Y-55.8001
G01 X61.8381 Y-55.7611
G01 X61.8516 Y-55.7233
G01 X61.8688 Y-55.6869
G01 X61.8895 Y-55.6525
G01 X61.9134 Y-55.6202
G01 X61.9404 Y-55.5904
G01 X61.9702 Y-55.5634
G01 X62.0025 Y-55.5395
G01 X62.0369 Y-55.5188
G01 X62.0733 Y-55.5016
G01 X62.1111 Y-55.4881
G01 X62.1501 Y-55.4783
G01 X62.1899 Y-55.4724
G01 X62.2300 Y-55.4705
G01 X62.2701 Y-55.4724
G01 X62.3099 Y-55.4783
G01 X62.3489 Y-55.4881
G01 X62.3867 Y-55.5016
G01 X62.4231 Y-55.5188
G01 X62.4575 Y-55.5395
G01 X62.4898 Y-55.5634
G01 X62.5196 Y-55.5904
G01 X62.5466 Y-55.6202
G01 X62.5705 Y-55.6525
G01 X62.5912 Y-55.6869
G01 X62.6084 Y-55.7233
G01 X62.6219 Y-55.7611
G01 X62.6317 Y-55.8001
G01 X62.6376 Y-55.8399
G01 X62.6395 Y-55.8800
G01 X62.6376 Y-55.9201
G01 X62.6317 Y-55.9599
G01 X62.6219 Y-55.9989
G01 X62.6084 Y-56.0367
G01 X62.5912 Y-56.0731
G01 X62.5705 Y-56.1075
G01 X62.5466 Y-56.1398
G01 X62.5196 Y-56.1696
G01 X62.4898 Y-56.1966
G01 X62.4575 Y-56.2205
G01 X62.4231 Y-56.2412
G01 X62.3867 Y-56.2584
G01 X62.3489 Y-56.2719
G01 X62.3099 Y-56.2817
G01 X62.2701 Y-56.2876
G01 X62.2300 Y-56.2895
G01 X62.2300 Y-56.5298
G01 X62.1663 Y-56.5267
G01 X62.1032 Y-56.5173
G01 X62.0414 Y-56.5018
G01 X61.9813 Y-56.4804
G01 X61.9237 Y-56.4531
G01 X61.8690 Y-56.4203
G01 X61.8178 Y-56.3823
G01 X61.7705 Y-56.3395
G01 X61.7277 Y-56.2922
G01 X61.6897 Y-56.2410
G01 X61.6569 Y-56.1863
G01 X61.6296 Y-56.1287
G01 X61.6082 Y-56.0686
G01 X61.5927 Y-56.0068
G01 X61.5833 Y-55.9437
G01 X61.5802 Y-55.8800
G01 X61.5833 Y-55.8163
G01 X61.5927 Y-55.7532
G01 X61.6082 Y-55.6914
G01 X61.6296 Y-55.6313
G01 X61.6569 Y-55.5737
G01 X61.6897 Y-55.5190
G01 X61.7277 Y-55.4678
G01 X61.7705 Y-55.4205
G01 X61.8178 Y-55.3777
G01 X61.8690 Y-55.3397
G01 X61.9237 Y-55.3069
G01 X61.9813 Y-55.2796
G01 X62.0414 Y-55.2582
G01 X62.1032 Y-55.2427
G01 X62.1663 Y-55.2333
G01 X62.2300 Y-55.2302
G01 X62.2937 Y-55.2333
G01 X62.3568 Y-55.2427
G01 X62.4186 Y-55.2582
G01 X62.4787 Y-55.2796
G01 X62.5363 Y-55.3069
G01 X62.5910 Y-55.3397
G01 X62.6422 Y-55.3777
G01 X62.6895 Y-55.4205
G01 X62.7323 Y-55.4678
G01 X62.7703 Y-55.5190
G01 X62.8031 Y-55.5737
G01 X62.8304 Y-55.6313
G01 X62.8518 Y-55.6914
G01 X62.8673 Y-55.7532
G01 X62.8767 Y-55.8163
G01 X62.8798 Y-55.8800
G01 X62.8767 Y-55.9437
G01 X62.8673 Y-56.0068
G01 X62.8518 Y-56.0686
G01 X62.8304 Y-56.1287
G01 X62.8031 Y-56.1863
G01 X62.7703 Y-56.2410
G01 X62.7323 Y-56.2922
G01 X62.6895 Y-56.3395
G01 X62.6422 Y-56.3823
G01 X62.5910 Y-56.4203
G01 X62.5363 Y-56.4531
G01 X62.4787 Y-56.4804
G01 X62.4186 Y-56.5018
G01 X62.3568 Y-56.5173
G01 X62.2937 Y-56.5267
G01 X62.2300 Y-56.5298
G00 Z2.0000
G00 X62.2300 Y-58.5892
G01 F60.00
G01 Z-0.3732
G01 F120.00
G01 X62.2134 Y-58.5884
G01 X62.1970 Y-58.5860
G01 X62.1809 Y-58.5820
G01 X62.1652 Y-58.5764
G01 X62.1502 Y-58.5693
G01 X62.1360 Y-58.5607
G01 X62.1226 Y-58.5508
G01 X62.1103 Y-58.5397
G01 X62.0992 Y-58.5274
G01 X62.0893 Y-58.5140
G01 X62.0807 Y-58.4998
G01 X62.0736 Y-58.4848
G01 X62.0680 Y-58.4691
G01 X62.0640 Y-58.4530
G01 X62.0616 Y-58.4366
G01 X62.0608 Y-58.4200
G01 X62.0616 Y-58.4034
G01 X62.0640 Y-58.3870
G01 X62.0680 Y-58.3709
G01 X62.0736 Y-58.3552
G01 X62.0807 Y-58.3402
G01 X62.0893 Y-58.3260
G01 X62.0992 Y-58.3126
G01 X62.1103 Y-58.3003
G01 X62.1226 Y-58.2892
G01 X62.1360 Y-58.2793
G01 X62.1502 Y-58.2707
G01 X62.1652 Y-58.2636
G01 X62.1809 Y-58.2580
G01 X62.1970 Y-58.2540
G01 X62.2134 Y-58.2516
G01 X62.2300 Y-58.2508
G01 X62.2466 Y-58.2516
G01 X62.2630 Y-58.2540
G01 X62.2791 Y-58.2580
G01 X62.2948 Y-58.2636
G01 X62.3098 Y-58.2707
G01 X62.3240 Y-58.2793
G01 X62.3374 Y-58.2892
G01 X62.3497 Y-58.3003
G01 X62.3608 Y-58.3126
G01 X62.3707 Y-58.3260
G01 X62.3793 Y-58.3402
G01 X62.3864 Y-58.3552
G01 X62.3920 Y-58.3709
G01 X62.3960 Y-58.3870
G01 X62.3984 Y-58.4034
G01 X62.3992 Y-58.4200
G01 X62.3984 Y-58.4366
G01 X62.3960 Y-58.4530
G01 X62.3920 Y-58.4691
G01 X62.3864 Y-58.4848
G01 X62.3793 Y-58.4998
G01 X62.3707 Y-58.5140
G01 X62.3608 Y-58.5274
G01 X62.3497 Y-58.5397
G01 X62.3374 Y-58.5508
G01 X62.3240 Y-58.5607
G01 X62.3098 Y-58.5693
G01 X62.2948 Y-58.5764
G01 X62.2791 Y-58.5820
G01 X62.2630 Y-58.5860
G01 X62.2466 Y-58.5884
G01 X62.2300 Y-58.5892
G01 X62.2300 Y-58.8295
G01 X62.1899 Y-58.8276
G01 X62.1501 Y-58.8217
G01 X62.1111 Y-58.8119
G01 X62.0733 Y-58.7984
G01 X62.0369 Y-58.7812
G01 X62.0025 Y-58.7605
G01 X61.9702 Y-58.7366
G01 X61.9404 Y-58.7096
G01 X61.9134 Y-58.6798
G01 X61.8895 Y-58.6475
G01 X61.8688 Y-58.6131
G01 X61.8516 Y-58.5767
G01 X61.8381 Y-58.5389
G01 X61.8283 Y-58.4999
G01 X61.8224 Y-58.4601
G01 X61.8205 Y-58.4200
G01 X61.8224 Y-58.3799
G01 X61.8283 Y-58.3401
G01 X61.8381 Y-58.3011
G01 X61.8516 Y-58.2633
G01 X61.8688 Y-58.2269
G01 X61.8895 Y-58.1925
G01 X61.9134 Y-58.1602
G01 X61.9404 Y-58.1304
G01 X61.9702 Y-58.1034
G01 X62.0025 Y-58.0795
G01 X62.0369 Y-58.0588
G01 X62.0733 Y-58.0416
G01 X62.1111 Y-58.0281
G01 X62.1501 Y-58.0183
G01 X62.1899 Y-58.0124
G01 X62.2300 Y-58.0105
G01 X62.2701 Y-58.0124
G01 X62.3099 Y-58.0183
G01 X62.3489 Y-58.0281
G01 X62.3867 Y-58.0416
G01 X62.4231 Y-58.0588
G01 X62.4575 Y-58.0795
G01 X62.4898 Y-58.1034
G01 X62.5196 Y-58.1304
G01 X62.5466 Y-58.1602
G01 X62.5705 Y-58.1925
G01 X62.5912 Y-58.2269
G01 X62.6084 Y-58.2633
G01 X62.6219 Y-58.3011
G01 X62.6317 Y-58.3401
G01 X62.6376 Y-58.3799
G01 X62.6395 Y-58.4200
G01 X62.6376 Y-58.4601
G01 X62.6317 Y-58.4999
G01 X62.6219 Y-58.5389
G01 X62.6084 Y-58.5767
G01 X62.5912 Y-58.6131
G01 X62.5705 Y-58.6475
G01 X62.5466 Y-58.6798
G01 X62.5196 Y-58.7096
G01 X62.4898 Y-58.7366
G01 X62.4575 Y-58.7605
G01 X62.4231 Y-58.7812
G01 X62.3867 Y-58.7984
G01 X62.3489 Y-58.8119
G01 X62.3099 Y-58.8217
G01 X62.2701 Y-58.8276
G01 X62.2300 Y-58.8295
G01 X62.2300 Y-59.0698
G01 X62.1663 Y-59.0667
G01 X62.1032 Y-59.0573
G01 X62.0414 Y-59.0418
G01 X61.9813 Y-59.0204
G01 X61.9237 Y-58.9931
G01 X61.8690 Y-58.9603
G01 X61.8178 Y-58.9223
G01 X61.7705 Y-58.8795
G01 X61.7277 Y-58.8322
G01 X61.6897 Y-58.7810
G01 X61.6569 Y-58.7263
G01 X61.6296 Y-58.6687
G01 X61.6082 Y-58.6086
G01 X61.5927 Y-58.5468
G01 X61.5833 Y-58.4837
G01 X61.5802 Y-58.4200
G01 X61.5833 Y-58.3563
G01 X61.5927 Y-58.2932
G01 X61.6082 Y-58.2314
G01 X61.6296 Y-58.1713
G01 X61.6569 Y-58.1137
G01 X61.6897 Y-58.0590
G01 X61.7277 Y-58.0078
G01 X61.7705 Y-57.9605
G01 X61.8178 Y-57.9177
G01 X61.8690 Y-57.8797
G01 X61.9237 Y-57.8469
G01 X61.9813 Y-57.8196
G01 X62.0414 Y-57.7982
G01 X62.1032 Y-57.7827
G01 X62.1663 Y-57.7733
G01 X62.2300 Y-57.7702
G01 X62.2937 Y-57.7733
G01 X62.3568 Y-57.7827
G01 X62.4186 Y-57.7982
G01 X62.4787 Y-57.8196
G01 X62.5363 Y-57.8469
G01 X62.5910 Y-57.8797
G01 X62.6422 Y-57.9177
G01 X62.6895 Y-57.9605
G01 X62.7323 Y-58.0078
G01 X62.7703 Y-58.0590
G01 X62.8031 Y-58.1137
G01 X62.8304 Y-58.1713
G01 X62.8518 Y-58.2314
G01 X62.8673 Y-58.2932
G01 X62.8767 Y-58.3563
G01 X62.8798 Y-58.4200
G01 X62.8767 Y-58.4837
G01 X62.8673 Y-58.5468
G01 X62.8518 Y-58.6086
G01 X62.8304 Y-58.6687
G01 X62.8031 Y-58.7263
G01 X62.7703 Y-58.7810
G01 X62.7323 Y-58.8322
G01 X62.6895 Y-58.8795
G01 X62.6422 Y-58.9223
G01 X62.5910 Y-58.9603
G01 X62.5363 Y-58.9931
G01 X62.4787 Y-59.0204
G01 X62.4186 Y-59.0418
G01 X62.3568 Y-59.0573
G01 X62.2937 Y-59.0667
G01 X62.2300 Y-59.0698
G00 Z2.0000
G00 X62.2300 Y-61.1292
G01 F60.00
G01 Z-0.3732
G01 F120.00
G01 X62.2134 Y-61.1284
G01 X62.1970 Y-61.1260
G01 X62.1809 Y-61.1220
G01 X62.1652 Y-61.1164
G01 X62.1502 Y-61.1093
G01 X62.1360 Y-61.1007
G01 X62.1226 Y-61.0908
G01 X62.1103 Y-61.0797
G01 X62.0992 Y-61.0674
G01 X62.0893 Y-61.0540
G01 X62.0807 Y-61.0398
G01 X62.0736 Y-61.0248
G01 X62.0680 Y-61.0091
G01 X62.0640 Y-60.9930
G01 X62.0616 Y-60.9766
G01 X62.0608 Y-60.9600
G01 X62.0616 Y-60.9434
G01 X62.0640 Y-60.9270
G01 X62.0680 Y-60.9109
G01 X62.0736 Y-60.8952
G01 X62.0807 Y-60.8802
G01 X62.0893 Y-60.8660
G01 X62.0992 Y-60.8526
G01 X62.1103 Y-60.8403
G01 X62.1226 Y-60.8292
G01 X62.1360 Y-60.8193
G01 X62.1502 Y-60.8107
G01 X62.1652 Y-60.8036
G01 X62.1809 Y-60.7980
G01 X62.1970 Y-60.7940
G01 X62.2134 Y-60.7916
G01 X62.2300 Y-60.7908
G01 X62.2466 Y-60.7916
G01 X62.2630 Y-60.7940
G01 X62.2791 Y-60.7980
G01 X62.2948 Y-60.8036
G01 X62.3098 Y-60.8107
G01 X62.3240 Y-60.8193
G01 X62.3374 Y-60.8292
G01 X62.3497 Y-60.8403
G01 X62.3608 Y-60.8526
G01 X62.3707 Y-60.8660
G01 X62.3793 Y-60.8802
G01 X62.3864 Y-60.8952
G01 X62.3920 Y-60.9109
G01 X62.3960 Y-60.9270
G01 X62.3984 Y-60.9434
G01 X62.3992 Y-60.9600
G01 X62.3984 Y-60.9766
G01 X62.3960 Y-60.9930
G01 X62.3920 Y-61.0091
G01 X62.3864 Y-61.0248
G01 X62.3793 Y-61.0398
G01 X62.3707 Y-61.0540
G01 X62.3608 Y-61.0674
G01 X62.3497 Y-61.0797
G01 X62.3374 Y-61.0908
G01 X62.3240 Y-61.1007
G01 X62.3098 Y-61.1093
G01 X62.2948 Y-61.1164
G01 X62.2791 Y-61.1220
G01 X62.2630 Y-61.1260
G01 X62.2466 Y-61.1284
G01 X62.2300 Y-61.1292
G01 X62.2300 Y-61.3695
G01 X62.1899 Y-61.3676
G01 X62.1501 Y-61.3617
G01 X62.1111 Y-61.3519
G01 X62.0733 Y-61.3384
G01 X62.0369 Y-61.3212
G01 X62.0025 Y-61.3005
G01 X61.9702 Y-61.2766
G01 X61.9404 Y-61.2496
G01 X61.9134 Y-61.2198
G01 X61.8895 Y-61.1875
G01 X61.8688 Y-61.1531
G01 X61.8516 Y-61.1167
G01 X61.8381 Y-61.0789
G01 X61.8283 Y-61.0399
G01 X61.8224 Y-61.0001
G01 X61.8205 Y-60.9600
G01 X61.8224 Y-60.9199
G01 X61.8283 Y-60.8801
G01 X61.8381 Y-60.8411
G01 X61.8516 Y-60.8033
G01 X61.8688 Y-60.7669
G01 X61.8895 Y-60.7325
G01 X61.9134 Y-60.7002
G01 X61.9404 Y-60.6704
G01 X61.9702 Y-60.6434
G01 X62.0025 Y-60.6195
G01 X62.0369 Y-60.5988
G01 X62.0733 Y-60.5816
G01 X62.1111 Y-60.5681
G01 X62.1501 Y-60.5583
G01 X62.1899 Y-60.5524
G01 X62.2300 Y-60.5505
G01 X62.2701 Y-60.5524
G01 X62.3099 Y-60.5583
G01 X62.3489 Y-60.5681
G01 X62.3867 Y-60.5816
G01 X62.4231 Y-60.5988
G01 X62.4575 Y-60.6195
G01 X62.4898 Y-60.6434
G01 X62.5196 Y-60.6704
G01 X62.5466 Y-60.7002
G01 X62.5705 Y-60.7325
G01 X62.5912 Y-60.7669
G01 X62.6084 Y-60.8033
G01 X62.6219 Y-60.8411
G01 X62.6317 Y-60.8801
G01 X62.6376 Y-60.9199
G01 X62.6395 Y-60.9600
G01 X62.6376 Y-61.0001
G01 X62.6317 Y-61.0399
G01 X62.6219 Y-61.0789
G01 X62.6084 Y-61.1167
G01 X62.5912 Y-61.1531
G01 X62.5705 Y-61.1875
G01 X62.5466 Y-61.2198
G01 X62.5196 Y-61.2496
G01 X62.4898 Y-61.2766
G01 X62.4575 Y-61.3005
G01 X62.4231 Y-61.3212
G01 X62.3867 Y-61.3384
G01 X62.3489 Y-61.3519
G01 X62.3099 Y-61.3617
G01 X62.2701 Y-61.3676
G01 X62.2300 Y-61.3695
G01 X62.2300 Y-61.6098
G01 X62.1663 Y-61.6067
G01 X62.1032 Y-61.5973
G01 X62.0414 Y-61.5818
G01 X61.9813 Y-61.5604
G01 X61.9237 Y-61.5331
G01 X61.8690 Y-61.5003
G01 X61.8178 Y-61.4623
G01 X61.7705 Y-61.4195
G01 X61.7277 Y-61.3722
G01 X61.6897 Y-61.3210
G01 X61.6569 Y-61.2663
G01 X61.6296 Y-61.2087
G01 X61.6082 Y-61.1486
G01 X61.5927 Y-61.0868
G01 X61.5833 Y-61.0237
G01 X61.5802 Y-60.9600
G01 X61.5833 Y-60.8963
G01 X61.5927 Y-60.8332
G01 X61.6082 Y-60.7714
G01 X61.6296 Y-60.7113
G01 X61.6569 Y-60.6537
G01 X61.6897 Y-60.5990
G01 X61.7277 Y-60.5478
G01 X61.7705 Y-60.5005
G01 X61.8178 Y-60.4577
G01 X61.8690 Y-60.4197
G01 X61.9237 Y-60.3869
G01 X61.9813 Y-60.3596
G01 X62.0414 Y-60.3382
G01 X62.1032 Y-60.3227
G01 X62.1663 Y-60.3133
G01 X62.2300 Y-60.3102
G01 X62.2937 Y-60.3133
G01 X62.3568 Y-60.3227
G01 X62.4186 Y-60.3382
G01 X62.4787 Y-60.3596
G01 X62.5363 Y-60.3869
G01 X62.5910 Y-60.4197
G01 X62.6422 Y-60.4577
G01 X62.6895 Y-60.5005
G01 X62.7323 Y-60.5478
G01 X62.7703 Y-60.5990
G01 X62.8031 Y-60.6537
G01 X62.8304 Y-60.7113
G01 X62.8518 Y-60.7714
G01 X62.8673 Y-60.8332
G01 X62.8767 Y-60.8963
G01 X62.8798 Y-60.9600
G01 X62.8767 Y-61.0237
G01 X62.8673 Y-61.0868
G01 X62.8518 Y-61.1486
G01 X62.8304 Y-61.2087
G01 X62.8031 Y-61.2663
G01 X62.7703 Y-61.3210
G01 X62.7323 Y-61.3722
G01 X62.6895 Y-61.4195
G01 X62.6422 Y-61.4623
G01 X62.5910 Y-61.5003
G01 X62.5363 Y-61.5331
G01 X62.4787 Y-61.5604
G01 X62.4186 Y-61.5818
G01 X62.3568 Y-61.5973
G01 X62.2937 Y-61.6067
G01 X62.2300 Y-61.6098
G00 Z2.0000
G00 X62.2300 Y-63.6692
G01 F60.00
G01 Z-0.3732
G01 F120.00
G01 X62.2134 Y-63.6684
G01 X62.1970 Y-63.6660
G01 X62.1809 Y-63.6620
G01 X62.1652 Y-63.6564
G01 X62.1502 Y-63.6493
G01 X62.1360 Y-63.6407
G01 X62.1226 Y-63.6308
G01 X62.1103 Y-63.6197
G01 X62.0992 Y-63.6074
G01 X62.0893 Y-63.5940
G01 X62.0807 Y-63.5798
G01 X62.0736 Y-63.5648
G01 X62.0680 Y-63.5491
G01 X62.0640 Y-63.5330
G01 X62.0616 Y-63.5166
G01 X62.0608 Y-63.5000
G01 X62.0616 Y-63.4834
G01 X62.0640 Y-63.4670
G01 X62.0680 Y-63.4509
G01 X62.0736 Y-63.4352
G01 X62.0807 Y-63.4202
G01 X62.0893 Y-63.4060
G01 X62.0992 Y-63.3926
G01 X62.1103 Y-63.3803
G01 X62.1226 Y-63.3692
G01 X62.1360 Y-63.3593
G01 X62.1502 Y-63.3507
G01 X62.1652 Y-63.3436
G01 X62.1809 Y-63.3380
G01 X62.1970 Y-63.3340
G01 X62.2134 Y-63.3316
G01 X62.2300 Y-63.3308
G01 X62.2466 Y-63.3316
G01 X62.2630 Y-63.3340
G01 X62.2791 Y-63.3380
G01 X62.2948 Y-63.3436
G01 X62.3098 Y-63.3507
G01 X62.3240 Y-63.3593
G01 X62.3374 Y-63.3692
G01 X62.3497 Y-63.3803
G01 X62.3608 Y-63.3926
G01 X62.3707 Y-63.4060
G01 X62.3793 Y-63.4202
G01 X62.3864 Y-63.4352
G01 X62.3920 Y-63.4509
G01 X62.3960 Y-63.4670
G01 X62.3984 Y-63.4834
G01 X62.3992 Y-63.5000
G01 X62.3984 Y-63.5166
G01 X62.3960 Y-63.5330
G01 X62.3920 Y-63.5491
G01 X62.3864 Y-63.5648
G01 X62.3793 Y-63.5798
G01 X62.3707 Y-63.5940
G01 X62.3608 Y-63.6074
G01 X62.3497 Y-63.6197
G01 X62.3374 Y-63.6308
G01 X62.3240 Y-63.6407
G01 X62.3098 Y-63.6493
G01 X62.2948 Y-63.6564
G01 X62.2791 Y-63.6620
G01 X62.2630 Y-63.6660
G01 X62.2466 Y-63.6684
G01 X62.2300 Y-63.6692
G01 X62.2300 Y-63.9095
G01 X62.1899 Y-63.9076
G01 X62.1501 Y-63.9017
G01 X62.1111 Y-63.8919
G01 X62.0733 Y-63.8784
G01 X62.0369 Y-63.8612
G01 X62.0025 Y-63.8405
G01 X61.9702 Y-63.8166
G01 X61.9404 Y-63.7896
G01 X61.9134 Y-63.7598
G01 X61.8895 Y-63.7275
G01 X61.8688 Y-63.6931
G01 X61.8516 Y-63.6567
G01 X61.8381 Y-63.6189
G01 X61.8283 Y-63.5799
G01 X61.8224 Y-63.5401
G01 X61.8205 Y-63.5000
G01 X61.8224 Y-63.4599
G01 X61.8283 Y-63.4201
G01 X61.8381 Y-63.3811
G01 X61.8516 Y-63.3433
G01 X61.8688 Y-63.3069
G01 X61.8895 Y-63.2725
G01 X61.9134 Y-63.2402
G01 X61.9404 Y-63.2104
G01 X61.9702 Y-63.1834
G01 X62.0025 Y-63.1595
G01 X62.0369 Y-63.1388
G01 X62.0733 Y-63.1216
G01 X62.1111 Y-63.1081
G01 X62.1501 Y-63.0983
G01 X62.1899 Y-63.0924
G01 X62.2300 Y-63.0905
G01 X62.2701 Y-63.0924
G01 X62.3099 Y-63.0983
G01 X62.3489 Y-63.1081
G01 X62.3867 Y-63.1216
G01 X62.4231 Y-63.1388
G01 X62.4575 Y-63.1595
G01 X62.4898 Y-63.1834
G01 X62.5196 Y-63.2104
G01 X62.5466 Y-63.2402
G01 X62.5705 Y-63.2725
G01 X62.5912 Y-63.3069
G01 X62.6084 Y-63.3433
G01 X62.6219 Y-63.3811
G01 X62.6317 Y-63.4201
G01 X62.6376 Y-63.4599
G01 X62.6395 Y-63.5000
G01 X62.6376 Y-63.5401
G01 X62.6317 Y-63.5799
G01 X62.6219 Y-63.6189
G01 X62.6084 Y-63.6567
G01 X62.5912 Y-63.6931
G01 X62.5705 Y-63.7275
G01 X62.5466 Y-63.7598
G01 X62.5196 Y-63.7896
G01 X62.4898 Y-63.8166
G01 X62.4575 Y-63.8405
G01 X62.4231 Y-63.8612
G01 X62.3867 Y-63.8784
G01 X62.3489 Y-63.8919
G01 X62.3099 Y-63.9017
G01 X62.2701 Y-63.9076
G01 X62.2300 Y-63.9095
G01 X62.2300 Y-64.1498
G01 X62.1663 Y-64.1467
G01 X62.1032 Y-64.1373
G01 X62.0414 Y-64.1218
G01 X61.9813 Y-64.1004
G01 X61.9237 Y-64.0731
G01 X61.8690 Y-64.0403
G01 X61.8178 Y-64.0023
G01 X61.7705 Y-63.9595
G01 X61.7277 Y-63.9122
G01 X61.6897 Y-63.8610
G01 X61.6569 Y-63.8063
G01 X61.6296 Y-63.7487
G01 X61.6082 Y-63.6886
G01 X61.5927 Y-63.6268
G01 X61.5833 Y-63.5637
G01 X61.5802 Y-63.5000
G01 X61.5833 Y-63.4363
G01 X61.5927 Y-63.3732
G01 X61.6082 Y-63.3114
G01 X61.6296 Y-63.2513
G01 X61.6569 Y-63.1937
G01 X61.6897 Y-63.1390
G01 X61.7277 Y-63.0878
G01 X61.7705 Y-63.0405
G01 X61.8178 Y-62.9977
G01 X61.8690 Y-62.9597
G01 X61.9237 Y-62.9269
G01 X61.9813 Y-62.8996
G01 X62.0414 Y-62.8782
G01 X62.1032 Y-62.8627
G01 X62.1663 Y-62.8533
G01 X62.2300 Y-62.8502
G01 X62.2937 Y-62.8533
G01 X62.3568 Y-62.8627
G01 X62.4186 Y-62.8782
G01 X62.4787 Y-62.8996
G01 X62.5363 Y-62.9269
G01 X62.5910 Y-62.9597
G01 X62.6422 Y-62.9977
G01 X62.6895 Y-63.0405
G01 X62.7323 Y-63.0878
G01 X62.7703 Y-63.1390
G01 X62.8031 Y-63.1937
G01 X62.8304 Y-63.2513
G01 X62.8518 Y-63.3114
G01 X62.8673 Y-63.3732
G01 X62.8767 Y-63.4363
G01 X62.8798 Y-63.5000
G01 X62.8767 Y-63.5637
G01 X62.8673 Y-63.6268
G01 X62.8518 Y-63.6886
G01 X62.8304 Y-63.7487
G01 X62.8031 Y-63.8063
G01 X62.7703 Y-63.8610
G01 X62.7323 Y-63.9122
G01 X62.6895 Y-63.9595
G01 X62.6422 Y-64.0023
G01 X62.5910 Y-64.0403
G01 X62.5363 Y-64.0731
G01 X62.4787 Y-64.1004
G01 X62.4186 Y-64.1218
G01 X62.3568 Y-64.1373
G01 X62.2937 Y-64.1467
G01 X62.2300 Y-64.1498
G00 Z2.0000
G00 X66.6600 Y-63.5150
G01 F60.00
G01 Z-0.3732
G01 F120.00
G01 X66.6600 Y-62.2150
G01 X67.9600 Y-62.2150
G01 X67.9600 Y-63.5150
G01 X66.6600 Y-63.5150
G01 X66.9000 Y-63.2750
G01 X66.9000 Y-62.4550
G01 X67.7200 Y-62.4550
G01 X67.7200 Y-63.2750
G01 X66.9000 Y-63.2750
G01 X67.1400 Y-63.0350
G01 X67.1400 Y-62.6950
G01 X67.4800 Y-62.6950
G01 X67.4800 Y-63.0350
G01 X67.1400 Y-63.0350
G00 Z2.0000
G00 X67.4792 Y-60.3650
G01 F60.00
G01 Z-0.3732
G01 F120.00
G01 X67.4784 Y-60.3816
G01 X67.4760 Y-60.3980
G01 X67.4720 Y-60.4141
G01 X67.4664 Y-60.4298
G01 X67.4593 Y-60.4448
G01 X67.4507 Y-60.4590
G01 X67.4408 Y-60.4724
G01 X67.4297 Y-60.4847
G01 X67.4174 Y-60.4958
G01 X67.4040 Y-60.5057
G01 X67.3898 Y-60.5143
G01 X67.3748 Y-60.5214
G01 X67.3591 Y-60.5270
G01 X67.3430 Y-60.5310
G01 X67.3266 Y-60.5334
G01 X67.3100 Y-60.5342
G01 X67.2934 Y-60.5334
G01 X67.2770 Y-60.5310
G01 X67.2609 Y-60.5270
G01 X67.2452 Y-60.5214
G01 X67.2302 Y-60.5143
G01 X67.2160 Y-60.5057
G01 X67.2026 Y-60.4958
G01 X67.1903 Y-60.4847
G01 X67.1792 Y-60.4724
G01 X67.1693 Y-60.4590
G01 X67.1607 Y-60.4448
G01 X67.1536 Y-60.4298
G01 X67.1480 Y-60.4141
G01 X67.1440 Y-60.3980
G01 X67.1416 Y-60.3816
G01 X67.1408 Y-60.3650
G01 X67.1416 Y-60.3484
G01 X67.1440 Y-60.3320
G01 X67.1480 Y-60.3159
G01 X67.1536 Y-60.3002
G01 X67.1607 Y-60.2852
G01 X67.1693 Y-60.2710
G01 X67.1792 Y-60.2576
G01 X67.1903 Y-60.2453
G01 X67.2026 Y-60.2342
G01 X67.2160 Y-60.2243
G01 X67.2302 Y-60.2157
G01 X67.2452 Y-60.2086
G01 X67.2609 Y-60.2030
G01 X67.2770 Y-60.1990
G01 X67.2934 Y-60.1966
G01 X67.3100 Y-60.1958
G01 X67.3266 Y-60.1966
G01 X67.3430 Y-60.1990
G01 X67.3591 Y-60.2030
G01 X67.3748 Y-60.2086
G01 X67.3898 Y-60.2157
G01 X67.4040 Y-60.2243
G01 X67.4174 Y-60.2342
G01 X67.4297 Y-60.2453
G01 X67.4408 Y-60.2576
G01 X67.4507 Y-60.2710
G01 X67.4593 Y-60.2852
G01 X67.4664 Y-60.3002
G01 X67.4720 Y-60.3159
G01 X67.4760 Y-60.3320
G01 X67.4784 Y-60.3484
G01 X67.4792 Y-60.3650
G01 X67.7195 Y-60.3650
G01 X67.7176 Y-60.4051
G01 X67.7117 Y-60.4449
G01 X67.7019 Y-60.4839
G01 X67.6884 Y-60.5217
G01 X67.6712 Y-60.5581
G01 X67.6505 Y-60.5925
G01 X67.6266 Y-60.6248
G01 X67.5996 Y-60.6546
G01 X67.5698 Y-60.6816
G01 X67.5375 Y-60.7055
G01 X67.5031 Y-60.7262
G01 X67.4667 Y-60.7434
G01 X67.4289 Y-60.7569
G01 X67.3899 Y-60.7667
G01 X67.3501 Y-60.7726
G01 X67.3100 Y-60.7745
G01 X67.2699 Y-60.7726
G01 X67.2301 Y-60.7667
G01 X67.1911 Y-60.7569
G01 X67.1533 Y-60.7434
G01 X67.1169 Y-60.7262
G01 X67.0825 Y-60.7055
G01 X67.0502 Y-60.6816
G01 X67.0204 Y-60.6546
G01 X66.9934 Y-60.6248
G01 X66.9695 Y-60.5925
G01 X66.9488 Y-60.5581
G01 X66.9316 Y-60.5217
G01 X66.9181 Y-60.4839
G01 X66.9083 Y-60.4449
G01 X66.9024 Y-60.4051
G01 X66.9005 Y-60.3650
G01 X66.9024 Y-60.3249
G01 X66.9083 Y-60.2851
G01 X66.9181 Y-60.2461
G01 X66.9316 Y-60.2083
G01 X66.9488 Y-60.1719
G01 X66.9695 Y-60.1375
G01 X66.9934 Y-60.1052
G01 X67.0204 Y-60.0754
G01 X67.0502 Y-60.0484
G01 X67.0825 Y-60.0245
G01 X67.1169 Y-60.0038
G01 X67.1533 Y-59.9866
G01 X67.1911 Y-59.9731
G01 X67.2301 Y-59.9633
G01 X67.2699 Y-59.9574
G01 X67.3100 Y-59.9555
G01 X67.3501 Y-59.9574
G01 X67.3899 Y-59.9633
G01 X67.4289 Y-59.9731
G01 X67.4667 Y-59.9866
G01 X67.5031 Y-60.0038
G01 X67.5375 Y-60.0245
G01 X67.5698 Y-60.0484
G01 X67.5996 Y-60.0754
G01 X67.6266 Y-60.1052
G01 X67.6505 Y-60.1375
G01 X67.6712 Y-60.1719
G01 X67.6884 Y-60.2083
G01 X67.7019 Y-60.2461
G01 X67.7117 Y-60.2851
G01 X67.7176 Y-60.3249
G01 X67.7195 Y-60.3650
G01 X67.9598 Y-60.3650
G01 X67.9567 Y-60.4287
G01 X67.9473 Y-60.4918
G01 X67.9318 Y-60.5536
G01 X67.9104 Y-60.6137
G01 X67.8831 Y-60.6713
G01 X67.8503 Y-60.7260
G01 X67.8123 Y-60.7772
G01 X67.7695 Y-60.8245
G01 X67.7222 Y-60.8673
G01 X67.6710 Y-60.9053
G01 X67.6163 Y-60.9381
G01 X67.5587 Y-60.9654
G01 X67.4986 Y-60.9868
G01 X67.4368 Y-61.0023
G01 X67.3737 Y-61.0117
G01 X67.3100 Y-61.0148
G01 X67.2463 Y-61.0117
G01 X67.1832 Y-61.0023
G01 X67.1214 Y-60.9868
G01 X67.0613 Y-60.9654
G01 X67.0037 Y-60.9381
G01 X66.9490 Y-60.9053
G01 X66.8978 Y-60.8673
G01 X66.8505 Y-60.8245
G01 X66.8077 Y-60.7772
G01 X66.7697 Y-60.7260
G01 X66.7369 Y-60.6713
G01 X66.7096 Y-60.6137
G01 X66.6882 Y-60.5536
G01 X66.6727 Y-60.4918
G01 X66.6633 Y-60.4287
G01 X66.6602 Y-60.3650
G01 X66.6633 Y-60.3013
G01 X66.6727 Y-60.2382
G01 X66.6882 Y-60.1764
G01 X66.7096 Y-60.1163
G01 X66.7369 Y-60.0587
G01 X66.7697 Y-60.0040
G01 X66.8077 Y-59.9528
G01 X66.8505 Y-59.9055
G01 X66.8978 Y-59.8627
G01 X66.9490 Y-59.8247
G01 X67.0037 Y-59.7919
G01 X67.0613 Y-59.7646
G01 X67.1214 Y-59.7432
G01 X67.1832 Y-59.7277
G01 X67.2463 Y-59.7183
G01 X67.3100 Y-59.7152
G01 X67.3737 Y-59.7183
G01 X67.4368 Y-59.7277
G01 X67.4986 Y-59.7432
G01 X67.5587 Y-59.7646
G01 X67.6163 Y-59.7919
G01 X67.6710 Y-59.8247
G01 X67.7222 Y-59.8627
G01 X67.7695 Y-59.9055
G01 X67.8123 Y-59.9528
G01 X67.8503 Y-60.0040
G01 X67.8831 Y-60.0587
G01 X67.9104 Y-60.1163
G01 X67.9318 Y-60.1764
G01 X67.9473 Y-60.2382
G01 X67.9567 Y-60.3013
G01 X67.9598 Y-60.3650
G00 Z2.0000
G00 X66.6600 Y-57.8000
G01 F60.00
G01 Z-0.3732
G01 F120.00
G01 X66.6600 Y-56.5000
G01 X67.9600 Y-56.5000
G01 X67.9600 Y-57.8000
G01 X66.6600 Y-57.8000
G01 X66.9000 Y-57.5600
G01 X66.9000 Y-56.7400
G01 X67.7200 Y-56.7400
G01 X67.7200 Y-57.5600
G01 X66.9000 Y-57.5600
G01 X67.1400 Y-57.3200
G01 X67.1400 Y-56.9800
G01 X67.4800 Y-56.9800
G01 X67.4800 Y-57.3200
G01 X67.1400 Y-57.3200
G00 Z2.0000
G00 X67.4792 Y-54.6500
G01 F60.00
G01 Z-0.3732
G01 F120.00
G01 X67.4784 Y-54.6666
G01 X67.4760 Y-54.6830
G01 X67.4720 Y-54.6991
G01 X67.4664 Y-54.7148
G01 X67.4593 Y-54.7298
G01 X67.4507 Y-54.7440
G01 X67.4408 Y-54.7574
G01 X67.4297 Y-54.7697
G01 X67.4174 Y-54.7808
G01 X67.4040 Y-54.7907
G01 X67.3898 Y-54.7993
G01 X67.3748 Y-54.8064
G01 X67.3591 Y-54.8120
G01 X67.3430 Y-54.8160
G01 X67.3266 Y-54.8184
G01 X67.3100 Y-54.8192
G01 X67.2934 Y-54.8184
G01 X67.2770 Y-54.8160
G01 X67.2609 Y-54.8120
G01 X67.2452 Y-54.8064
G01 X67.2302 Y-54.7993
G01 X67.2160 Y-54.7907
G01 X67.2026 Y-54.7808
G01 X67.1903 Y-54.7697
G01 X67.1792 Y-54.7574
G01 X67.1693 Y-54.7440
G01 X67.1607 Y-54.7298
G01 X67.1536 Y-54.7148
G01 X67.1480 Y-54.6991
G01 X67.1440 Y-54.6830
G01 X67.1416 Y-54.6666
G01 X67.1408 Y-54.6500
G01 X67.1416 Y-54.6334
G01 X67.1440 Y-54.6170
G01 X67.1480 Y-54.6009
G01 X67.1536 Y-54.5852
G01 X67.1607 Y-54.5702
G01 X67.1693 Y-54.5560
G01 X67.1792 Y-54.5426
G01 X67.1903 Y-54.5303
G01 X67.2026 Y-54.5192
G01 X67.2160 Y-54.5093
G01 X67.2302 Y-54.5007
G01 X67.2452 Y-54.4936
G01 X67.2609 Y-54.4880
G01 X67.2770 Y-54.4840
G01 X67.2934 Y-54.4816
G01 X67.3100 Y-54.4808
G01 X67.3266 Y-54.4816
G01 X67.3430 Y-54.4840
G01 X67.3591 Y-54.4880
G01 X67.3748 Y-54.4936
G01 X67.3898 Y-54.5007
G01 X67.4040 Y-54.5093
G01 X67.4174 Y-54.5192
G01 X67.4297 Y-54.5303
G01 X67.4408 Y-54.5426
G01 X67.4507 Y-54.5560
G01 X67.4593 Y-54.5702
G01 X67.4664 Y-54.5852
G01 X67.4720 Y-54.6009
G01 X67.4760 Y-54.6170
G01 X67.4784 Y-54.6334
G01 X67.4792 Y-54.6500
G01 X67.7195 Y-54.6500
G01 X67.7176 Y-54.6901
G01 X67.7117 Y-54.7299
G01 X67.7019 Y-54.7689
G01 X67.6884 Y-54.8067
G01 X67.6712 Y-54.8431
G01 X67.6505 Y-54.8775
G01 X67.6266 Y-54.9098
G01 X67.5996 Y-54.9396
G01 X67.5698 Y-54.9666
G01 X67.5375 Y-54.9905
G01 X67.5031 Y-55.0112
G01 X67.4667 Y-55.0284
G01 X67.4289 Y-55.0419
G01 X67.3899 Y-55.0517
G01 X67.3501 Y-55.0576
G01 X67.3100 Y-55.0595
G01 X67.2699 Y-55.0576
G01 X67.2301 Y-55.0517
G01 X67.1911 Y-55.0419
G01 X67.1533 Y-55.0284
G01 X67.1169 Y-55.0112
G01 X67.0825 Y-54.9905
G01 X67.0502 Y-54.9666
G01 X67.0204 Y-54.9396
G01 X66.9934 Y-54.9098
G01 X66.9695 Y-54.8775
G01 X66.9488 Y-54.8431
G01 X66.9316 Y-54.8067
G01 X66.9181 Y-54.7689
G01 X66.9083 Y-54.7299
G01 X66.9024 Y-54.6901
G01 X66.9005 Y-54.6500
G01 X66.9024 Y-54.6099
G01 X66.9083 Y-54.5701
G01 X66.9181 Y-54.5311
G01 X66.9316 Y-54.4933
G01 X66.9488 Y-54.4569
G01 X66.9695 Y-54.4225
G01 X66.9934 Y-54.3902
G01 X67.0204 Y-54.3604
G01 X67.0502 Y-54.3334
G01 X67.0825 Y-54.3095
G01 X67.1169 Y-54.2888
G01 X67.1533 Y-54.2716
G01 X67.1911 Y-54.2581
G01 X67.2301 Y-54.2483
G01 X67.2699 Y-54.2424
G01 X67.3100 Y-54.2405
G01 X67.3501 Y-54.2424
G01 X67.3899 Y-54.2483
G01 X67.4289 Y-54.2581
G01 X67.4667 Y-54.2716
G01 X67.5031 Y-54.2888
G01 X67.5375 Y-54.3095
G01 X67.5698 Y-54.3334
G01 X67.5996 Y-54.3604
G01 X67.6266 Y-54.3902
G01 X67.6505 Y-54.4225
G01 X67.6712 Y-54.4569
G01 X67.6884 Y-54.4933
G01 X67.7019 Y-54.5311
G01 X67.7117 Y-54.5701
G01 X67.7176 Y-54.6099
G01 X67.7195 Y-54.6500
G01 X67.9598 Y-54.6500
G01 X67.9567 Y-54.7137
G01 X67.9473 Y-54.7768
G01 X67.9318 Y-54.8386
G01 X67.9104 Y-54.8987
G01 X67.8831 Y-54.9563
G01 X67.8503 Y-55.0110
G01 X67.8123 Y-55.0622
G01 X67.7695 Y-55.1095
G01 X67.7222 Y-55.1523
G01 X67.6710 Y-55.1903
G01 X67.6163 Y-55.2231
G01 X67.5587 Y-55.2504
G01 X67.4986 Y-55.2718
G01 X67.4368 Y-55.2873
G01 X67.3737 Y-55.2967
G01 X67.3100 Y-55.2998
G01 X67.2463 Y-55.2967
G01 X67.1832 Y-55.2873
G01 X67.1214 Y-55.2718
G01 X67.0613 Y-55.2504
G01 X67.0037 Y-55.2231
G01 X66.9490 Y-55.1903
G01 X66.8978 Y-55.1523
G01 X66.8505 Y-55.1095
G01 X66.8077 Y-55.0622
G01 X66.7697 Y-55.0110
G01 X66.7369 Y-54.9563
G01 X66.7096 Y-54.8987
G01 X66.6882 Y-54.8386
G01 X66.6727 Y-54.7768
G01 X66.6633 Y-54.7137
G01 X66.6602 Y-54.6500
G01 X66.6633 Y-54.5863
G01 X66.6727 Y-54.5232
G01 X66.6882 Y-54.4614
G01 X66.7096 Y-54.4013
G01 X66.7369 Y-54.3437
G01 X66.7697 Y-54.2890
G01 X66.8077 Y-54.2378
G01 X66.8505 Y-54.1905
G01 X66.8978 Y-54.1477
G01 X66.9490 Y-54.1097
G01 X67.0037 Y-54.0769
G01 X67.0613 Y-54.0496
G01 X67.1214 Y-54.0282
G01 X67.1832 Y-54.0127
G01 X67.2463 Y-54.0033
G01 X67.3100 Y-54.0002
G01 X67.3737 Y-54.0033
G01 X67.4368 Y-54.0127
G01 X67.4986 Y-54.0282
G01 X67.5587 Y-54.0496
G01 X67.6163 Y-54.0769
G01 X67.6710 Y-54.1097
G01 X67.7222 Y-54.1477
G01 X67.7695 Y-54.1905
G01 X67.8123 Y-54.2378
G01 X67.8503 Y-54.2890
G01 X67.8831 Y-54.3437
G01 X67.9104 Y-54.4013
G01 X67.9318 Y-54.4614
G01 X67.9473 Y-54.5232
G01 X67.9567 Y-54.5863
G01 X67.9598 Y-54.6500
G00 Z2.0000
G00 X69.1500 Y-50.2300
G01 F60.00
G01 Z-0.3732
G01 F120.00
G01 X69.1500 Y-48.8300
G01 X70.5500 Y-48.8300
G01 X70.5500 Y-50.2300
G01 X69.1500 Y-50.2300
G01 X69.3900 Y-49.9900
G01 X69.3900 Y-49.0700
G01 X70.3100 Y-49.0700
G01 X70.3100 Y-49.9900
G01 X69.3900 Y-49.9900
G01 X69.6300 Y-49.7500
G01 X69.6300 Y-49.3100
G01 X70.0700 Y-49.3100
G01 X70.0700 Y-49.7500
G01 X69.6300 Y-49.7500
G00 Z2.0000
G00 X72.3900 Y-49.7492
G01 F60.00
G01 Z-0.3732
G01 F120.00
G01 X72.3685 Y-49.7482
G01 X72.3472 Y-49.7450
G01 X72.3264 Y-49.7398
G01 X72.3061 Y-49.7326
G01 X72.2867 Y-49.7234
G01 X72.2682 Y-49.7123
G01 X72.2509 Y-49.6995
G01 X72.2350 Y-49.6850
G01 X72.2205 Y-49.6691
G01 X72.2077 Y-49.6518
G01 X72.1966 Y-49.6333
G01 X72.1874 Y-49.6139
G01 X72.1802 Y-49.5936
G01 X72.1750 Y-49.5728
G01 X72.1718 Y-49.5515
G01 X72.1708 Y-49.5300
G01 X72.1718 Y-49.5085
G01 X72.1750 Y-49.4872
G01 X72.1802 Y-49.4664
G01 X72.1874 Y-49.4461
G01 X72.1966 Y-49.4267
G01 X72.2077 Y-49.4082
G01 X72.2205 Y-49.3909
G01 X72.2350 Y-49.3750
G01 X72.2509 Y-49.3605
G01 X72.2682 Y-49.3477
G01 X72.2867 Y-49.3366
G01 X72.3061 Y-49.3274
G01 X72.3264 Y-49.3202
G01 X72.3472 Y-49.3150
G01 X72.3685 Y-49.3118
G01 X72.3900 Y-49.3108
G01 X72.4115 Y-49.3118
G01 X72.4328 Y-49.3150
G01 X72.4536 Y-49.3202
G01 X72.4739 Y-49.3274
G01 X72.4933 Y-49.3366
G01 X72.5118 Y-49.3477
G01 X72.5291 Y-49.3605
G01 X72.5450 Y-49.3750
G01 X72.5595 Y-49.3909
G01 X72.5723 Y-49.4082
G01 X72.5834 Y-49.4267
G01 X72.5926 Y-49.4461
G01 X72.5998 Y-49.4664
G01 X72.6050 Y-49.4872
G01 X72.6082 Y-49.5085
G01 X72.6092 Y-49.5300
G01 X72.6082 Y-49.5515
G01 X72.6050 Y-49.5728
G01 X72.5998 Y-49.5936
G01 X72.5926 Y-49.6139
G01 X72.5834 Y-49.6333
G01 X72.5723 Y-49.6518
G01 X72.5595 Y-49.6691
G01 X72.5450 Y-49.6850
G01 X72.5291 Y-49.6995
G01 X72.5118 Y-49.7123
G01 X72.4933 Y-49.7234
G01 X72.4739 Y-49.7326
G01 X72.4536 Y-49.7398
G01 X72.4328 Y-49.7450
G01 X72.4115 Y-49.7482
G01 X72.3900 Y-49.7492
G01 X72.3900 Y-49.9895
G01 X72.3450 Y-49.9873
G01 X72.3004 Y-49.9807
G01 X72.2566 Y-49.9697
G01 X72.2141 Y-49.9545
G01 X72.1734 Y-49.9353
G01 X72.1347 Y-49.9121
G01 X72.0985 Y-49.8852
G01 X72.0651 Y-49.8549
G01 X72.0348 Y-49.8215
G01 X72.0079 Y-49.7853
G01 X71.9847 Y-49.7466
G01 X71.9655 Y-49.7059
G01 X71.9503 Y-49.6634
G01 X71.9393 Y-49.6196
G01 X71.9327 Y-49.5750
G01 X71.9305 Y-49.5300
G01 X71.9327 Y-49.4850
G01 X71.9393 Y-49.4404
G01 X71.9503 Y-49.3966
G01 X71.9655 Y-49.3541
G01 X71.9847 Y-49.3134
G01 X72.0079 Y-49.2747
G01 X72.0348 Y-49.2385
G01 X72.0651 Y-49.2051
G01 X72.0985 Y-49.1748
G01 X72.1347 Y-49.1479
G01 X72.1734 Y-49.1247
G01 X72.2141 Y-49.1055
G01 X72.2566 Y-49.0903
G01 X72.3004 Y-49.0793
G01 X72.3450 Y-49.0727
G01 X72.3900 Y-49.0705
G01 X72.4350 Y-49.0727
G01 X72.4796 Y-49.0793
G01 X72.5234 Y-49.0903
G01 X72.5659 Y-49.1055
G01 X72.6066 Y-49.1247
G01 X72.6453 Y-49.1479
G01 X72.6815 Y-49.1748
G01 X72.7149 Y-49.2051
G01 X72.7452 Y-49.2385
G01 X72.7721 Y-49.2747
G01 X72.7953 Y-49.3134
G01 X72.8145 Y-49.3541
G01 X72.8297 Y-49.3966
G01 X72.8407 Y-49.4404
G01 X72.8473 Y-49.4850
G01 X72.8495 Y-49.5300
G01 X72.8473 Y-49.5750
G01 X72.8407 Y-49.6196
G01 X72.8297 Y-49.6634
G01 X72.8145 Y-49.7059
G01 X72.7953 Y-49.7466
G01 X72.7721 Y-49.7853
G01 X72.7452 Y-49.8215
G01 X72.7149 Y-49.8549
G01 X72.6815 Y-49.8852
G01 X72.6453 Y-49.9121
G01 X72.6066 Y-49.9353
G01 X72.5659 Y-49.9545
G01 X72.5234 Y-49.9697
G01 X72.4796 Y-49.9807
G01 X72.4350 Y-49.9873
G01 X72.3900 Y-49.9895
G01 X72.3900 Y-50.2298
G01 X72.3214 Y-50.2264
G01 X72.2535 Y-50.2164
G01 X72.1869 Y-50.1997
G01 X72.1222 Y-50.1765
G01 X72.0601 Y-50.1472
G01 X72.0012 Y-50.1119
G01 X71.9460 Y-50.0710
G01 X71.8952 Y-50.0248
G01 X71.8490 Y-49.9740
G01 X71.8081 Y-49.9188
G01 X71.7728 Y-49.8599
G01 X71.7435 Y-49.7978
G01 X71.7203 Y-49.7331
G01 X71.7036 Y-49.6665
G01 X71.6936 Y-49.5986
G01 X71.6902 Y-49.5300
G01 X71.6936 Y-49.4614
G01 X71.7036 Y-49.3935
G01 X71.7203 Y-49.3269
G01 X71.7435 Y-49.2622
G01 X71.7728 Y-49.2001
G01 X71.8081 Y-49.1412
G01 X71.8490 Y-49.0860
G01 X71.8952 Y-49.0352
G01 X71.9460 Y-48.9890
G01 X72.0012 Y-48.9481
G01 X72.0601 Y-48.9128
G01 X72.1222 Y-48.8835
G01 X72.1869 Y-48.8603
G01 X72.2535 Y-48.8436
G01 X72.3214 Y-48.8336
G01 X72.3900 Y-48.8302
G01 X72.4586 Y-48.8336
G01 X72.5265 Y-48.8436
G01 X72.5931 Y-48.8603
G01 X72.6578 Y-48.8835
G01 X72.7199 Y-48.9128
G01 X72.7788 Y-48.9481
G01 X72.8340 Y-48.9890
G01 X72.8848 Y-49.0352
G01 X72.9310 Y-49.0860
G01 X72.9719 Y-49.1412
G01 X73.0072 Y-49.2001
G01 X73.0365 Y-49.2622
G01 X73.0597 Y-49.3269
G01 X73.0764 Y-49.3935
G01 X73.0864 Y-49.4614
G01 X73.0898 Y-49.5300
G01 X73.0864 Y-49.5986
G01 X73.0764 Y-49.6665
G01 X73.0597 Y-49.7331
G01 X73.0365 Y-49.7978
G01 X73.0072 Y-49.8599
G01 X72.9719 Y-49.9188
G01 X72.9310 Y-49.9740
G01 X72.8848 Y-50.0248
G01 X72.8340 Y-50.0710
G01 X72.7788 Y-50.1119
G01 X72.7199 Y-50.1472
G01 X72.6578 Y-50.1765
G01 X72.5931 Y-50.1997
G01 X72.5265 Y-50.2164
G01 X72.4586 Y-50.2264
G01 X72.3900 Y-50.2298
G00 Z2.0000
G00 X74.9300 Y-50.2298
G01 F60.00
G01 Z-0.3732
G01 F120.00
G01 X74.9986 Y-50.2264
G01 X75.0665 Y-50.2164
G01 X75.1331 Y-50.1997
G01 X75.1978 Y-50.1765
G01 X75.2599 Y-50.1472
G01 X75.3188 Y-50.1119
G01 X75.3740 Y-50.0710
G01 X75.4248 Y-50.0248
G01 X75.4710 Y-49.9740
G01 X75.5119 Y-49.9188
G01 X75.5472 Y-49.8599
G01 X75.5765 Y-49.7978
G01 X75.5997 Y-49.7331
G01 X75.6164 Y-49.6665
G01 X75.6264 Y-49.5986
G01 X75.6298 Y-49.5300
G01 X75.6264 Y-49.4614
G01 X75.6164 Y-49.3935
G01 X75.5997 Y-49.3269
G01 X75.5765 Y-49.2622
G01 X75.5472 Y-49.2001
G01 X75.5119 Y-49.1412
G01 X75.4710 Y-49.0860
G01 X75.4248 Y-49.0352
G01 X75.3740 Y-48.9890
G01 X75.3188 Y-48.9481
G01 X75.2599 Y-48.9128
G01 X75.1978 Y-48.8835
G01 X75.1331 Y-48.8603
G01 X75.0665 Y-48.8436
G01 X74.9986 Y-48.8336
G01 X74.9300 Y-48.8302
G01 X74.8614 Y-48.8336
G01 X74.7935 Y-48.8436
G01 X74.7269 Y-48.8603
G01 X74.6622 Y-48.8835
G01 X74.6001 Y-48.9128
G01 X74.5412 Y-48.9481
G01 X74.4860 Y-48.9890
G01 X74.4352 Y-49.0352
G01 X74.3890 Y-49.0860
G01 X74.3481 Y-49.1412
G01 X74.3128 Y-49.2001
G01 X74.2835 Y-49.2622
G01 X74.2603 Y-49.3269
G01 X74.2436 Y-49.3935
G01 X74.2336 Y-49.4614
G01 X74.2302 Y-49.5300
G01 X74.2336 Y-49.5986
G01 X74.2436 Y-49.6665
G01 X74.2603 Y-49.7331
G01 X74.2835 Y-49.7978
G01 X74.3128 Y-49.8599
G01 X74.3481 Y-49.9188
G01 X74.3890 Y-49.9740
G01 X74.4352 Y-50.0248
G01 X74.4860 Y-50.0710
G01 X74.5412 Y-50.1119
G01 X74.6001 Y-50.1472
G01 X74.6622 Y-50.1765
G01 X74.7269 Y-50.1997
G01 X74.7935 Y-50.2164
G01 X74.8614 Y-50.2264
G01 X74.9300 Y-50.2298
G01 X74.9300 Y-49.9895
G01 X74.9750 Y-49.9873
G01 X75.0196 Y-49.9807
G01 X75.0634 Y-49.9697
G01 X75.1059 Y-49.9545
G01 X75.1466 Y-49.9353
G01 X75.1853 Y-49.9121
G01 X75.2215 Y-49.8852
G01 X75.2549 Y-49.8549
G01 X75.2852 Y-49.8215
G01 X75.3121 Y-49.7853
G01 X75.3353 Y-49.7466
G01 X75.3545 Y-49.7059
G01 X75.3697 Y-49.6634
G01 X75.3807 Y-49.6196
G01 X75.3873 Y-49.5750
G01 X75.3895 Y-49.5300
G01 X75.3873 Y-49.4850
G01 X75.3807 Y-49.4404
G01 X75.3697 Y-49.3966
G01 X75.3545 Y-49.3541
G01 X75.3353 Y-49.3134
G01 X75.3121 Y-49.2747
G01 X75.2852 Y-49.2385
G01 X75.2549 Y-49.2051
G01 X75.2215 Y-49.1748
G01 X75.1853 Y-49.1479
G01 X75.1466 Y-49.1247
G01 X75.1059 Y-49.1055
G01 X75.0634 Y-49.0903
G01 X75.0196 Y-49.0793
G01 X74.9750 Y-49.0727
G01 X74.9300 Y-49.0705
G01 X74.8850 Y-49.0727
G01 X74.8404 Y-49.0793
G01 X74.7966 Y-49.0903
G01 X74.7541 Y-49.1055
G01 X74.7134 Y-49.1247
G01 X74.6747 Y-49.1479
G01 X74.6385 Y-49.1748
G01 X74.6051 Y-49.2051
G01 X74.5748 Y-49.2385
G01 X74.5479 Y-49.2747
G01 X74.5247 Y-49.3134
G01 X74.5055 Y-49.3541
G01 X74.4903 Y-49.3966
G01 X74.4793 Y-49.4404
G01 X74.4727 Y-49.4850
G01 X74.4705 Y-49.5300
G01 X74.4727 Y-49.5750
G01 X74.4793 Y-49.6196
G01 X74.4903 Y-49.6634
G01 X74.5055 Y-49.7059
G01 X74.5247 Y-49.7466
G01 X74.5479 Y-49.7853
G01 X74.5748 Y-49.8215
G01 X74.6051 Y-49.8549
G01 X74.6385 Y-49.8852
G01 X74.6747 Y-49.9121
G01 X74.7134 Y-49.9353
G01 X74.7541 Y-49.9545
G01 X74.7966 Y-49.9697
G01 X74.8404 Y-49.9807
G01 X74.8850 Y-49.9873
G01 X74.9300 Y-49.9895
G01 X74.9300 Y-49.7492
G01 X74.9515 Y-49.7482
G01 X74.9728 Y-49.7450
G01 X74.9936 Y-49.7398
G01 X75.0139 Y-49.7326
G01 X75.0333 Y-49.7234
G01 X75.0518 Y-49.7123
G01 X75.0691 Y-49.6995
G01 X75.0850 Y-49.6850
G01 X75.0995 Y-49.6691
G01 X75.1123 Y-49.6518
G01 X75.1234 Y-49.6333
G01 X75.1326 Y-49.6139
G01 X75.1398 Y-49.5936
G01 X75.1450 Y-49.5728
G01 X75.1482 Y-49.5515
G01 X75.1492 Y-49.5300
G01 X75.1482 Y-49.5085
G01 X75.1450 Y-49.4872
G01 X75.1398 Y-49.4664
G01 X75.1326 Y-49.4461
G01 X75.1234 Y-49.4267
G01 X75.1123 Y-49.4082
G01 X75.0995 Y-49.3909
G01 X75.0850 Y-49.3750
G01 X75.0691 Y-49.3605
G01 X75.0518 Y-49.3477
G01 X75.0333 Y-49.3366
G01 X75.0139 Y-49.3274
G01 X74.9936 Y-49.3202
G01 X74.9728 Y-49.3150
G01 X74.9515 Y-49.3118
G01 X74.9300 Y-49.3108
G01 X74.9085 Y-49.3118
G01 X74.8872 Y-49.3150
G01 X74.8664 Y-49.3202
G01 X74.8461 Y-49.3274
G01 X74.8267 Y-49.3366
G01 X74.8082 Y-49.3477
G01 X74.7909 Y-49.3605
G01 X74.7750 Y-49.3750
G01 X74.7605 Y-49.3909
G01 X74.7477 Y-49.4082
G01 X74.7366 Y-49.4267
G01 X74.7274 Y-49.4461
G01 X74.7202 Y-49.4664
G01 X74.7150 Y-49.4872
G01 X74.7118 Y-49.5085
G01 X74.7108 Y-49.5300
G01 X74.7118 Y-49.5515
G01 X74.7150 Y-49.5728
G01 X74.7202 Y-49.5936
G01 X74.7274 Y-49.6139
G01 X74.7366 Y-49.6333
G01 X74.7477 Y-49.6518
G01 X74.7605 Y-49.6691
G01 X74.7750 Y-49.6850
G01 X74.7909 Y-49.6995
G01 X74.8082 Y-49.7123
G01 X74.8267 Y-49.7234
G01 X74.8461 Y-49.7326
G01 X74.8664 Y-49.7398
G01 X74.8872 Y-49.7450
G01 X74.9085 Y-49.7482
G01 X74.9300 Y-49.7492
G00 Z2.0000
G00 X77.4700 Y-50.2298
G01 F60.00
G01 Z-0.3732
G01 F120.00
G01 X77.5386 Y-50.2264
G01 X77.6065 Y-50.2164
G01 X77.6731 Y-50.1997
G01 X77.7378 Y-50.1765
G01 X77.7999 Y-50.1472
G01 X77.8588 Y-50.1119
G01 X77.9140 Y-50.0710
G01 X77.9648 Y-50.0248
G01 X78.0110 Y-49.9740
G01 X78.0519 Y-49.9188
G01 X78.0872 Y-49.8599
G01 X78.1165 Y-49.7978
G01 X78.1397 Y-49.7331
G01 X78.1564 Y-49.6665
G01 X78.1664 Y-49.5986
G01 X78.1698 Y-49.5300
G01 X78.1664 Y-49.4614
G01 X78.1564 Y-49.3935
G01 X78.1397 Y-49.3269
G01 X78.1165 Y-49.2622
G01 X78.0872 Y-49.2001
G01 X78.0519 Y-49.1412
G01 X78.0110 Y-49.0860
G01 X77.9648 Y-49.0352
G01 X77.9140 Y-48.9890
G01 X77.8588 Y-48.9481
G01 X77.7999 Y-48.9128
G01 X77.7378 Y-48.8835
G01 X77.6731 Y-48.8603
G01 X77.6065 Y-48.8436
G01 X77.5386 Y-48.8336
G01 X77.4700 Y-48.8302
G01 X77.4014 Y-48.8336
G01 X77.3335 Y-48.8436
G01 X77.2669 Y-48.8603
G01 X77.2022 Y-48.8835
G01 X77.1401 Y-48.9128
G01 X77.0812 Y-48.9481
G01 X77.0260 Y-48.9890
G01 X76.9752 Y-49.0352
G01 X76.9290 Y-49.0860
G01 X76.8881 Y-49.1412
G01 X76.8528 Y-49.2001
G01 X76.8235 Y-49.2622
G01 X76.8003 Y-49.3269
G01 X76.7836 Y-49.3935
G01 X76.7736 Y-49.4614
G01 X76.7702 Y-49.5300
G01 X76.7736 Y-49.5986
G01 X76.7836 Y-49.6665
G01 X76.8003 Y-49.7331
G01 X76.8235 Y-49.7978
G01 X76.8528 Y-49.8599
G01 X76.8881 Y-49.9188
G01 X76.9290 Y-49.9740
G01 X76.9752 Y-50.0248
G01 X77.0260 Y-50.0710
G01 X77.0812 Y-50.1119
G01 X77.1401 Y-50.1472
G01 X77.2022 Y-50.1765
G01 X77.2669 Y-50.1997
G01 X77.3335 Y-50.2164
G01 X77.4014 Y-50.2264
G01 X77.4700 Y-50.2298
G01 X77.4700 Y-49.9895
G01 X77.5150 Y-49.9873
G01 X77.5596 Y-49.9807
G01 X77.6034 Y-49.9697
G01 X77.6459 Y-49.9545
G01 X77.6866 Y-49.9353
G01 X77.7253 Y-49.9121
G01 X77.7615 Y-49.8852
G01 X77.7949 Y-49.8549
G01 X77.8252 Y-49.8215
G01 X77.8521 Y-49.7853
G01 X77.8753 Y-49.7466
G01 X77.8945 Y-49.7059
G01 X77.9097 Y-49.6634
G01 X77.9207 Y-49.6196
G01 X77.9273 Y-49.5750
G01 X77.9295 Y-49.5300
G01 X77.9273 Y-49.4850
G01 X77.9207 Y-49.4404
G01 X77.9097 Y-49.3966
G01 X77.8945 Y-49.3541
G01 X77.8753 Y-49.3134
G01 X77.8521 Y-49.2747
G01 X77.8252 Y-49.2385
G01 X77.7949 Y-49.2051
G01 X77.7615 Y-49.1748
G01 X77.7253 Y-49.1479
G01 X77.6866 Y-49.1247
G01 X77.6459 Y-49.1055
G01 X77.6034 Y-49.0903
G01 X77.5596 Y-49.0793
G01 X77.5150 Y-49.0727
G01 X77.4700 Y-49.0705
G01 X77.4250 Y-49.0727
G01 X77.3804 Y-49.0793
G01 X77.3366 Y-49.0903
G01 X77.2941 Y-49.1055
G01 X77.2534 Y-49.1247
G01 X77.2147 Y-49.1479
G01 X77.1785 Y-49.1748
G01 X77.1451 Y-49.2051
G01 X77.1148 Y-49.2385
G01 X77.0879 Y-49.2747
G01 X77.0647 Y-49.3134
G01 X77.0455 Y-49.3541
G01 X77.0303 Y-49.3966
G01 X77.0193 Y-49.4404
G01 X77.0127 Y-49.4850
G01 X77.0105 Y-49.5300
G01 X77.0127 Y-49.5750
G01 X77.0193 Y-49.6196
G01 X77.0303 Y-49.6634
G01 X77.0455 Y-49.7059
G01 X77.0647 Y-49.7466
G01 X77.0879 Y-49.7853
G01 X77.1148 Y-49.8215
G01 X77.1451 Y-49.8549
G01 X77.1785 Y-49.8852
G01 X77.2147 Y-49.9121
G01 X77.2534 Y-49.9353
G01 X77.2941 Y-49.9545
G01 X77.3366 Y-49.9697
G01 X77.3804 Y-49.9807
G01 X77.4250 Y-49.9873
G01 X77.4700 Y-49.9895
G01 X77.4700 Y-49.7492
G01 X77.4915 Y-49.7482
G01 X77.5128 Y-49.7450
G01 X77.5336 Y-49.7398
G01 X77.5539 Y-49.7326
G01 X77.5733 Y-49.7234
G01 X77.5918 Y-49.7123
G01 X77.6091 Y-49.6995
G01 X77.6250 Y-49.6850
G01 X77.6395 Y-49.6691
G01 X77.6523 Y-49.6518
G01 X77.6634 Y-49.6333
G01 X77.6726 Y-49.6139
G01 X77.6798 Y-49.5936
G01 X77.6850 Y-49.5728
G01 X77.6882 Y-49.5515
G01 X77.6892 Y-49.5300
G01 X77.6882 Y-49.5085
G01 X77.6850 Y-49.4872
G01 X77.6798 Y-49.4664
G01 X77.6726 Y-49.4461
G01 X77.6634 Y-49.4267
G01 X77.6523 Y-49.4082
G01 X77.6395 Y-49.3909
G01 X77.6250 Y-49.3750
G01 X77.6091 Y-49.3605
G01 X77.5918 Y-49.3477
G01 X77.5733 Y-49.3366
G01 X77.5539 Y-49.3274
G01 X77.5336 Y-49.3202
G01 X77.5128 Y-49.3150
G01 X77.4915 Y-49.3118
G01 X77.4700 Y-49.3108
G01 X77.4485 Y-49.3118
G01 X77.4272 Y-49.3150
G01 X77.4064 Y-49.3202
G01 X77.3861 Y-49.3274
G01 X77.3667 Y-49.3366
G01 X77.3482 Y-49.3477
G01 X77.3309 Y-49.3605
G01 X77.3150 Y-49.3750
G01 X77.3005 Y-49.3909
G01 X77.2877 Y-49.4082
G01 X77.2766 Y-49.4267
G01 X77.2674 Y-49.4461
G01 X77.2602 Y-49.4664
G01 X77.2550 Y-49.4872
G01 X77.2518 Y-49.5085
G01 X77.2508 Y-49.5300
G01 X77.2518 Y-49.5515
G01 X77.2550 Y-49.5728
G01 X77.2602 Y-49.5936
G01 X77.2674 Y-49.6139
G01 X77.2766 Y-49.6333
G01 X77.2877 Y-49.6518
G01 X77.3005 Y-49.6691
G01 X77.3150 Y-49.6850
G01 X77.3309 Y-49.6995
G01 X77.3482 Y-49.7123
G01 X77.3667 Y-49.7234
G01 X77.3861 Y-49.7326
G01 X77.4064 Y-49.7398
G01 X77.4272 Y-49.7450
G01 X77.4485 Y-49.7482
G01 X77.4700 Y-49.7492
G00 Z2.0000
G00 X80.0100 Y-50.2298
G01 F60.00
G01 Z-0.3732
G01 F120.00
G01 X80.0786 Y-50.2264
G01 X80.1465 Y-50.2164
G01 X80.2131 Y-50.1997
G01 X80.2778 Y-50.1765
G01 X80.3399 Y-50.1472
G01 X80.3988 Y-50.1119
G01 X80.4540 Y-50.0710
G01 X80.5048 Y-50.0248
G01 X80.5510 Y-49.9740
G01 X80.5919 Y-49.9188
G01 X80.6272 Y-49.8599
G01 X80.6565 Y-49.7978
G01 X80.6797 Y-49.7331
G01 X80.6964 Y-49.6665
G01 X80.7064 Y-49.5986
G01 X80.7098 Y-49.5300
G01 X80.7064 Y-49.4614
G01 X80.6964 Y-49.3935
G01 X80.6797 Y-49.3269
G01 X80.6565 Y-49.2622
G01 X80.6272 Y-49.2001
G01 X80.5919 Y-49.1412
G01 X80.5510 Y-49.0860
G01 X80.5048 Y-49.0352
G01 X80.4540 Y-48.9890
G01 X80.3988 Y-48.9481
G01 X80.3399 Y-48.9128
G01 X80.2778 Y-48.8835
G01 X80.2131 Y-48.8603
G01 X80.1465 Y-48.8436
G01 X80.0786 Y-48.8336
G01 X80.0100 Y-48.8302
G01 X79.9414 Y-48.8336
G01 X79.8735 Y-48.8436
G01 X79.8069 Y-48.8603
G01 X79.7422 Y-48.8835
G01 X79.6801 Y-48.9128
G01 X79.6212 Y-48.9481
G01 X79.5660 Y-48.9890
G01 X79.5152 Y-49.0352
G01 X79.4690 Y-49.0860
G01 X79.4281 Y-49.1412
G01 X79.3928 Y-49.2001
G01 X79.3635 Y-49.2622
G01 X79.3403 Y-49.3269
G01 X79.3236 Y-49.3935
G01 X79.3136 Y-49.4614
G01 X79.3102 Y-49.5300
G01 X79.3136 Y-49.5986
G01 X79.3236 Y-49.6665
G01 X79.3403 Y-49.7331
G01 X79.3635 Y-49.7978
G01 X79.3928 Y-49.8599
G01 X79.4281 Y-49.9188
G01 X79.4690 Y-49.9740
G01 X79.5152 Y-50.0248
G01 X79.5660 Y-50.0710
G01 X79.6212 Y-50.1119
G01 X79.6801 Y-50.1472
G01 X79.7422 Y-50.1765
G01 X79.8069 Y-50.1997
G01 X79.8735 Y-50.2164
G01 X79.9414 Y-50.2264
G01 X80.0100 Y-50.2298
G01 X80.0100 Y-49.9895
G01 X80.0550 Y-49.9873
G01 X80.0996 Y-49.9807
G01 X80.1434 Y-49.9697
G01 X80.1859 Y-49.9545
G01 X80.2266 Y-49.9353
G01 X80.2653 Y-49.9121
G01 X80.3015 Y-49.8852
G01 X80.3349 Y-49.8549
G01 X80.3652 Y-49.8215
G01 X80.3921 Y-49.7853
G01 X80.4153 Y-49.7466
G01 X80.4345 Y-49.7059
G01 X80.4497 Y-49.6634
G01 X80.4607 Y-49.6196
G01 X80.4673 Y-49.5750
G01 X80.4695 Y-49.5300
G01 X80.4673 Y-49.4850
G01 X80.4607 Y-49.4404
G01 X80.4497 Y-49.3966
G01 X80.4345 Y-49.3541
G01 X80.4153 Y-49.3134
G01 X80.3921 Y-49.2747
G01 X80.3652 Y-49.2385
G01 X80.3349 Y-49.2051
G01 X80.3015 Y-49.1748
G01 X80.2653 Y-49.1479
G01 X80.2266 Y-49.1247
G01 X80.1859 Y-49.1055
G01 X80.1434 Y-49.0903
G01 X80.0996 Y-49.0793
G01 X80.0550 Y-49.0727
G01 X80.0100 Y-49.0705
G01 X79.9650 Y-49.0727
G01 X79.9204 Y-49.0793
G01 X79.8766 Y-49.0903
G01 X79.8341 Y-49.1055
G01 X79.7934 Y-49.1247
G01 X79.7547 Y-49.1479
G01 X79.7185 Y-49.1748
G01 X79.6851 Y-49.2051
G01 X79.6548 Y-49.2385
G01 X79.6279 Y-49.2747
G01 X79.6047 Y-49.3134
G01 X79.5855 Y-49.3541
G01 X79.5703 Y-49.3966
G01 X79.5593 Y-49.4404
G01 X79.5527 Y-49.4850
G01 X79.5505 Y-49.5300
G01 X79.5527 Y-49.5750
G01 X79.5593 Y-49.6196
G01 X79.5703 Y-49.6634
G01 X79.5855 Y-49.7059
G01 X79.6047 Y-49.7466
G01 X79.6279 Y-49.7853
G01 X79.6548 Y-49.8215
G01 X79.6851 Y-49.8549
G01 X79.7185 Y-49.8852
G01 X79.7547 Y-49.9121
G01 X79.7934 Y-49.9353
G01 X79.8341 Y-49.9545
G01 X79.8766 Y-49.9697
G01 X79.9204 Y-49.9807
G01 X79.9650 Y-49.9873
G01 X80.0100 Y-49.9895
G01 X80.0100 Y-49.7492
G01 X80.0315 Y-49.7482
G01 X80.0528 Y-49.7450
G01 X80.0736 Y-49.7398
G01 X80.0939 Y-49.7326
G01 X80.1133 Y-49.7234
G01 X80.1318 Y-49.7123
G01 X80.1491 Y-49.6995
G01 X80.1650 Y-49.6850
G01 X80.1795 Y-49.6691
G01 X80.1923 Y-49.6518
G01 X80.2034 Y-49.6333
G01 X80.2126 Y-49.6139
G01 X80.2198 Y-49.5936
G01 X80.2250 Y-49.5728
G01 X80.2282 Y-49.5515
G01 X80.2292 Y-49.5300
G01 X80.2282 Y-49.5085
G01 X80.2250 Y-49.4872
G01 X80.2198 Y-49.4664
G01 X80.2126 Y-49.4461
G01 X80.2034 Y-49.4267
G01 X80.1923 Y-49.4082
G01 X80.1795 Y-49.3909
G01 X80.1650 Y-49.3750
G01 X80.1491 Y-49.3605
G01 X80.1318 Y-49.3477
G01 X80.1133 Y-49.3366
G01 X80.0939 Y-49.3274
G01 X80.0736 Y-49.3202
G01 X80.0528 Y-49.3150
G01 X80.0315 Y-49.3118
G01 X80.0100 Y-49.3108
G01 X79.9885 Y-49.3118
G01 X79.9672 Y-49.3150
G01 X79.9464 Y-49.3202
G01 X79.9261 Y-49.3274
G01 X79.9067 Y-49.3366
G01 X79.8882 Y-49.3477
G01 X79.8709 Y-49.3605
G01 X79.8550 Y-49.3750
G01 X79.8405 Y-49.3909
G01 X79.8277 Y-49.4082
G01 X79.8166 Y-49.4267
G01 X79.8074 Y-49.4461
G01 X79.8002 Y-49.4664
G01 X79.7950 Y-49.4872
G01 X79.7918 Y-49.5085
G01 X79.7908 Y-49.5300
G01 X79.7918 Y-49.5515
G01 X79.7950 Y-49.5728
G01 X79.8002 Y-49.5936
G01 X79.8074 Y-49.6139
G01 X79.8166 Y-49.6333
G01 X79.8277 Y-49.6518
G01 X79.8405 Y-49.6691
G01 X79.8550 Y-49.6850
G01 X79.8709 Y-49.6995
G01 X79.8882 Y-49.7123
G01 X79.9067 Y-49.7234
G01 X79.9261 Y-49.7326
G01 X79.9464 Y-49.7398
G01 X79.9672 Y-49.7450
G01 X79.9885 Y-49.7482
G01 X80.0100 Y-49.7492
G00 Z2.0000
G00 X82.7192 Y-54.6500
G01 F60.00
G01 Z-0.3732
G01 F120.00
G01 X82.7184 Y-54.6666
G01 X82.7160 Y-54.6830
G01 X82.7120 Y-54.6991
G01 X82.7064 Y-54.7148
G01 X82.6993 Y-54.7298
G01 X82.6907 Y-54.7440
G01 X82.6808 Y-54.7574
G01 X82.6697 Y-54.7697
G01 X82.6574 Y-54.7808
G01 X82.6440 Y-54.7907
G01 X82.6298 Y-54.7993
G01 X82.6148 Y-54.8064
G01 X82.5991 Y-54.8120
G01 X82.5830 Y-54.8160
G01 X82.5666 Y-54.8184
G01 X82.5500 Y-54.8192
G01 X82.5334 Y-54.8184
G01 X82.5170 Y-54.8160
G01 X82.5009 Y-54.8120
G01 X82.4852 Y-54.8064
G01 X82.4702 Y-54.7993
G01 X82.4560 Y-54.7907
G01 X82.4426 Y-54.7808
G01 X82.4303 Y-54.7697
G01 X82.4192 Y-54.7574
G01 X82.4093 Y-54.7440
G01 X82.4007 Y-54.7298
G01 X82.3936 Y-54.7148
G01 X82.3880 Y-54.6991
G01 X82.3840 Y-54.6830
G01 X82.3816 Y-54.6666
G01 X82.3808 Y-54.6500
G01 X82.3816 Y-54.6334
G01 X82.3840 Y-54.6170
G01 X82.3880 Y-54.6009
G01 X82.3936 Y-54.5852
G01 X82.4007 Y-54.5702
G01 X82.4093 Y-54.5560
G01 X82.4192 Y-54.5426
G01 X82.4303 Y-54.5303
G01 X82.4426 Y-54.5192
G01 X82.4560 Y-54.5093
G01 X82.4702 Y-54.5007
G01 X82.4852 Y-54.4936
G01 X82.5009 Y-54.4880
G01 X82.5170 Y-54.4840
G01 X82.5334 Y-54.4816
G01 X82.5500 Y-54.4808
G01 X82.5666 Y-54.4816
G01 X82.5830 Y-54.4840
G01 X82.5991 Y-54.4880
G01 X82.6148 Y-54.4936
G01 X82.6298 Y-54.5007
G01 X82.6440 Y-54.5093
G01 X82.6574 Y-54.5192
G01 X82.6697 Y-54.5303
G01 X82.6808 Y-54.5426
G01 X82.6907 Y-54.5560
G01 X82.6993 Y-54.5702
G01 X82.7064 Y-54.5852
G01 X82.7120 Y-54.6009
G01 X82.7160 Y-54.6170
G01 X82.7184 Y-54.6334
G01 X82.7192 Y-54.6500
G01 X82.9595 Y-54.6500
G01 X82.9576 Y-54.6901
G01 X82.9517 Y-54.7299
G01 X82.9419 Y-54.7689
G01 X82.9284 Y-54.8067
G01 X82.9112 Y-54.8431
G01 X82.8905 Y-54.8775
G01 X82.8666 Y-54.9098
G01 X82.8396 Y-54.9396
G01 X82.8098 Y-54.9666
G01 X82.7775 Y-54.9905
G01 X82.7431 Y-55.0112
G01 X82.7067 Y-55.0284
G01 X82.6689 Y-55.0419
G01 X82.6299 Y-55.0517
G01 X82.5901 Y-55.0576
G01 X82.5500 Y-55.0595
G01 X82.5099 Y-55.0576
G01 X82.4701 Y-55.0517
G01 X82.4311 Y-55.0419
G01 X82.3933 Y-55.0284
G01 X82.3569 Y-55.0112
G01 X82.3225 Y-54.9905
G01 X82.2902 Y-54.9666
G01 X82.2604 Y-54.9396
G01 X82.2334 Y-54.9098
G01 X82.2095 Y-54.8775
G01 X82.1888 Y-54.8431
G01 X82.1716 Y-54.8067
G01 X82.1581 Y-54.7689
G01 X82.1483 Y-54.7299
G01 X82.1424 Y-54.6901
G01 X82.1405 Y-54.6500
G01 X82.1424 Y-54.6099
G01 X82.1483 Y-54.5701
G01 X82.1581 Y-54.5311
G01 X82.1716 Y-54.4933
G01 X82.1888 Y-54.4569
G01 X82.2095 Y-54.4225
G01 X82.2334 Y-54.3902
G01 X82.2604 Y-54.3604
G01 X82.2902 Y-54.3334
G01 X82.3225 Y-54.3095
G01 X82.3569 Y-54.2888
G01 X82.3933 Y-54.2716
G01 X82.4311 Y-54.2581
G01 X82.4701 Y-54.2483
G01 X82.5099 Y-54.2424
G01 X82.5500 Y-54.2405
G01 X82.5901 Y-54.2424
G01 X82.6299 Y-54.2483
G01 X82.6689 Y-54.2581
G01 X82.7067 Y-54.2716
G01 X82.7431 Y-54.2888
G01 X82.7775 Y-54.3095
G01 X82.8098 Y-54.3334
G01 X82.8396 Y-54.3604
G01 X82.8666 Y-54.3902
G01 X82.8905 Y-54.4225
G01 X82.9112 Y-54.4569
G01 X82.9284 Y-54.4933
G01 X82.9419 Y-54.5311
G01 X82.9517 Y-54.5701
G01 X82.9576 Y-54.6099
G01 X82.9595 Y-54.6500
G01 X83.1998 Y-54.6500
G01 X83.1967 Y-54.7137
G01 X83.1873 Y-54.7768
G01 X83.1718 Y-54.8386
G01 X83.1504 Y-54.8987
G01 X83.1231 Y-54.9563
G01 X83.0903 Y-55.0110
G01 X83.0523 Y-55.0622
G01 X83.0095 Y-55.1095
G01 X82.9622 Y-55.1523
G01 X82.9110 Y-55.1903
G01 X82.8563 Y-55.2231
G01 X82.7987 Y-55.2504
G01 X82.7386 Y-55.2718
G01 X82.6768 Y-55.2873
G01 X82.6137 Y-55.2967
G01 X82.5500 Y-55.2998
G01 X82.4863 Y-55.2967
G01 X82.4232 Y-55.2873
G01 X82.3614 Y-55.2718
G01 X82.3013 Y-55.2504
G01 X82.2437 Y-55.2231
G01 X82.1890 Y-55.1903
G01 X82.1378 Y-55.1523
G01 X82.0905 Y-55.1095
G01 X82.0477 Y-55.0622
G01 X82.0097 Y-55.0110
G01 X81.9769 Y-54.9563
G01 X81.9496 Y-54.8987
G01 X81.9282 Y-54.8386
G01 X81.9127 Y-54.7768
G01 X81.9033 Y-54.7137
G01 X81.9002 Y-54.6500
G01 X81.9033 Y-54.5863
G01 X81.9127 Y-54.5232
G01 X81.9282 Y-54.4614
G01 X81.9496 Y-54.4013
G01 X81.9769 Y-54.3437
G01 X82.0097 Y-54.2890
G01 X82.0477 Y-54.2378
G01 X82.0905 Y-54.1905
G01 X82.1378 Y-54.1477
G01 X82.1890 Y-54.1097
G01 X82.2437 Y-54.0769
G01 X82.3013 Y-54.0496
G01 X82.3614 Y-54.0282
G01 X82.4232 Y-54.0127
G01 X82.4863 Y-54.0033
G01 X82.5500 Y-54.0002
G01 X82.6137 Y-54.0033
G01 X82.6768 Y-54.0127
G01 X82.7386 Y-54.0282
G01 X82.7987 Y-54.0496
G01 X82.8563 Y-54.0769
G01 X82.9110 Y-54.1097
G01 X82.9622 Y-54.1477
G01 X83.0095 Y-54.1905
G01 X83.0523 Y-54.2378
G01 X83.0903 Y-54.2890
G01 X83.1231 Y-54.3437
G01 X83.1504 Y-54.4013
G01 X83.1718 Y-54.4614
G01 X83.1873 Y-54.5232
G01 X83.1967 Y-54.5863
G01 X83.1998 Y-54.6500
G00 Z2.0000
G00 X82.3800 Y-57.3200
G01 F60.00
G01 Z-0.3732
G01 F120.00
G01 X82.7200 Y-57.3200
G01 X82.7200 Y-56.9800
G01 X82.3800 Y-56.9800
G01 X82.3800 Y-57.3200
G01 X82.1400 Y-57.5600
G01 X82.9600 Y-57.5600
G01 X82.9600 Y-56.7400
G01 X82.1400 Y-56.7400
G01 X82.1400 Y-57.5600
G01 X81.9000 Y-57.8000
G01 X83.2000 Y-57.8000
G01 X83.2000 Y-56.5000
G01 X81.9000 Y-56.5000
G01 X81.9000 Y-57.8000
G00 Z2.0000
G00 X82.3800 Y-64.9400
G01 F60.00
G01 Z-0.3732
G01 F120.00
G01 X82.7200 Y-64.9400
G01 X82.7200 Y-64.6000
G01 X82.3800 Y-64.6000
G01 X82.3800 Y-64.9400
G01 X82.1400 Y-65.1800
G01 X82.9600 Y-65.1800
G01 X82.9600 Y-64.3600
G01 X82.1400 Y-64.3600
G01 X82.1400 Y-65.1800
G01 X81.9000 Y-65.4200
G01 X83.2000 Y-65.4200
G01 X83.2000 Y-64.1200
G01 X81.9000 Y-64.1200
G01 X81.9000 Y-65.4200
G00 Z2.0000
G00 X82.7192 Y-67.2700
G01 F60.00
G01 Z-0.3732
G01 F120.00
G01 X82.7184 Y-67.2866
G01 X82.7160 Y-67.3030
G01 X82.7120 Y-67.3191
G01 X82.7064 Y-67.3348
G01 X82.6993 Y-67.3498
G01 X82.6907 Y-67.3640
G01 X82.6808 Y-67.3774
G01 X82.6697 Y-67.3897
G01 X82.6574 Y-67.4008
G01 X82.6440 Y-67.4107
G01 X82.6298 Y-67.4193
G01 X82.6148 Y-67.4264
G01 X82.5991 Y-67.4320
G01 X82.5830 Y-67.4360
G01 X82.5666 Y-67.4384
G01 X82.5500 Y-67.4392
G01 X82.5334 Y-67.4384
G01 X82.5170 Y-67.4360
G01 X82.5009 Y-67.4320
G01 X82.4852 Y-67.4264
G01 X82.4702 Y-67.4193
G01 X82.4560 Y-67.4107
G01 X82.4426 Y-67.4008
G01 X82.4303 Y-67.3897
G01 X82.4192 Y-67.3774
G01 X82.4093 Y-67.3640
G01 X82.4007 Y-67.3498
G01 X82.3936 Y-67.3348
G01 X82.3880 Y-67.3191
G01 X82.3840 Y-67.3030
G01 X82.3816 Y-67.2866
G01 X82.3808 Y-67.2700
G01 X82.3816 Y-67.2534
G01 X82.3840 Y-67.2370
G01 X82.3880 Y-67.2209
G01 X82.3936 Y-67.2052
G01 X82.4007 Y-67.1902
G01 X82.4093 Y-67.1760
G01 X82.4192 Y-67.1626
G01 X82.4303 Y-67.1503
G01 X82.4426 Y-67.1392
G01 X82.4560 Y-67.1293
G01 X82.4702 Y-67.1207
G01 X82.4852 Y-67.1136
G01 X82.5009 Y-67.1080
G01 X82.5170 Y-67.1040
G01 X82.5334 Y-67.1016
G01 X82.5500 Y-67.1008
G01 X82.5666 Y-67.1016
G01 X82.5830 Y-67.1040
G01 X82.5991 Y-67.1080
G01 X82.6148 Y-67.1136
G01 X82.6298 Y-67.1207
G01 X82.6440 Y-67.1293
G01 X82.6574 Y-67.1392
G01 X82.6697 Y-67.1503
G01 X82.6808 Y-67.1626
G01 X82.6907 Y-67.1760
G01 X82.6993 Y-67.1902
G01 X82.7064 Y-67.2052
G01 X82.7120 Y-67.2209
G01 X82.7160 Y-67.2370
G01 X82.7184 Y-67.2534
G01 X82.7192 Y-67.2700
G01 X82.9595 Y-67.2700
G01 X82.9576 Y-67.3101
G01 X82.9517 Y-67.3499
G01 X82.9419 Y-67.3889
G01 X82.9284 Y-67.4267
G01 X82.9112 Y-67.4631
G01 X82.8905 Y-67.4975
G01 X82.8666 Y-67.5298
G01 X82.8396 Y-67.5596
G01 X82.8098 Y-67.5866
G01 X82.7775 Y-67.6105
G01 X82.7431 Y-67.6312
G01 X82.7067 Y-67.6484
G01 X82.6689 Y-67.6619
G01 X82.6299 Y-67.6717
G01 X82.5901 Y-67.6776
G01 X82.5500 Y-67.6795
G01 X82.5099 Y-67.6776
G01 X82.4701 Y-67.6717
G01 X82.4311 Y-67.6619
G01 X82.3933 Y-67.6484
G01 X82.3569 Y-67.6312
G01 X82.3225 Y-67.6105
G01 X82.2902 Y-67.5866
G01 X82.2604 Y-67.5596
G01 X82.2334 Y-67.5298
G01 X82.2095 Y-67.4975
G01 X82.1888 Y-67.4631
G01 X82.1716 Y-67.4267
G01 X82.1581 Y-67.3889
G01 X82.1483 Y-67.3499
G01 X82.1424 Y-67.3101
G01 X82.1405 Y-67.2700
G01 X82.1424 Y-67.2299
G01 X82.1483 Y-67.1901
G01 X82.1581 Y-67.1511
G01 X82.1716 Y-67.1133
G01 X82.1888 Y-67.0769
G01 X82.2095 Y-67.0425
G01 X82.2334 Y-67.0102
G01 X82.2604 Y-66.9804
G01 X82.2902 Y-66.9534
G01 X82.3225 Y-66.9295
G01 X82.3569 Y-66.9088
G01 X82.3933 Y-66.8916
G01 X82.4311 Y-66.8781
G01 X82.4701 Y-66.8683
G01 X82.5099 Y-66.8624
G01 X82.5500 Y-66.8605
G01 X82.5901 Y-66.8624
G01 X82.6299 Y-66.8683
G01 X82.6689 Y-66.8781
G01 X82.7067 Y-66.8916
G01 X82.7431 Y-66.9088
G01 X82.7775 Y-66.9295
G01 X82.8098 Y-66.9534
G01 X82.8396 Y-66.9804
G01 X82.8666 Y-67.0102
G01 X82.8905 Y-67.0425
G01 X82.9112 Y-67.0769
G01 X82.9284 Y-67.1133
G01 X82.9419 Y-67.1511
G01 X82.9517 Y-67.1901
G01 X82.9576 Y-67.2299
G01 X82.9595 Y-67.2700
G01 X83.1998 Y-67.2700
G01 X83.1967 Y-67.3337
G01 X83.1873 Y-67.3968
G01 X83.1718 Y-67.4586
G01 X83.1504 Y-67.5187
G01 X83.1231 Y-67.5763
G01 X83.0903 Y-67.6310
G01 X83.0523 Y-67.6822
G01 X83.0095 Y-67.7295
G01 X82.9622 Y-67.7723
G01 X82.9110 Y-67.8103
G01 X82.8563 Y-67.8431
G01 X82.7987 Y-67.8704
G01 X82.7386 Y-67.8918
G01 X82.6768 Y-67.9073
G01 X82.6137 Y-67.9167
G01 X82.5500 Y-67.9198
G01 X82.4863 Y-67.9167
G01 X82.4232 Y-67.9073
G01 X82.3614 Y-67.8918
G01 X82.3013 Y-67.8704
G01 X82.2437 Y-67.8431
G01 X82.1890 Y-67.8103
G01 X82.1378 Y-67.7723
G01 X82.0905 Y-67.7295
G01 X82.0477 Y-67.6822
G01 X82.0097 Y-67.6310
G01 X81.9769 Y-67.5763
G01 X81.9496 Y-67.5187
G01 X81.9282 Y-67.4586
G01 X81.9127 Y-67.3968
G01 X81.9033 Y-67.3337
G01 X81.9002 Y-67.2700
G01 X81.9033 Y-67.2063
G01 X81.9127 Y-67.1432
G01 X81.9282 Y-67.0814
G01 X81.9496 Y-67.0213
G01 X81.9769 Y-66.9637
G01 X82.0097 Y-66.9090
G01 X82.0477 Y-66.8578
G01 X82.0905 Y-66.8105
G01 X82.1378 Y-66.7677
G01 X82.1890 Y-66.7297
G01 X82.2437 Y-66.6969
G01 X82.3013 Y-66.6696
G01 X82.3614 Y-66.6482
G01 X82.4232 Y-66.6327
G01 X82.4863 Y-66.6233
G01 X82.5500 Y-66.6202
G01 X82.6137 Y-66.6233
G01 X82.6768 Y-66.6327
G01 X82.7386 Y-66.6482
G01 X82.7987 Y-66.6696
G01 X82.8563 Y-66.6969
G01 X82.9110 Y-66.7297
G01 X82.9622 Y-66.7677
G01 X83.0095 Y-66.8105
G01 X83.0523 Y-66.8578
G01 X83.0903 Y-66.9090
G01 X83.1231 Y-66.9637
G01 X83.1504 Y-67.0213
G01 X83.1718 Y-67.0814
G01 X83.1873 Y-67.1432
G01 X83.1967 Y-67.2063
G01 X83.1998 Y-67.2700
G00 Z2.0000
G00 X83.1998 Y-73.7000
G01 F60.00
G01 Z-0.3732
G01 F120.00
G01 X83.1967 Y-73.6363
G01 X83.1873 Y-73.5732
G01 X83.1718 Y-73.5114
G01 X83.1504 Y-73.4513
G01 X83.1231 Y-73.3937
G01 X83.0903 Y-73.3390
G01 X83.0523 Y-73.2878
G01 X83.0095 Y-73.2405
G01 X82.9622 Y-73.1977
G01 X82.9110 Y-73.1597
G01 X82.8563 Y-73.1269
G01 X82.7987 Y-73.0996
G01 X82.7386 Y-73.0782
G01 X82.6768 Y-73.0627
G01 X82.6137 Y-73.0533
G01 X82.5500 Y-73.0502
G01 X82.4863 Y-73.0533
G01 X82.4232 Y-73.0627
G01 X82.3614 Y-73.0782
G01 X82.3013 Y-73.0996
G01 X82.2437 Y-73.1269
G01 X82.1890 Y-73.1597
G01 X82.1378 Y-73.1977
G01 X82.0905 Y-73.2405
G01 X82.0477 Y-73.2878
G01 X82.0097 Y-73.3390
G01 X81.9769 Y-73.3937
G01 X81.9496 Y-73.4513
G01 X81.9282 Y-73.5114
G01 X81.9127 Y-73.5732
G01 X81.9033 Y-73.6363
G01 X81.9002 Y-73.7000
G01 X81.9033 Y-73.7637
G01 X81.9127 Y-73.8268
G01 X81.9282 Y-73.8886
G01 X81.9496 Y-73.9487
G01 X81.9769 Y-74.0063
G01 X82.0097 Y-74.0610
G01 X82.0477 Y-74.1122
G01 X82.0905 Y-74.1595
G01 X82.1378 Y-74.2023
G01 X82.1890 Y-74.2403
G01 X82.2437 Y-74.2731
G01 X82.3013 Y-74.3004
G01 X82.3614 Y-74.3218
G01 X82.4232 Y-74.3373
G01 X82.4863 Y-74.3467
G01 X82.5500 Y-74.3498
G01 X82.6137 Y-74.3467
G01 X82.6768 Y-74.3373
G01 X82.7386 Y-74.3218
G01 X82.7987 Y-74.3004
G01 X82.8563 Y-74.2731
G01 X82.9110 Y-74.2403
G01 X82.9622 Y-74.2023
G01 X83.0095 Y-74.1595
G01 X83.0523 Y-74.1122
G01 X83.0903 Y-74.0610
G01 X83.1231 Y-74.0063
G01 X83.1504 Y-73.9487
G01 X83.1718 Y-73.8886
G01 X83.1873 Y-73.8268
G01 X83.1967 Y-73.7637
G01 X83.1998 Y-73.7000
G01 X82.9595 Y-73.7000
G01 X82.9576 Y-73.6599
G01 X82.9517 Y-73.6201
G01 X82.9419 Y-73.5811
G01 X82.9284 Y-73.5433
G01 X82.9112 Y-73.5069
G01 X82.8905 Y-73.4725
G01 X82.8666 Y-73.4402
G01 X82.8396 Y-73.4104
G01 X82.8098 Y-73.3834
G01 X82.7775 Y-73.3595
G01 X82.7431 Y-73.3388
G01 X82.7067 Y-73.3216
G01 X82.6689 Y-73.3081
G01 X82.6299 Y-73.2983
G01 X82.5901 Y-73.2924
G01 X82.5500 Y-73.2905
G01 X82.5099 Y-73.2924
G01 X82.4701 Y-73.2983
G01 X82.4311 Y-73.3081
G01 X82.3933 Y-73.3216
G01 X82.3569 Y-73.3388
G01 X82.3225 Y-73.3595
G01 X82.2902 Y-73.3834
G01 X82.2604 Y-73.4104
G01 X82.2334 Y-73.4402
G01 X82.2095 Y-73.4725
G01 X82.1888 Y-73.5069
G01 X82.1716 Y-73.5433
G01 X82.1581 Y-73.5811
G01 X82.1483 Y-73.6201
G01 X82.1424 Y-73.6599
G01 X82.1405 Y-73.7000
G01 X82.1424 Y-73.7401
G01 X82.1483 Y-73.7799
G01 X82.1581 Y-73.8189
G01 X82.1716 Y-73.8567
G01 X82.1888 Y-73.8931
G01 X82.2095 Y-73.9275
G01 X82.2334 Y-73.9598
G01 X82.2604 Y-73.9896
G01 X82.2902 Y-74.0166
G01 X82.3225 Y-74.0405
G01 X82.3569 Y-74.0612
G01 X82.3933 Y-74.0784
G01 X82.4311 Y-74.0919
G01 X82.4701 Y-74.1017
G01 X82.5099 Y-74.1076
G01 X82.5500 Y-74.1095
G01 X82.5901 Y-74.1076
G01 X82.6299 Y-74.1017
G01 X82.6689 Y-74.0919
G01 X82.7067 Y-74.0784
G01 X82.7431 Y-74.0612
G01 X82.7775 Y-74.0405
G01 X82.8098 Y-74.0166
G01 X82.8396 Y-73.9896
G01 X82.8666 Y-73.9598
G01 X82.8905 Y-73.9275
G01 X82.9112 Y-73.8931
G01 X82.9284 Y-73.8567
G01 X82.9419 Y-73.8189
G01 X82.9517 Y-73.7799
G01 X82.9576 Y-73.7401
G01 X82.9595 Y-73.7000
G01 X82.7192 Y-73.7000
G01 X82.7184 Y-73.6834
G01 X82.7160 Y-73.6670
G01 X82.7120 Y-73.6509
G01 X82.7064 Y-73.6352
G01 X82.6993 Y-73.6202
G01 X82.6907 Y-73.6060
G01 X82.6808 Y-73.5926
G01 X82.6697 Y-73.5803
G01 X82.6574 Y-73.5692
G01 X82.6440 Y-73.5593
G01 X82.6298 Y-73.5507
G01 X82.6148 Y-73.5436
G01 X82.5991 Y-73.5380
G01 X82.5830 Y-73.5340
G01 X82.5666 Y-73.5316
G01 X82.5500 Y-73.5308
G01 X82.5334 Y-73.5316
G01 X82.5170 Y-73.5340
G01 X82.5009 Y-73.5380
G01 X82.4852 Y-73.5436
G01 X82.4702 Y-73.5507
G01 X82.4560 Y-73.5593
G01 X82.4426 Y-73.5692
G01 X82.4303 Y-73.5803
G01 X82.4192 Y-73.5926
G01 X82.4093 Y-73.6060
G01 X82.4007 Y-73.6202
G01 X82.3936 Y-73.6352
G01 X82.3880 Y-73.6509
G01 X82.3840 Y-73.6670
G01 X82.3816 Y-73.6834
G01 X82.3808 Y-73.7000
G01 X82.3816 Y-73.7166
G01 X82.3840 Y-73.7330
G01 X82.3880 Y-73.7491
G01 X82.3936 Y-73.7648
G01 X82.4007 Y-73.7798
G01 X82.4093 Y-73.7940
G01 X82.4192 Y-73.8074
G01 X82.4303 Y-73.8197
G01 X82.4426 Y-73.8308
G01 X82.4560 Y-73.8407
G01 X82.4702 Y-73.8493
G01 X82.4852 Y-73.8564
G01 X82.5009 Y-73.8620
G01 X82.5170 Y-73.8660
G01 X82.5334 Y-73.8684
G01 X82.5500 Y-73.8692
G01 X82.5666 Y-73.8684
G01 X82.5830 Y-73.8660
G01 X82.5991 Y-73.8620
G01 X82.6148 Y-73.8564
G01 X82.6298 Y-73.8493
G01 X82.6440 Y-73.8407
G01 X82.6574 Y-73.8308
G01 X82.6697 Y-73.8197
G01 X82.6808 Y-73.8074
G01 X82.6907 Y-73.7940
G01 X82.6993 Y-73.7798
G01 X82.7064 Y-73.7648
G01 X82.7120 Y-73.7491
G01 X82.7160 Y-73.7330
G01 X82.7184 Y-73.7166
G01 X82.7192 Y-73.7000
G00 Z2.0000
G00 X82.3800 Y-76.3700
G01 F60.00
G01 Z-0.3732
G01 F120.00
G01 X82.7200 Y-76.3700
G01 X82.7200 Y-76.0300
G01 X82.3800 Y-76.0300
G01 X82.3800 Y-76.3700
G01 X82.1400 Y-76.6100
G01 X82.9600 Y-76.6100
G01 X82.9600 Y-75.7900
G01 X82.1400 Y-75.7900
G01 X82.1400 Y-76.6100
G01 X81.9000 Y-76.8500
G01 X83.2000 Y-76.8500
G01 X83.2000 Y-75.5500
G01 X81.9000 Y-75.5500
G01 X81.9000 Y-76.8500
G00 Z2.0000
G00 X76.1648 Y-84.4550
G01 F60.00
G01 Z-0.3732
G01 F120.00
G01 X76.1619 Y-84.3962
G01 X76.1533 Y-84.3380
G01 X76.1390 Y-84.2809
G01 X76.1192 Y-84.2255
G01 X76.0940 Y-84.1722
G01 X76.0637 Y-84.1218
G01 X76.0287 Y-84.0745
G01 X75.9891 Y-84.0309
G01 X75.9455 Y-83.9913
G01 X75.8982 Y-83.9563
G01 X75.8478 Y-83.9260
G01 X75.7945 Y-83.9008
G01 X75.7391 Y-83.8810
G01 X75.6820 Y-83.8667
G01 X75.6238 Y-83.8581
G01 X75.5650 Y-83.8552
G01 X75.5062 Y-83.8581
G01 X75.4480 Y-83.8667
G01 X75.3909 Y-83.8810
G01 X75.3355 Y-83.9008
G01 X75.2822 Y-83.9260
G01 X75.2318 Y-83.9563
G01 X75.1845 Y-83.9913
G01 X75.1409 Y-84.0309
G01 X75.1013 Y-84.0745
G01 X75.0663 Y-84.1218
G01 X75.0360 Y-84.1722
G01 X75.0108 Y-84.2255
G01 X74.9910 Y-84.2809
G01 X74.9767 Y-84.3380
G01 X74.9681 Y-84.3962
G01 X74.9652 Y-84.4550
G01 X74.9681 Y-84.5138
G01 X74.9767 Y-84.5720
G01 X74.9910 Y-84.6291
G01 X75.0108 Y-84.6845
G01 X75.0360 Y-84.7378
G01 X75.0663 Y-84.7882
G01 X75.1013 Y-84.8355
G01 X75.1409 Y-84.8791
G01 X75.1845 Y-84.9187
G01 X75.2318 Y-84.9537
G01 X75.2822 Y-84.9840
G01 X75.3355 Y-85.0092
G01 X75.3909 Y-85.0290
G01 X75.4480 Y-85.0433
G01 X75.5062 Y-85.0519
G01 X75.5650 Y-85.0548
G01 X75.6238 Y-85.0519
G01 X75.6820 Y-85.0433
G01 X75.7391 Y-85.0290
G01 X75.7945 Y-85.0092
G01 X75.8478 Y-84.9840
G01 X75.8982 Y-84.9537
G01 X75.9455 Y-84.9187
G01 X75.9891 Y-84.8791
G01 X76.0287 Y-84.8355
G01 X76.0637 Y-84.7882
G01 X76.0940 Y-84.7378
G01 X76.1192 Y-84.6845
G01 X76.1390 Y-84.6291
G01 X76.1533 Y-84.5720
G01 X76.1619 Y-84.5138
G01 X76.1648 Y-84.4550
G01 X75.9245 Y-84.4550
G01 X75.9228 Y-84.4198
G01 X75.9176 Y-84.3849
G01 X75.9090 Y-84.3506
G01 X75.8972 Y-84.3174
G01 X75.8821 Y-84.2855
G01 X75.8639 Y-84.2553
G01 X75.8429 Y-84.2269
G01 X75.8192 Y-84.2008
G01 X75.7931 Y-84.1771
G01 X75.7647 Y-84.1561
G01 X75.7345 Y-84.1379
G01 X75.7026 Y-84.1228
G01 X75.6694 Y-84.1110
G01 X75.6351 Y-84.1024
G01 X75.6002 Y-84.0972
G01 X75.5650 Y-84.0955
G01 X75.5298 Y-84.0972
G01 X75.4949 Y-84.1024
G01 X75.4606 Y-84.1110
G01 X75.4274 Y-84.1228
G01 X75.3955 Y-84.1379
G01 X75.3653 Y-84.1561
G01 X75.3369 Y-84.1771
G01 X75.3108 Y-84.2008
G01 X75.2871 Y-84.2269
G01 X75.2661 Y-84.2553
G01 X75.2479 Y-84.2855
G01 X75.2328 Y-84.3174
G01 X75.2210 Y-84.3506
G01 X75.2124 Y-84.3849
G01 X75.2072 Y-84.4198
G01 X75.2055 Y-84.4550
G01 X75.2072 Y-84.4902
G01 X75.2124 Y-84.5251
G01 X75.2210 Y-84.5594
G01 X75.2328 Y-84.5926
G01 X75.2479 Y-84.6245
G01 X75.2661 Y-84.6547
G01 X75.2871 Y-84.6831
G01 X75.3108 Y-84.7092
G01 X75.3369 Y-84.7329
G01 X75.3653 Y-84.7539
G01 X75.3955 Y-84.7721
G01 X75.4274 Y-84.7872
G01 X75.4606 Y-84.7990
G01 X75.4949 Y-84.8076
G01 X75.5298 Y-84.8128
G01 X75.5650 Y-84.8145
G01 X75.6002 Y-84.8128
G01 X75.6351 Y-84.8076
G01 X75.6694 Y-84.7990
G01 X75.7026 Y-84.7872
G01 X75.7345 Y-84.7721
G01 X75.7647 Y-84.7539
G01 X75.7931 Y-84.7329
G01 X75.8192 Y-84.7092
G01 X75.8429 Y-84.6831
G01 X75.8639 Y-84.6547
G01 X75.8821 Y-84.6245
G01 X75.8972 Y-84.5926
G01 X75.9090 Y-84.5594
G01 X75.9176 Y-84.5251
G01 X75.9228 Y-84.4902
G01 X75.9245 Y-84.4550
G01 X75.6842 Y-84.4550
G01 X75.6837 Y-84.4433
G01 X75.6819 Y-84.4317
G01 X75.6791 Y-84.4204
G01 X75.6752 Y-84.4094
G01 X75.6702 Y-84.3988
G01 X75.6641 Y-84.3888
G01 X75.6572 Y-84.3794
G01 X75.6493 Y-84.3707
G01 X75.6406 Y-84.3628
G01 X75.6312 Y-84.3559
G01 X75.6212 Y-84.3498
G01 X75.6106 Y-84.3448
G01 X75.5996 Y-84.3409
G01 X75.5883 Y-84.3381
G01 X75.5767 Y-84.3363
G01 X75.5650 Y-84.3358
G01 X75.5533 Y-84.3363
G01 X75.5417 Y-84.3381
G01 X75.5304 Y-84.3409
G01 X75.5194 Y-84.3448
G01 X75.5088 Y-84.3498
G01 X75.4988 Y-84.3559
G01 X75.4894 Y-84.3628
G01 X75.4807 Y-84.3707
G01 X75.4728 Y-84.3794
G01 X75.4659 Y-84.3888
G01 X75.4598 Y-84.3988
G01 X75.4548 Y-84.4094
G01 X75.4509 Y-84.4204
G01 X75.4481 Y-84.4317
G01 X75.4463 Y-84.4433
G01 X75.4458 Y-84.4550
G01 X75.4463 Y-84.4667
G01 X75.4481 Y-84.4783
G01 X75.4509 Y-84.4896
G01 X75.4548 Y-84.5006
G01 X75.4598 Y-84.5112
G01 X75.4659 Y-84.5212
G01 X75.4728 Y-84.5306
G01 X75.4807 Y-84.5393
G01 X75.4894 Y-84.5472
G01 X75.4988 Y-84.5541
G01 X75.5088 Y-84.5602
G01 X75.5194 Y-84.5652
G01 X75.5304 Y-84.5691
G01 X75.5417 Y-84.5719
G01 X75.5533 Y-84.5737
G01 X75.5650 Y-84.5742
G01 X75.5767 Y-84.5737
G01 X75.5883 Y-84.5719
G01 X75.5996 Y-84.5691
G01 X75.6106 Y-84.5652
G01 X75.6212 Y-84.5602
G01 X75.6312 Y-84.5541
G01 X75.6406 Y-84.5472
G01 X75.6493 Y-84.5393
G01 X75.6572 Y-84.5306
G01 X75.6641 Y-84.5212
G01 X75.6702 Y-84.5112
G01 X75.6752 Y-84.5006
G01 X75.6791 Y-84.4896
G01 X75.6819 Y-84.4783
G01 X75.6837 Y-84.4667
G01 X75.6842 Y-84.4550
G00 Z2.0000
G00 X73.6248 Y-84.4550
G01 F60.00
G01 Z-0.3732
G01 F120.00
G01 X73.6219 Y-84.3962
G01 X73.6133 Y-84.3380
G01 X73.5990 Y-84.2809
G01 X73.5792 Y-84.2255
G01 X73.5540 Y-84.1722
G01 X73.5237 Y-84.1218
G01 X73.4887 Y-84.0745
G01 X73.4491 Y-84.0309
G01 X73.4055 Y-83.9913
G01 X73.3582 Y-83.9563
G01 X73.3078 Y-83.9260
G01 X73.2545 Y-83.9008
G01 X73.1991 Y-83.8810
G01 X73.1420 Y-83.8667
G01 X73.0838 Y-83.8581
G01 X73.0250 Y-83.8552
G01 X72.9662 Y-83.8581
G01 X72.9080 Y-83.8667
G01 X72.8509 Y-83.8810
G01 X72.7955 Y-83.9008
G01 X72.7422 Y-83.9260
G01 X72.6918 Y-83.9563
G01 X72.6445 Y-83.9913
G01 X72.6009 Y-84.0309
G01 X72.5613 Y-84.0745
G01 X72.5263 Y-84.1218
G01 X72.4960 Y-84.1722
G01 X72.4708 Y-84.2255
G01 X72.4510 Y-84.2809
G01 X72.4367 Y-84.3380
G01 X72.4281 Y-84.3962
G01 X72.4252 Y-84.4550
G01 X72.4281 Y-84.5138
G01 X72.4367 Y-84.5720
G01 X72.4510 Y-84.6291
G01 X72.4708 Y-84.6845
G01 X72.4960 Y-84.7378
G01 X72.5263 Y-84.7882
G01 X72.5613 Y-84.8355
G01 X72.6009 Y-84.8791
G01 X72.6445 Y-84.9187
G01 X72.6918 Y-84.9537
G01 X72.7422 Y-84.9840
G01 X72.7955 Y-85.0092
G01 X72.8509 Y-85.0290
G01 X72.9080 Y-85.0433
G01 X72.9662 Y-85.0519
G01 X73.0250 Y-85.0548
G01 X73.0838 Y-85.0519
G01 X73.1420 Y-85.0433
G01 X73.1991 Y-85.0290
G01 X73.2545 Y-85.0092
G01 X73.3078 Y-84.9840
G01 X73.3582 Y-84.9537
G01 X73.4055 Y-84.9187
G01 X73.4491 Y-84.8791
G01 X73.4887 Y-84.8355
G01 X73.5237 Y-84.7882
G01 X73.5540 Y-84.7378
G01 X73.5792 Y-84.6845
G01 X73.5990 Y-84.6291
G01 X73.6133 Y-84.5720
G01 X73.6219 Y-84.5138
G01 X73.6248 Y-84.4550
G01 X73.3845 Y-84.4550
G01 X73.3828 Y-84.4198
G01 X73.3776 Y-84.3849
G01 X73.3690 Y-84.3506
G01 X73.3572 Y-84.3174
G01 X73.3421 Y-84.2855
G01 X73.3239 Y-84.2553
G01 X73.3029 Y-84.2269
G01 X73.2792 Y-84.2008
G01 X73.2531 Y-84.1771
G01 X73.2247 Y-84.1561
G01 X73.1945 Y-84.1379
G01 X73.1626 Y-84.1228
G01 X73.1294 Y-84.1110
G01 X73.0951 Y-84.1024
G01 X73.0602 Y-84.0972
G01 X73.0250 Y-84.0955
G01 X72.9898 Y-84.0972
G01 X72.9549 Y-84.1024
G01 X72.9206 Y-84.1110
G01 X72.8874 Y-84.1228
G01 X72.8555 Y-84.1379
G01 X72.8253 Y-84.1561
G01 X72.7969 Y-84.1771
G01 X72.7708 Y-84.2008
G01 X72.7471 Y-84.2269
G01 X72.7261 Y-84.2553
G01 X72.7079 Y-84.2855
G01 X72.6928 Y-84.3174
G01 X72.6810 Y-84.3506
G01 X72.6724 Y-84.3849
G01 X72.6672 Y-84.4198
G01 X72.6655 Y-84.4550
G01 X72.6672 Y-84.4902
G01 X72.6724 Y-84.5251
G01 X72.6810 Y-84.5594
G01 X72.6928 Y-84.5926
G01 X72.7079 Y-84.6245
G01 X72.7261 Y-84.6547
G01 X72.7471 Y-84.6831
G01 X72.7708 Y-84.7092
G01 X72.7969 Y-84.7329
G01 X72.8253 Y-84.7539
G01 X72.8555 Y-84.7721
G01 X72.8874 Y-84.7872
G01 X72.9206 Y-84.7990
G01 X72.9549 Y-84.8076
G01 X72.9898 Y-84.8128
G01 X73.0250 Y-84.8145
G01 X73.0602 Y-84.8128
G01 X73.0951 Y-84.8076
G01 X73.1294 Y-84.7990
G01 X73.1626 Y-84.7872
G01 X73.1945 Y-84.7721
G01 X73.2247 Y-84.7539
G01 X73.2531 Y-84.7329
G01 X73.2792 Y-84.7092
G01 X73.3029 Y-84.6831
G01 X73.3239 Y-84.6547
G01 X73.3421 Y-84.6245
G01 X73.3572 Y-84.5926
G01 X73.3690 Y-84.5594
G01 X73.3776 Y-84.5251
G01 X73.3828 Y-84.4902
G01 X73.3845 Y-84.4550
G01 X73.1442 Y-84.4550
G01 X73.1437 Y-84.4433
G01 X73.1419 Y-84.4317
G01 X73.1391 Y-84.4204
G01 X73.1352 Y-84.4094
G01 X73.1302 Y-84.3988
G01 X73.1241 Y-84.3888
G01 X73.1172 Y-84.3794
G01 X73.1093 Y-84.3707
G01 X73.1006 Y-84.3628
G01 X73.0912 Y-84.3559
G01 X73.0812 Y-84.3498
G01 X73.0706 Y-84.3448
G01 X73.0596 Y-84.3409
G01 X73.0483 Y-84.3381
G01 X73.0367 Y-84.3363
G01 X73.0250 Y-84.3358
G01 X73.0133 Y-84.3363
G01 X73.0017 Y-84.3381
G01 X72.9904 Y-84.3409
G01 X72.9794 Y-84.3448
G01 X72.9688 Y-84.3498
G01 X72.9588 Y-84.3559
G01 X72.9494 Y-84.3628
G01 X72.9407 Y-84.3707
G01 X72.9328 Y-84.3794
G01 X72.9259 Y-84.3888
G01 X72.9198 Y-84.3988
G01 X72.9148 Y-84.4094
G01 X72.9109 Y-84.4204
G01 X72.9081 Y-84.4317
G01 X72.9063 Y-84.4433
G01 X72.9058 Y-84.4550
G01 X72.9063 Y-84.4667
G01 X72.9081 Y-84.4783
G01 X72.9109 Y-84.4896
G01 X72.9148 Y-84.5006
G01 X72.9198 Y-84.5112
G01 X72.9259 Y-84.5212
G01 X72.9328 Y-84.5306
G01 X72.9407 Y-84.5393
G01 X72.9494 Y-84.5472
G01 X72.9588 Y-84.5541
G01 X72.9688 Y-84.5602
G01 X72.9794 Y-84.5652
G01 X72.9904 Y-84.5691
G01 X73.0017 Y-84.5719
G01 X73.0133 Y-84.5737
G01 X73.0250 Y-84.5742
G01 X73.0367 Y-84.5737
G01 X73.0483 Y-84.5719
G01 X73.0596 Y-84.5691
G01 X73.0706 Y-84.5652
G01 X73.0812 Y-84.5602
G01 X73.0912 Y-84.5541
G01 X73.1006 Y-84.5472
G01 X73.1093 Y-84.5393
G01 X73.1172 Y-84.5306
G01 X73.1241 Y-84.5212
G01 X73.1302 Y-84.5112
G01 X73.1352 Y-84.5006
G01 X73.1391 Y-84.4896
G01 X73.1419 Y-84.4783
G01 X73.1437 Y-84.4667
G01 X73.1442 Y-84.4550
G00 Z2.0000
G00 X71.0848 Y-84.4550
G01 F60.00
G01 Z-0.3732
G01 F120.00
G01 X71.0819 Y-84.3962
G01 X71.0733 Y-84.3380
G01 X71.0590 Y-84.2809
G01 X71.0392 Y-84.2255
G01 X71.0140 Y-84.1722
G01 X70.9837 Y-84.1218
G01 X70.9487 Y-84.0745
G01 X70.9091 Y-84.0309
G01 X70.8655 Y-83.9913
G01 X70.8182 Y-83.9563
G01 X70.7678 Y-83.9260
G01 X70.7145 Y-83.9008
G01 X70.6591 Y-83.8810
G01 X70.6020 Y-83.8667
G01 X70.5438 Y-83.8581
G01 X70.4850 Y-83.8552
G01 X70.4262 Y-83.8581
G01 X70.3680 Y-83.8667
G01 X70.3109 Y-83.8810
G01 X70.2555 Y-83.9008
G01 X70.2022 Y-83.9260
G01 X70.1518 Y-83.9563
G01 X70.1045 Y-83.9913
G01 X70.0609 Y-84.0309
G01 X70.0213 Y-84.0745
G01 X69.9863 Y-84.1218
G01 X69.9560 Y-84.1722
G01 X69.9308 Y-84.2255
G01 X69.9110 Y-84.2809
G01 X69.8967 Y-84.3380
G01 X69.8881 Y-84.3962
G01 X69.8852 Y-84.4550
G01 X69.8881 Y-84.5138
G01 X69.8967 Y-84.5720
G01 X69.9110 Y-84.6291
G01 X69.9308 Y-84.6845
G01 X69.9560 Y-84.7378
G01 X69.9863 Y-84.7882
G01 X70.0213 Y-84.8355
G01 X70.0609 Y-84.8791
G01 X70.1045 Y-84.9187
G01 X70.1518 Y-84.9537
G01 X70.2022 Y-84.9840
G01 X70.2555 Y-85.0092
G01 X70.3109 Y-85.0290
G01 X70.3680 Y-85.0433
G01 X70.4262 Y-85.0519
G01 X70.4850 Y-85.0548
G01 X70.5438 Y-85.0519
G01 X70.6020 Y-85.0433
G01 X70.6591 Y-85.0290
G01 X70.7145 Y-85.0092
G01 X70.7678 Y-84.9840
G01 X70.8182 Y-84.9537
G01 X70.8655 Y-84.9187
G01 X70.9091 Y-84.8791
G01 X70.9487 Y-84.8355
G01 X70.9837 Y-84.7882
G01 X71.0140 Y-84.7378
G01 X71.0392 Y-84.6845
G01 X71.0590 Y-84.6291
G01 X71.0733 Y-84.5720
G01 X71.0819 Y-84.5138
G01 X71.0848 Y-84.4550
G01 X70.8445 Y-84.4550
G01 X70.8428 Y-84.4198
G01 X70.8376 Y-84.3849
G01 X70.8290 Y-84.3506
G01 X70.8172 Y-84.3174
G01 X70.8021 Y-84.2855
G01 X70.7839 Y-84.2553
G01 X70.7629 Y-84.2269
G01 X70.7392 Y-84.2008
G01 X70.7131 Y-84.1771
G01 X70.6847 Y-84.1561
G01 X70.6545 Y-84.1379
G01 X70.6226 Y-84.1228
G01 X70.5894 Y-84.1110
G01 X70.5551 Y-84.1024
G01 X70.5202 Y-84.0972
G01 X70.4850 Y-84.0955
G01 X70.4498 Y-84.0972
G01 X70.4149 Y-84.1024
G01 X70.3806 Y-84.1110
G01 X70.3474 Y-84.1228
G01 X70.3155 Y-84.1379
G01 X70.2853 Y-84.1561
G01 X70.2569 Y-84.1771
G01 X70.2308 Y-84.2008
G01 X70.2071 Y-84.2269
G01 X70.1861 Y-84.2553
G01 X70.1679 Y-84.2855
G01 X70.1528 Y-84.3174
G01 X70.1410 Y-84.3506
G01 X70.1324 Y-84.3849
G01 X70.1272 Y-84.4198
G01 X70.1255 Y-84.4550
G01 X70.1272 Y-84.4902
G01 X70.1324 Y-84.5251
G01 X70.1410 Y-84.5594
G01 X70.1528 Y-84.5926
G01 X70.1679 Y-84.6245
G01 X70.1861 Y-84.6547
G01 X70.2071 Y-84.6831
G01 X70.2308 Y-84.7092
G01 X70.2569 Y-84.7329
G01 X70.2853 Y-84.7539
G01 X70.3155 Y-84.7721
G01 X70.3474 Y-84.7872
G01 X70.3806 Y-84.7990
G01 X70.4149 Y-84.8076
G01 X70.4498 Y-84.8128
G01 X70.4850 Y-84.8145
G01 X70.5202 Y-84.8128
G01 X70.5551 Y-84.8076
G01 X70.5894 Y-84.7990
G01 X70.6226 Y-84.7872
G01 X70.6545 Y-84.7721
G01 X70.6847 Y-84.7539
G01 X70.7131 Y-84.7329
G01 X70.7392 Y-84.7092
G01 X70.7629 Y-84.6831
G01 X70.7839 Y-84.6547
G01 X70.8021 Y-84.6245
G01 X70.8172 Y-84.5926
G01 X70.8290 Y-84.5594
G01 X70.8376 Y-84.5251
G01 X70.8428 Y-84.4902
G01 X70.8445 Y-84.4550
G01 X70.6042 Y-84.4550
G01 X70.6037 Y-84.4433
G01 X70.6019 Y-84.4317
G01 X70.5991 Y-84.4204
G01 X70.5952 Y-84.4094
G01 X70.5902 Y-84.3988
G01 X70.5841 Y-84.3888
G01 X70.5772 Y-84.3794
G01 X70.5693 Y-84.3707
G01 X70.5606 Y-84.3628
G01 X70.5512 Y-84.3559
G01 X70.5412 Y-84.3498
G01 X70.5306 Y-84.3448
G01 X70.5196 Y-84.3409
G01 X70.5083 Y-84.3381
G01 X70.4967 Y-84.3363
G01 X70.4850 Y-84.3358
G01 X70.4733 Y-84.3363
G01 X70.4617 Y-84.3381
G01 X70.4504 Y-84.3409
G01 X70.4394 Y-84.3448
G01 X70.4288 Y-84.3498
G01 X70.4188 Y-84.3559
G01 X70.4094 Y-84.3628
G01 X70.4007 Y-84.3707
G01 X70.3928 Y-84.3794
G01 X70.3859 Y-84.3888
G01 X70.3798 Y-84.3988
G01 X70.3748 Y-84.4094
G01 X70.3709 Y-84.4204
G01 X70.3681 Y-84.4317
G01 X70.3663 Y-84.4433
G01 X70.3658 Y-84.4550
G01 X70.3663 Y-84.4667
G01 X70.3681 Y-84.4783
G01 X70.3709 Y-84.4896
G01 X70.3748 Y-84.5006
G01 X70.3798 Y-84.5112
G01 X70.3859 Y-84.5212
G01 X70.3928 Y-84.5306
G01 X70.4007 Y-84.5393
G01 X70.4094 Y-84.5472
G01 X70.4188 Y-84.5541
G01 X70.4288 Y-84.5602
G01 X70.4394 Y-84.5652
G01 X70.4504 Y-84.5691
G01 X70.4617 Y-84.5719
G01 X70.4733 Y-84.5737
G01 X70.4850 Y-84.5742
G01 X70.4967 Y-84.5737
G01 X70.5083 Y-84.5719
G01 X70.5196 Y-84.5691
G01 X70.5306 Y-84.5652
G01 X70.5412 Y-84.5602
G01 X70.5512 Y-84.5541
G01 X70.5606 Y-84.5472
G01 X70.5693 Y-84.5393
G01 X70.5772 Y-84.5306
G01 X70.5841 Y-84.5212
G01 X70.5902 Y-84.5112
G01 X70.5952 Y-84.5006
G01 X70.5991 Y-84.4896
G01 X70.6019 Y-84.4783
G01 X70.6037 Y-84.4667
G01 X70.6042 Y-84.4550
G00 Z2.0000
G00 X68.5448 Y-84.4550
G01 F60.00
G01 Z-0.3732
G01 F120.00
G01 X68.5419 Y-84.3962
G01 X68.5333 Y-84.3380
G01 X68.5190 Y-84.2809
G01 X68.4992 Y-84.2255
G01 X68.4740 Y-84.1722
G01 X68.4437 Y-84.1218
G01 X68.4087 Y-84.0745
G01 X68.3691 Y-84.0309
G01 X68.3255 Y-83.9913
G01 X68.2782 Y-83.9563
G01 X68.2278 Y-83.9260
G01 X68.1745 Y-83.9008
G01 X68.1191 Y-83.8810
G01 X68.0620 Y-83.8667
G01 X68.0038 Y-83.8581
G01 X67.9450 Y-83.8552
G01 X67.8862 Y-83.8581
G01 X67.8280 Y-83.8667
G01 X67.7709 Y-83.8810
G01 X67.7155 Y-83.9008
G01 X67.6622 Y-83.9260
G01 X67.6118 Y-83.9563
G01 X67.5645 Y-83.9913
G01 X67.5209 Y-84.0309
G01 X67.4813 Y-84.0745
G01 X67.4463 Y-84.1218
G01 X67.4160 Y-84.1722
G01 X67.3908 Y-84.2255
G01 X67.3710 Y-84.2809
G01 X67.3567 Y-84.3380
G01 X67.3481 Y-84.3962
G01 X67.3452 Y-84.4550
G01 X67.3481 Y-84.5138
G01 X67.3567 Y-84.5720
G01 X67.3710 Y-84.6291
G01 X67.3908 Y-84.6845
G01 X67.4160 Y-84.7378
G01 X67.4463 Y-84.7882
G01 X67.4813 Y-84.8355
G01 X67.5209 Y-84.8791
G01 X67.5645 Y-84.9187
G01 X67.6118 Y-84.9537
G01 X67.6622 Y-84.9840
G01 X67.7155 Y-85.0092
G01 X67.7709 Y-85.0290
G01 X67.8280 Y-85.0433
G01 X67.8862 Y-85.0519
G01 X67.9450 Y-85.0548
G01 X68.0038 Y-85.0519
G01 X68.0620 Y-85.0433
