(G-CODE GENERATED BY FLATCAM v8.994 - www.flatcam.org - Version Date: 2020/11/7)

(Name: HARDWARE-F_Cu.gbr_iso_combined_cnc)
(Type: G-code from Geometry)
(Units: MM)

(Created on Tuesday, 13 July 2021 at 15:52)

(This preprocessor is the default preprocessor used by FlatCAM.)
(It is made to work with MACH3 compatible motion controllers.)

(TOOL DIAMETER: 0.1 mm)
(Feedrate_XY: 120.0 mm/min)
(Feedrate_Z: 60.0 mm/min)
(Feedrate rapids 1500.0 mm/min)

(Z_Cut: -0.0 mm)
(Z_Move: 2.0 mm)
(Z Start: None mm)
(Z End: 15.0 mm)
(X,Y End: None mm)
(Steps per circle: 64)
(Preprocessor Geometry: default)

(X range:    0.9699 ...   55.3252  mm)
(Y range:  -56.6501 ...   -1.3999  mm)

(Spindle Speed: 0.0 RPM)
G21
G90
G94

G01 F120.00

M5
G00 Z15.0000
G00 X0.0000 Y0.0000
T1
M6    
(MSG, Change to Tool Dia = 0.1000)
M0
G00 Z15.0000

M03
G01 F120.00
G00 X0.9699 Y-4.9106
G01 F60.00
G01 Z-0.0000
G01 F120.00
G01 X0.9699 Y-32.3881
G01 X0.9709 Y-32.4163
G01 X0.9730 Y-32.4398
G01 X0.9771 Y-32.4676
G01 X0.9820 Y-32.4907
G01 X0.9892 Y-32.5179
G01 X0.9941 Y-32.5328
G01 X1.0011 Y-32.5519
G01 X1.0103 Y-32.5736
G01 X1.0227 Y-32.5989
G01 X1.0305 Y-32.6126
G01 X1.0453 Y-32.6365
G01 X1.0543 Y-32.6494
G01 X1.0714 Y-32.6718
G01 X1.0817 Y-32.6836
G01 X1.1009 Y-32.7043
G01 X1.1123 Y-32.7151
G01 X1.1274 Y-32.7287
G01 X1.1395 Y-32.7386
G01 X1.1621 Y-32.7554
G01 X1.1752 Y-32.7641
G01 X1.1926 Y-32.7747
G01 X1.2063 Y-32.7824
G01 X1.2203 Y-32.7895
G01 X1.2387 Y-32.7981
G01 X1.2606 Y-32.8068
G01 X1.2797 Y-32.8136
G01 X1.2948 Y-32.8181
G01 X1.3221 Y-32.8250
G01 X1.3375 Y-32.8281
G01 X1.3576 Y-32.8311
G01 X1.3732 Y-32.8331
G01 X1.4013 Y-32.8348
G01 X1.4170 Y-32.8352
G01 X1.4327 Y-32.8348
G01 X1.4608 Y-32.8331
G01 X1.4887 Y-32.8293
G01 X1.5042 Y-32.8266
G01 X1.5195 Y-32.8232
G01 X1.5468 Y-32.8160
G01 X1.5617 Y-32.8110
G01 X1.5808 Y-32.8041
G01 X1.6024 Y-32.7948
G01 X1.6277 Y-32.7824
G01 X1.6414 Y-32.7747
G01 X1.6588 Y-32.7641
G01 X1.6782 Y-32.7508
G01 X1.7006 Y-32.7337
G01 X1.7125 Y-32.7235
G01 X1.7275 Y-32.7097
G01 X1.7440 Y-32.6929
G01 X1.7626 Y-32.6718
G01 X1.7797 Y-32.6494
G01 X1.7887 Y-32.6365
G01 X1.8035 Y-32.6126
G01 X1.8149 Y-32.5919
G01 X1.8237 Y-32.5736
G01 X1.8300 Y-32.5592
G01 X1.8688 Y-32.4656
G01 X1.9542 Y-32.3378
G01 X2.0628 Y-32.2292
G01 X2.1906 Y-32.1438
G01 X2.3325 Y-32.0850
G01 X2.4832 Y-32.0551
G01 X2.6368 Y-32.0551
G01 X2.7875 Y-32.0850
G01 X2.9294 Y-32.1438
G01 X3.0572 Y-32.2292
G01 X3.1658 Y-32.3378
G01 X3.2512 Y-32.4656
G01 X3.3100 Y-32.6075
G01 X3.3399 Y-32.7582
G01 X3.3399 Y-32.9118
G01 X3.3235 Y-32.9943
G01 X3.3190 Y-33.0221
G01 X3.3164 Y-33.0455
G01 X3.3153 Y-33.0658
G01 X3.3149 Y-33.0815
G01 X3.3149 Y-36.1471
G01 X3.3153 Y-36.1628
G01 X3.3164 Y-36.1831
G01 X3.3180 Y-36.1987
G01 X3.3208 Y-36.2189
G01 X3.3235 Y-36.2343
G01 X3.3270 Y-36.2497
G01 X3.3320 Y-36.2693
G01 X3.3366 Y-36.2844
G01 X3.3461 Y-36.3109
G01 X3.3553 Y-36.3326
G01 X3.3677 Y-36.3579
G01 X3.3819 Y-36.3822
G01 X3.3947 Y-36.4020
G01 X3.4115 Y-36.4246
G01 X3.4215 Y-36.4367
G01 X3.4404 Y-36.4576
G01 X4.6524 Y-37.6696
G01 X4.6674 Y-37.6833
G01 X4.6793 Y-37.6936
G01 X4.7017 Y-37.7107
G01 X4.7145 Y-37.7197
G01 X4.7278 Y-37.7281
G01 X4.7521 Y-37.7423
G01 X4.7774 Y-37.7547
G01 X4.7918 Y-37.7610
G01 X4.8065 Y-37.7667
G01 X4.8331 Y-37.7758
G01 X4.8603 Y-37.7830
G01 X4.8757 Y-37.7865
G01 X4.8911 Y-37.7892
G01 X4.9191 Y-37.7929
G01 X4.9347 Y-37.7941
G01 X4.9550 Y-37.7950
G01 X5.2004 Y-37.7951
G01 X5.2161 Y-37.7947
G01 X5.2442 Y-37.7929
G01 X5.2598 Y-37.7910
G01 X5.2876 Y-37.7865
G01 X5.3150 Y-37.7800
G01 X5.3301 Y-37.7758
G01 X5.3451 Y-37.7709
G01 X5.3714 Y-37.7610
G01 X5.3858 Y-37.7547
G01 X5.4041 Y-37.7459
G01 X5.4248 Y-37.7345
G01 X5.4487 Y-37.7197
G01 X5.4716 Y-37.7032
G01 X5.4900 Y-37.6885
G01 X5.5051 Y-37.6750
G01 X5.5165 Y-37.6641
G01 X5.5845 Y-37.5961
G01 X5.6037 Y-37.5755
G01 X5.6189 Y-37.5575
G01 X5.6356 Y-37.5349
G01 X5.6444 Y-37.5218
G01 X5.6589 Y-37.4976
G01 X5.6663 Y-37.4838
G01 X5.6783 Y-37.4583
G01 X5.6843 Y-37.4438
G01 X5.6913 Y-37.4247
G01 X5.6984 Y-37.4022
G01 X5.7052 Y-37.3749
G01 X5.7083 Y-37.3595
G01 X5.7124 Y-37.3316
G01 X5.7139 Y-37.3160
G01 X5.7153 Y-37.2879
G01 X5.7153 Y-37.2721
G01 X5.7139 Y-37.2440
G01 X5.7124 Y-37.2284
G01 X5.7083 Y-37.2005
G01 X5.7052 Y-37.1851
G01 X5.6984 Y-37.1578
G01 X5.6938 Y-37.1427
G01 X5.6843 Y-37.1162
G01 X5.6783 Y-37.1017
G01 X5.6697 Y-37.0833
G01 X5.6589 Y-37.0624
G01 X5.6485 Y-37.0449
G01 X5.6401 Y-37.0316
G01 X5.6236 Y-37.0088
G01 X5.6089 Y-36.9904
G01 X5.5953 Y-36.9753
G01 X5.5845 Y-36.9639
G01 X5.4146 Y-36.7940
G01 X5.2800 Y-36.5926
G01 X5.1873 Y-36.3688
G01 X5.1401 Y-36.1311
G01 X5.1401 Y-35.8889
G01 X5.1873 Y-35.6512
G01 X5.2800 Y-35.4274
G01 X5.4146 Y-35.2260
G01 X5.5860 Y-35.0546
G01 X5.7920 Y-34.9168
G01 X5.8085 Y-34.9047
G01 X5.8210 Y-34.8950
G01 X5.8422 Y-34.8762
G01 X5.8537 Y-34.8653
G01 X5.8645 Y-34.8539
G01 X5.8832 Y-34.8326
G01 X5.9004 Y-34.8100
G01 X5.9138 Y-34.7904
G01 X5.9283 Y-34.7661
G01 X5.9391 Y-34.7450
G01 X5.9508 Y-34.7192
G01 X5.9613 Y-34.6905
G01 X6.0555 Y-34.5963
G01 X6.1264 Y-34.6141
G01 X6.1417 Y-34.6175
G01 X6.1572 Y-34.6202
G01 X6.2397 Y-34.6324
G01 X6.2553 Y-34.6344
G01 X6.2710 Y-34.6355
G01 X6.3543 Y-34.6396
G01 X6.3700 Y-34.6400
G01 X6.3857 Y-34.6396
G01 X6.4690 Y-34.6355
G01 X6.4847 Y-34.6344
G01 X6.5003 Y-34.6324
G01 X6.5828 Y-34.6202
G01 X6.5983 Y-34.6175
G01 X6.6136 Y-34.6141
G01 X6.6843 Y-34.5964
G01 X6.7789 Y-34.6912
G01 X6.7892 Y-34.7192
G01 X6.8009 Y-34.7450
G01 X6.8117 Y-34.7661
G01 X6.8262 Y-34.7904
G01 X6.8396 Y-34.8100
G01 X6.8568 Y-34.8326
G01 X6.8755 Y-34.8539
G01 X6.8920 Y-34.8708
G01 X6.9071 Y-34.8847
G01 X6.9190 Y-34.8950
G01 X6.9315 Y-34.9047
G01 X6.9480 Y-34.9168
G01 X7.1540 Y-35.0546
G01 X7.3239 Y-35.2245
G01 X7.3445 Y-35.2437
G01 X7.3625 Y-35.2589
G01 X7.3788 Y-35.2710
G01 X7.3916 Y-35.2801
G01 X7.4049 Y-35.2885
G01 X7.4293 Y-35.3026
G01 X7.4433 Y-35.3097
G01 X7.4617 Y-35.3183
G01 X7.4762 Y-35.3243
G01 X7.4953 Y-35.3313
G01 X7.5102 Y-35.3362
G01 X7.5254 Y-35.3404
G01 X7.5451 Y-35.3452
G01 X7.5605 Y-35.3483
G01 X7.5806 Y-35.3514
G01 X7.5962 Y-35.3533
G01 X7.6243 Y-35.3550
G01 X7.6400 Y-35.3554
G01 X7.6682 Y-35.3544
G01 X7.6838 Y-35.3533
G01 X7.6994 Y-35.3514
G01 X7.7195 Y-35.3483
G01 X7.7349 Y-35.3452
G01 X7.7546 Y-35.3404
G01 X7.7698 Y-35.3362
G01 X7.7847 Y-35.3313
G01 X7.8038 Y-35.3243
G01 X7.8183 Y-35.3183
G01 X7.8367 Y-35.3097
G01 X7.8507 Y-35.3026
G01 X7.8751 Y-35.2885
G01 X7.8884 Y-35.2801
G01 X7.9012 Y-35.2710
G01 X7.9175 Y-35.2589
G01 X7.9355 Y-35.2437
G01 X7.9561 Y-35.2245
G01 X8.1260 Y-35.0546
G01 X8.3320 Y-34.9168
G01 X8.3485 Y-34.9047
G01 X8.3610 Y-34.8950
G01 X8.3729 Y-34.8847
G01 X8.3880 Y-34.8708
G01 X8.4045 Y-34.8539
G01 X8.4232 Y-34.8326
G01 X8.4404 Y-34.8100
G01 X8.4538 Y-34.7904
G01 X8.4683 Y-34.7661
G01 X8.4791 Y-34.7450
G01 X8.4908 Y-34.7192
G01 X8.5013 Y-34.6905
G01 X8.5955 Y-34.5963
G01 X8.6664 Y-34.6141
G01 X8.6817 Y-34.6175
G01 X8.6972 Y-34.6202
G01 X8.7797 Y-34.6324
G01 X8.7953 Y-34.6344
G01 X8.8110 Y-34.6355
G01 X8.8943 Y-34.6396
G01 X8.9100 Y-34.6400
G01 X8.9257 Y-34.6396
G01 X9.0090 Y-34.6355
G01 X9.0247 Y-34.6344
G01 X9.0403 Y-34.6324
G01 X9.1228 Y-34.6202
G01 X9.1383 Y-34.6175
G01 X9.1536 Y-34.6141
G01 X9.2243 Y-34.5964
G01 X9.3189 Y-34.6912
G01 X9.3292 Y-34.7192
G01 X9.3409 Y-34.7450
G01 X9.3517 Y-34.7661
G01 X9.3662 Y-34.7904
G01 X9.3796 Y-34.8100
G01 X9.3968 Y-34.8326
G01 X9.4155 Y-34.8539
G01 X9.4263 Y-34.8653
G01 X9.4378 Y-34.8762
G01 X9.4590 Y-34.8950
G01 X9.4715 Y-34.9047
G01 X9.4880 Y-34.9168
G01 X9.6940 Y-35.0546
G01 X9.8654 Y-35.2260
G01 X10.0000 Y-35.4274
G01 X10.0927 Y-35.6512
G01 X10.1399 Y-35.8889
G01 X10.1399 Y-36.1311
G01 X10.0927 Y-36.3688
G01 X10.0000 Y-36.5926
G01 X9.8654 Y-36.7940
G01 X9.6900 Y-36.9695
G01 X9.6711 Y-36.9904
G01 X9.6564 Y-37.0088
G01 X9.6444 Y-37.0251
G01 X9.6356 Y-37.0382
G01 X9.6251 Y-37.0556
G01 X9.6174 Y-37.0693
G01 X9.6103 Y-37.0833
G01 X9.6017 Y-37.1017
G01 X9.5957 Y-37.1162
G01 X9.5887 Y-37.1353
G01 X9.5838 Y-37.1502
G01 X9.5796 Y-37.1654
G01 X9.5748 Y-37.1851
G01 X9.5705 Y-37.2083
G01 X9.5676 Y-37.2284
G01 X9.5661 Y-37.2440
G01 X9.5647 Y-37.2721
G01 X9.5647 Y-37.2879
G01 X9.5656 Y-37.3082
G01 X9.5667 Y-37.3238
G01 X9.5686 Y-37.3394
G01 X9.5732 Y-37.3672
G01 X9.5796 Y-37.3946
G01 X9.5838 Y-37.4098
G01 X9.5887 Y-37.4247
G01 X9.5986 Y-37.4511
G01 X9.6050 Y-37.4654
G01 X9.6137 Y-37.4838
G01 X9.6251 Y-37.5044
G01 X9.6399 Y-37.5284
G01 X9.6490 Y-37.5412
G01 X9.6611 Y-37.5575
G01 X9.6711 Y-37.5696
G01 X9.6900 Y-37.5905
G01 X9.7635 Y-37.6641
G01 X9.7749 Y-37.6750
G01 X9.7960 Y-37.6936
G01 X9.8184 Y-37.7107
G01 X9.8378 Y-37.7240
G01 X9.8620 Y-37.7385
G01 X9.8829 Y-37.7493
G01 X9.9086 Y-37.7610
G01 X9.9349 Y-37.7709
G01 X9.9574 Y-37.7780
G01 X9.9847 Y-37.7848
G01 X10.0079 Y-37.7892
G01 X10.0358 Y-37.7929
G01 X10.0639 Y-37.7947
G01 X10.0796 Y-37.7951
G01 X10.3171 Y-37.7951
G01 X10.3328 Y-37.7947
G01 X10.3609 Y-37.7929
G01 X10.3889 Y-37.7892
G01 X10.4120 Y-37.7848
G01 X10.4393 Y-37.7780
G01 X10.4618 Y-37.7709
G01 X10.4882 Y-37.7610
G01 X10.5138 Y-37.7493
G01 X10.5347 Y-37.7385
G01 X10.5589 Y-37.7240
G01 X10.5783 Y-37.7107
G01 X10.6007 Y-37.6936
G01 X10.6219 Y-37.6750
G01 X10.6332 Y-37.6641
G01 X11.8396 Y-36.4576
G01 X11.8585 Y-36.4367
G01 X11.8685 Y-36.4246
G01 X11.8853 Y-36.4020
G01 X11.8981 Y-36.3822
G01 X11.9123 Y-36.3579
G01 X11.9247 Y-36.3326
G01 X11.9340 Y-36.3109
G01 X11.9434 Y-36.2844
G01 X11.9480 Y-36.2693
G01 X11.9530 Y-36.2497
G01 X11.9565 Y-36.2343
G01 X11.9592 Y-36.2189
G01 X11.9620 Y-36.1987
G01 X11.9636 Y-36.1831
G01 X11.9647 Y-36.1628
G01 X11.9651 Y-36.1471
G01 X11.9651 Y-33.7165
G01 X11.9647 Y-33.7008
G01 X11.9636 Y-33.6805
G01 X11.9610 Y-33.6571
G01 X11.9565 Y-33.6293
G01 X11.9401 Y-33.5468
G01 X11.9401 Y-33.3932
G01 X11.9700 Y-33.2425
G01 X12.0288 Y-33.1006
G01 X12.1142 Y-32.9728
G01 X12.2228 Y-32.8642
G01 X12.3506 Y-32.7788
G01 X12.4925 Y-32.7200
G01 X12.6432 Y-32.6901
G01 X12.7968 Y-32.6901
G01 X12.9475 Y-32.7200
G01 X13.0893 Y-32.7788
G01 X13.2175 Y-32.8645
G01 X13.3258 Y-32.9728
G01 X13.4112 Y-33.1006
G01 X13.4700 Y-33.2425
G01 X13.4999 Y-33.3932
G01 X13.4999 Y-33.5468
G01 X13.4835 Y-33.6293
G01 X13.4790 Y-33.6571
G01 X13.4764 Y-33.6805
G01 X13.4753 Y-33.7008
G01 X13.4749 Y-33.7165
G01 X13.4749 Y-36.5860
G01 X13.4753 Y-36.6017
G01 X13.4764 Y-36.6220
G01 X13.4786 Y-36.6450
G01 X13.4640 Y-36.7930
G01 X13.4208 Y-36.9353
G01 X13.3507 Y-37.0664
G01 X13.2564 Y-37.1814
G01 X13.2386 Y-37.1962
G01 X13.2235 Y-37.2097
G01 X13.2121 Y-37.2206
G01 X11.3906 Y-39.0421
G01 X11.3797 Y-39.0534
G01 X11.3662 Y-39.0686
G01 X11.3514 Y-39.0864
G01 X11.2364 Y-39.1807
G01 X11.1053 Y-39.2508
G01 X10.9630 Y-39.2940
G01 X10.8150 Y-39.3086
G01 X10.7920 Y-39.3064
G01 X10.7717 Y-39.3053
G01 X10.7560 Y-39.3049
G01 X10.0796 Y-39.3049
G01 X10.0639 Y-39.3053
G01 X10.0358 Y-39.3071
G01 X10.0202 Y-39.3090
G01 X10.0001 Y-39.3121
G01 X9.9847 Y-39.3152
G01 X9.9650 Y-39.3200
G01 X9.9424 Y-39.3266
G01 X9.9232 Y-39.3333
G01 X9.9086 Y-39.3390
G01 X9.8942 Y-39.3453
G01 X9.8759 Y-39.3541
G01 X9.8552 Y-39.3655
G01 X9.8378 Y-39.3760
G01 X9.8248 Y-39.3847
G01 X9.8084 Y-39.3968
G01 X9.7960 Y-39.4064
G01 X9.7841 Y-39.4167
G01 X9.7691 Y-39.4304
G01 X9.6900 Y-39.5095
G01 X9.6763 Y-39.5245
G01 X9.6661 Y-39.5364
G01 X9.6564 Y-39.5488
G01 X9.6444 Y-39.5651
G01 X9.6356 Y-39.5782
G01 X9.6211 Y-39.6024
G01 X9.6137 Y-39.6162
G01 X9.6017 Y-39.6417
G01 X9.5957 Y-39.6562
G01 X9.5862 Y-39.6827
G01 X9.5816 Y-39.6978
G01 X9.5766 Y-39.7175
G01 X9.5717 Y-39.7405
G01 X9.5676 Y-39.7684
G01 X9.5661 Y-39.7840
G01 X9.5647 Y-39.8121
G01 X9.5647 Y-39.8279
G01 X9.5661 Y-39.8560
G01 X9.5676 Y-39.8716
G01 X9.5717 Y-39.8995
G01 X9.5748 Y-39.9149
G01 X9.5816 Y-39.9422
G01 X9.5862 Y-39.9573
G01 X9.5957 Y-39.9838
G01 X9.6017 Y-39.9983
G01 X9.6137 Y-40.0238
G01 X9.6211 Y-40.0376
G01 X9.6356 Y-40.0618
G01 X9.6444 Y-40.0749
G01 X9.6564 Y-40.0912
G01 X9.6661 Y-40.1036
G01 X9.6763 Y-40.1155
G01 X9.6955 Y-40.1361
G01 X9.7635 Y-40.2041
G01 X9.7749 Y-40.2150
G01 X9.7960 Y-40.2336
G01 X9.8184 Y-40.2507
G01 X9.8378 Y-40.2640
G01 X9.8552 Y-40.2745
G01 X9.8689 Y-40.2823
G01 X9.8942 Y-40.2947
G01 X9.9158 Y-40.3039
G01 X9.9349 Y-40.3109
G01 X9.9499 Y-40.3158
G01 X9.9650 Y-40.3200
G01 X9.9847 Y-40.3248
G01 X10.0079 Y-40.3292
G01 X10.0358 Y-40.3329
G01 X10.0515 Y-40.3341
G01 X10.0718 Y-40.3350
G01 X17.5535 Y-40.3351
G01 X17.5692 Y-40.3347
G01 X17.5895 Y-40.3336
G01 X17.6129 Y-40.3310
G01 X17.6407 Y-40.3265
G01 X17.7232 Y-40.3101
G01 X17.8768 Y-40.3101
G01 X18.0275 Y-40.3400
G01 X18.1694 Y-40.3988
G01 X18.2972 Y-40.4842
G01 X18.4058 Y-40.5928
G01 X18.4912 Y-40.7206
G01 X18.5500 Y-40.8625
G01 X18.5799 Y-41.0132
G01 X18.5799 Y-41.1668
G01 X18.5500 Y-41.3175
G01 X18.4912 Y-41.4594
G01 X18.4058 Y-41.5872
G01 X18.2972 Y-41.6958
G01 X18.1694 Y-41.7812
G01 X18.0275 Y-41.8400
G01 X17.8768 Y-41.8699
G01 X17.7232 Y-41.8699
G01 X17.6407 Y-41.8535
G01 X17.6129 Y-41.8490
G01 X17.5895 Y-41.8464
G01 X17.5692 Y-41.8453
G01 X17.5535 Y-41.8449
G01 X10.0796 Y-41.8449
G01 X10.0639 Y-41.8453
G01 X10.0436 Y-41.8464
G01 X10.0202 Y-41.8490
G01 X9.9924 Y-41.8535
G01 X9.9771 Y-41.8570
G01 X9.9574 Y-41.8620
G01 X9.9349 Y-41.8691
G01 X9.9086 Y-41.8790
G01 X9.8942 Y-41.8853
G01 X9.8759 Y-41.8941
G01 X9.8552 Y-41.9055
G01 X9.8313 Y-41.9203
G01 X9.8184 Y-41.9293
G01 X9.8022 Y-41.9415
G01 X9.7841 Y-41.9567
G01 X9.7635 Y-41.9759
G01 X9.6955 Y-42.0439
G01 X9.6847 Y-42.0553
G01 X9.6711 Y-42.0704
G01 X9.6564 Y-42.0888
G01 X9.6444 Y-42.1051
G01 X9.6356 Y-42.1182
G01 X9.6251 Y-42.1356
G01 X9.6174 Y-42.1493
G01 X9.6050 Y-42.1746
G01 X9.5957 Y-42.1962
G01 X9.5887 Y-42.2153
G01 X9.5838 Y-42.2302
G01 X9.5796 Y-42.2454
G01 X9.5748 Y-42.2651
G01 X9.5705 Y-42.2883
G01 X9.5667 Y-42.3162
G01 X9.5656 Y-42.3318
G01 X9.5647 Y-42.3521
G01 X9.5647 Y-42.3679
G01 X9.5656 Y-42.3882
G01 X9.5676 Y-42.4116
G01 X9.5705 Y-42.4317
G01 X9.5732 Y-42.4472
G01 X9.5796 Y-42.4746
G01 X9.5862 Y-42.4973
G01 X9.5930 Y-42.5164
G01 X9.5986 Y-42.5311
G01 X9.6103 Y-42.5567
G01 X9.6211 Y-42.5776
G01 X9.6315 Y-42.5951
G01 X9.6399 Y-42.6084
G01 X9.6564 Y-42.6312
G01 X9.6711 Y-42.6496
G01 X9.6900 Y-42.6705
G01 X9.7635 Y-42.7441
G01 X9.7749 Y-42.7550
G01 X9.7900 Y-42.7685
G01 X9.8084 Y-42.7832
G01 X9.8313 Y-42.7997
G01 X9.8552 Y-42.8145
G01 X9.8759 Y-42.8259
G01 X9.8942 Y-42.8347
G01 X9.9086 Y-42.8410
G01 X9.9349 Y-42.8509
G01 X9.9574 Y-42.8580
G01 X9.9771 Y-42.8630
G01 X9.9924 Y-42.8665
G01 X10.0202 Y-42.8710
G01 X10.0436 Y-42.8736
G01 X10.0718 Y-42.8750
G01 X20.4771 Y-42.8751
G01 X20.5053 Y-42.8741
G01 X20.5287 Y-42.8720
G01 X20.5566 Y-42.8679
G01 X20.5797 Y-42.8630
G01 X20.6069 Y-42.8558
G01 X20.6218 Y-42.8509
G01 X20.6409 Y-42.8439
G01 X20.6626 Y-42.8347
G01 X20.6879 Y-42.8223
G01 X20.7015 Y-42.8145
G01 X20.7189 Y-42.8040
G01 X20.7320 Y-42.7953
G01 X20.7483 Y-42.7832
G01 X20.7667 Y-42.7685
G01 X20.7819 Y-42.7550
G01 X20.7932 Y-42.7441
G01 X22.6346 Y-40.9026
G01 X22.6483 Y-40.8876
G01 X22.6586 Y-40.8757
G01 X22.6682 Y-40.8633
G01 X22.6803 Y-40.8470
G01 X22.6890 Y-40.8339
G01 X22.6995 Y-40.8165
G01 X22.7073 Y-40.8029
G01 X22.7143 Y-40.7888
G01 X22.7229 Y-40.7704
G01 X22.7289 Y-40.7559
G01 X22.7359 Y-40.7368
G01 X22.7408 Y-40.7219
G01 X22.7450 Y-40.7068
G01 X22.7515 Y-40.6793
G01 X22.7542 Y-40.6639
G01 X22.7570 Y-40.6437
G01 X22.7591 Y-40.6203
G01 X22.7601 Y-40.5921
G01 X22.7601 Y-34.9399
G01 X22.7597 Y-34.9242
G01 X22.7586 Y-34.9039
G01 X22.7570 Y-34.8882
G01 X22.7542 Y-34.8681
G01 X22.7515 Y-34.8526
G01 X22.7480 Y-34.8373
G01 X22.7430 Y-34.8176
G01 X22.7384 Y-34.8026
G01 X22.7317 Y-34.7834
G01 X22.7260 Y-34.7688
G01 X22.7143 Y-34.7431
G01 X22.7035 Y-34.7222
G01 X22.6931 Y-34.7048
G01 X22.6847 Y-34.6915
G01 X22.6757 Y-34.6786
G01 X22.6635 Y-34.6624
G01 X22.6483 Y-34.6444
G01 X22.6291 Y-34.6237
G01 X22.6177 Y-34.6129
G01 X22.6026 Y-34.5993
G01 X22.5905 Y-34.5894
G01 X22.5742 Y-34.5772
G01 X22.5548 Y-34.5639
G01 X22.5374 Y-34.5533
G01 X22.5237 Y-34.5456
G01 X22.4984 Y-34.5332
G01 X22.4768 Y-34.5239
G01 X22.4577 Y-34.5170
G01 X22.4428 Y-34.5120
G01 X22.4155 Y-34.5048
G01 X22.3925 Y-34.4999
G01 X22.3646 Y-34.4958
G01 X22.3490 Y-34.4943
G01 X22.3209 Y-34.4929
G01 X22.3051 Y-34.4929
G01 X22.2770 Y-34.4943
G01 X22.2614 Y-34.4958
G01 X22.2335 Y-34.4999
G01 X22.2181 Y-34.5030
G01 X22.1984 Y-34.5079
G01 X22.1832 Y-34.5120
G01 X22.1683 Y-34.5170
G01 X22.1492 Y-34.5239
G01 X21.9542 Y-34.6046
G01 X21.7262 Y-34.6499
G01 X21.4938 Y-34.6499
G01 X21.2658 Y-34.6046
G01 X21.0511 Y-34.5156
G01 X20.8578 Y-34.3865
G01 X20.6935 Y-34.2222
G01 X20.5644 Y-34.0289
G01 X20.4754 Y-33.8142
G01 X20.4301 Y-33.5862
G01 X20.4301 Y-33.3538
G01 X20.4754 Y-33.1258
G01 X20.5644 Y-32.9111
G01 X20.6935 Y-32.7178
G01 X20.8578 Y-32.5535
G01 X21.0116 Y-32.4506
G01 X21.0348 Y-32.4334
G01 X21.0532 Y-32.4178
G01 X21.0743 Y-32.3980
G01 X21.0853 Y-32.3863
G01 X21.0991 Y-32.3707
G01 X21.1141 Y-32.3517
G01 X21.1307 Y-32.3282
G01 X21.1392 Y-32.3145
G01 X21.1534 Y-32.2893
G01 X21.1658 Y-32.2633
G01 X21.1721 Y-32.2484
G01 X21.1818 Y-32.2212
G01 X21.1866 Y-32.2059
G01 X21.1935 Y-32.1778
G01 X21.1980 Y-32.1541
G01 X21.2017 Y-32.1255
G01 X21.2029 Y-32.1094
G01 X21.2036 Y-32.0806
G01 X21.2033 Y-32.0645
G01 X21.2011 Y-32.0357
G01 X21.1991 Y-32.0197
G01 X21.1940 Y-31.9913
G01 X21.1883 Y-31.9675
G01 X21.2700 Y-31.9968
G01 X21.2849 Y-32.0018
G01 X21.3000 Y-32.0060
G01 X21.3762 Y-32.0250
G01 X21.3915 Y-32.0285
G01 X21.4070 Y-32.0312
G01 X21.4846 Y-32.0427
G01 X21.5002 Y-32.0446
G01 X21.5159 Y-32.0458
G01 X21.5943 Y-32.0496
G01 X21.6100 Y-32.0500
G01 X21.6257 Y-32.0496
G01 X21.7041 Y-32.0458
G01 X21.7198 Y-32.0446
G01 X21.7354 Y-32.0427
G01 X21.8130 Y-32.0312
G01 X21.8285 Y-32.0285
G01 X21.8438 Y-32.0250
G01 X21.9200 Y-32.0060
G01 X21.9351 Y-32.0018
G01 X21.9500 Y-31.9968
G01 X22.0240 Y-31.9704
G01 X22.0386 Y-31.9647
G01 X22.0530 Y-31.9584
G01 X22.1239 Y-31.9248
G01 X22.1380 Y-31.9178
G01 X22.1516 Y-31.9100
G01 X22.2190 Y-31.8696
G01 X22.2322 Y-31.8612
G01 X22.2451 Y-31.8522
G01 X22.3081 Y-31.8054
G01 X22.3205 Y-31.7958
G01 X22.3324 Y-31.7855
G01 X22.3906 Y-31.7328
G01 X22.4020 Y-31.7220
G01 X22.4128 Y-31.7106
G01 X22.4655 Y-31.6524
G01 X22.4758 Y-31.6405
G01 X22.4854 Y-31.6281
G01 X22.5322 Y-31.5651
G01 X22.5412 Y-31.5522
G01 X22.5496 Y-31.5390
G01 X22.5900 Y-31.4716
G01 X22.5978 Y-31.4580
G01 X22.6048 Y-31.4439
G01 X22.6384 Y-31.3730
G01 X22.6447 Y-31.3586
G01 X22.6504 Y-31.3440
G01 X22.6768 Y-31.2700
G01 X22.6818 Y-31.2551
G01 X22.6860 Y-31.2400
G01 X22.7050 Y-31.1638
G01 X22.7085 Y-31.1485
G01 X22.7112 Y-31.1330
G01 X22.7227 Y-31.0554
G01 X22.7246 Y-31.0398
G01 X22.7258 Y-31.0241
G01 X22.7296 Y-30.9457
G01 X22.7300 Y-30.9300
G01 X22.7296 Y-30.9143
G01 X22.7258 Y-30.8359
G01 X22.7246 Y-30.8202
G01 X22.7227 Y-30.8046
G01 X22.7112 Y-30.7270
G01 X22.7069 Y-30.7038
G01 X22.6860 Y-30.6200
G01 X22.6818 Y-30.6049
G01 X22.6768 Y-30.5900
G01 X22.6504 Y-30.5160
G01 X22.6447 Y-30.5014
G01 X22.6384 Y-30.4870
G01 X22.6048 Y-30.4161
G01 X22.5978 Y-30.4020
G01 X22.5900 Y-30.3884
G01 X22.5496 Y-30.3210
G01 X22.5368 Y-30.3013
G01 X22.4854 Y-30.2319
G01 X22.4758 Y-30.2195
G01 X22.4655 Y-30.2076
G01 X22.4128 Y-30.1494
G01 X22.3963 Y-30.1326
G01 X22.3324 Y-30.0745
G01 X22.3144 Y-30.0593
G01 X22.2387 Y-30.0032
G01 X22.2257 Y-29.9945
G01 X22.1841 Y-29.9694
G01 X22.1841 Y-29.3506
G01 X22.2257 Y-29.3255
G01 X22.2387 Y-29.3168
G01 X22.3081 Y-29.2654
G01 X22.3265 Y-29.2507
G01 X22.3906 Y-29.1928
G01 X22.4020 Y-29.1820
G01 X22.4128 Y-29.1706
G01 X22.4707 Y-29.1065
G01 X22.4854 Y-29.0881
G01 X22.5322 Y-29.0251
G01 X22.5412 Y-29.0122
G01 X22.5496 Y-28.9990
G01 X22.5900 Y-28.9316
G01 X22.5978 Y-28.9180
G01 X22.6048 Y-28.9039
G01 X22.6384 Y-28.8330
G01 X22.6477 Y-28.8113
G01 X22.6768 Y-28.7300
G01 X22.6818 Y-28.7151
G01 X22.6860 Y-28.7000
G01 X22.7050 Y-28.6238
G01 X22.7085 Y-28.6085
G01 X22.7112 Y-28.5930
G01 X22.7227 Y-28.5154
G01 X22.7246 Y-28.4998
G01 X22.7258 Y-28.4841
G01 X22.7296 Y-28.4057
G01 X22.7299 Y-28.3821
G01 X22.7258 Y-28.2959
G01 X22.7246 Y-28.2802
G01 X22.7227 Y-28.2646
G01 X22.7112 Y-28.1870
G01 X22.7085 Y-28.1715
G01 X22.7050 Y-28.1562
G01 X22.6860 Y-28.0800
G01 X22.6818 Y-28.0649
G01 X22.6768 Y-28.0500
G01 X22.6504 Y-27.9760
G01 X22.6447 Y-27.9614
G01 X22.6384 Y-27.9470
G01 X22.6048 Y-27.8761
G01 X22.5978 Y-27.8620
G01 X22.5900 Y-27.8484
G01 X22.5496 Y-27.7810
G01 X22.5412 Y-27.7678
G01 X22.5322 Y-27.7549
G01 X22.4854 Y-27.6919
G01 X22.4707 Y-27.6735
G01 X22.4128 Y-27.6094
G01 X22.4020 Y-27.5980
G01 X22.3906 Y-27.5872
G01 X22.3324 Y-27.5345
G01 X22.3205 Y-27.5242
G01 X22.3081 Y-27.5146
G01 X22.2451 Y-27.4678
G01 X22.2322 Y-27.4588
G01 X22.2190 Y-27.4504
G01 X22.1516 Y-27.4100
G01 X22.1380 Y-27.4022
G01 X22.1239 Y-27.3952
G01 X22.0530 Y-27.3616
G01 X22.0386 Y-27.3553
G01 X22.0240 Y-27.3496
G01 X21.9426 Y-27.3206
G01 X21.9200 Y-27.3140
G01 X21.8438 Y-27.2950
G01 X21.8285 Y-27.2915
G01 X21.8130 Y-27.2888
G01 X21.7354 Y-27.2773
G01 X21.7198 Y-27.2754
G01 X21.7041 Y-27.2742
G01 X21.6257 Y-27.2704
G01 X21.6100 Y-27.2700
G01 X21.5943 Y-27.2704
G01 X21.5159 Y-27.2742
G01 X21.5002 Y-27.2754
G01 X21.4846 Y-27.2773
G01 X21.4070 Y-27.2888
G01 X21.3915 Y-27.2915
G01 X21.3762 Y-27.2950
G01 X21.3000 Y-27.3140
G01 X21.2849 Y-27.3182
G01 X21.2700 Y-27.3232
G01 X21.1960 Y-27.3496
G01 X21.1814 Y-27.3553
G01 X21.1670 Y-27.3616
G01 X21.0961 Y-27.3952
G01 X21.0820 Y-27.4022
G01 X21.0684 Y-27.4100
G01 X21.0010 Y-27.4504
G01 X20.9881 Y-27.4585
G01 X20.9888 Y-27.4397
G01 X20.9883 Y-27.4108
G01 X20.9872 Y-27.3947
G01 X20.9849 Y-27.3740
G01 X20.9811 Y-27.3501
G01 X20.9767 Y-27.3298
G01 X20.9728 Y-27.3141
G01 X20.9682 Y-27.2987
G01 X20.9615 Y-27.2789
G01 X20.9557 Y-27.2639
G01 X20.9439 Y-27.2375
G01 X20.9366 Y-27.2231
G01 X20.9263 Y-27.2050
G01 X20.9180 Y-27.1912
G01 X20.9015 Y-27.1675
G01 X20.8917 Y-27.1546
G01 X20.8814 Y-27.1423
G01 X20.8675 Y-27.1267
G01 X20.8563 Y-27.1151
G01 X20.8411 Y-27.1009
G01 X20.8227 Y-27.0851
G01 X20.8062 Y-27.0725
G01 X20.7931 Y-27.0631
G01 X20.7795 Y-27.0543
G01 X20.7616 Y-27.0436
G01 X20.7402 Y-27.0324
G01 X20.7214 Y-27.0235
G01 X20.7065 Y-27.0173
G01 X20.6793 Y-27.0075
G01 X20.6639 Y-27.0027
G01 X20.5979 Y-26.9674
G01 X20.5400 Y-26.9200
G01 X20.4926 Y-26.8621
G01 X20.4573 Y-26.7961
G01 X20.4356 Y-26.7245
G01 X20.4261 Y-26.6280
G01 X20.4261 Y-26.0059
G01 X20.4257 Y-25.9902
G01 X20.4239 Y-25.9621
G01 X20.4202 Y-25.9341
G01 X20.4175 Y-25.9187
G01 X20.4140 Y-25.9033
G01 X20.4068 Y-25.8761
G01 X20.4019 Y-25.8612
G01 X20.3920 Y-25.8348
G01 X20.3803 Y-25.8092
G01 X20.3695 Y-25.7883
G01 X20.3591 Y-25.7708
G01 X20.3507 Y-25.7575
G01 X20.3417 Y-25.7447
G01 X20.3295 Y-25.7284
G01 X20.3195 Y-25.7163
G01 X20.3059 Y-25.7011
G01 X20.2951 Y-25.6898
G01 X20.2837 Y-25.6789
G01 X20.2686 Y-25.6654
G01 X20.2565 Y-25.6554
G01 X20.2402 Y-25.6432
G01 X20.2274 Y-25.6342
G01 X20.2141 Y-25.6258
G01 X20.1966 Y-25.6154
G01 X20.1828 Y-25.6080
G01 X20.1644 Y-25.5992
G01 X20.1501 Y-25.5928
G01 X20.1354 Y-25.5872
G01 X20.1163 Y-25.5804
G01 X20.1012 Y-25.5759
G01 X20.0815 Y-25.5709
G01 X20.0662 Y-25.5674
G01 X20.0507 Y-25.5647
G01 X20.0306 Y-25.5618
G01 X20.0150 Y-25.5603
G01 X19.9947 Y-25.5592
G01 X19.9790 Y-25.5588
G01 X19.9633 Y-25.5592
G01 X19.9430 Y-25.5603
G01 X19.9274 Y-25.5618
G01 X19.9072 Y-25.5647
G01 X19.8918 Y-25.5674
G01 X19.8764 Y-25.5709
G01 X19.8492 Y-25.5781
G01 X19.8226 Y-25.5872
G01 X19.8079 Y-25.5929
G01 X19.7935 Y-25.5992
G01 X19.7682 Y-25.6116
G01 X19.7546 Y-25.6194
G01 X19.7306 Y-25.6342
G01 X19.7178 Y-25.6432
G01 X19.6954 Y-25.6603
G01 X19.6835 Y-25.6706
G01 X19.6685 Y-25.6843
G01 X19.6456 Y-25.7071
G01 X19.6347 Y-25.7184
G01 X19.6212 Y-25.7336
G01 X19.6064 Y-25.7514
G01 X19.4914 Y-25.8457
G01 X19.3603 Y-25.9158
G01 X19.2180 Y-25.9590
G01 X19.0700 Y-25.9736
G01 X19.0470 Y-25.9714
G01 X19.0267 Y-25.9703
G01 X19.0110 Y-25.9699
G01 X18.8451 Y-25.9699
G01 X18.8294 Y-25.9703
G01 X18.8091 Y-25.9714
G01 X18.7857 Y-25.9740
G01 X18.7578 Y-25.9785
G01 X18.7304 Y-25.9850
G01 X18.7078 Y-25.9916
G01 X18.6886 Y-25.9983
G01 X18.6740 Y-26.0040
G01 X18.6483 Y-26.0157
G01 X18.6274 Y-26.0265
G01 X18.6100 Y-26.0369
G01 X18.5967 Y-26.0453
G01 X18.5738 Y-26.0618
G01 X18.5554 Y-26.0765
G01 X18.5346 Y-26.0954
G01 X18.5235 Y-26.1065
G01 X18.5045 Y-26.1274
G01 X18.4967 Y-26.1367
G01 X18.4010 Y-26.2153
G01 X18.2918 Y-26.2737
G01 X18.1733 Y-26.3096
G01 X18.0802 Y-26.3188
G01 X18.0523 Y-26.3225
G01 X18.0368 Y-26.3252
G01 X18.0215 Y-26.3287
G01 X18.0018 Y-26.3337
G01 X17.9794 Y-26.3408
G01 X17.9603 Y-26.3478
G01 X17.9386 Y-26.3570
G01 X17.9133 Y-26.3694
G01 X17.8889 Y-26.3836
G01 X17.8692 Y-26.3964
G01 X17.8466 Y-26.4132
G01 X17.8344 Y-26.4232
G01 X17.8136 Y-26.4421
G01 X17.8024 Y-26.4532
G01 X17.7835 Y-26.4741
G01 X17.7736 Y-26.4862
G01 X17.7568 Y-26.5089
G01 X17.7480 Y-26.5219
G01 X17.7336 Y-26.5461
G01 X17.7262 Y-26.5599
G01 X17.7174 Y-26.5783
G01 X17.7110 Y-26.5926
G01 X17.7054 Y-26.6073
G01 X17.6986 Y-26.6264
G01 X17.6920 Y-26.6491
G01 X17.6872 Y-26.6688
G01 X17.6841 Y-26.6842
G01 X17.6800 Y-26.7121
G01 X17.6785 Y-26.7277
G01 X17.6771 Y-26.7559
G01 X17.6771 Y-26.7716
G01 X17.6785 Y-26.7997
G01 X17.6800 Y-26.8153
G01 X17.6841 Y-26.8432
G01 X17.6872 Y-26.8586
G01 X17.6941 Y-26.8859
G01 X17.7044 Y-26.9205
G01 X17.7139 Y-27.0170
G01 X17.7139 Y-28.5730
G01 X17.7044 Y-28.6695
G01 X17.6827 Y-28.7411
G01 X17.6474 Y-28.8071
G01 X17.6000 Y-28.8650
G01 X17.5421 Y-28.9124
G01 X17.4647 Y-28.9538
G01 X17.4421 Y-28.9642
G01 X17.4281 Y-28.9712
G01 X17.4038 Y-28.9854
G01 X17.3840 Y-28.9982
G01 X17.3614 Y-29.0150
G01 X17.3492 Y-29.0250
G01 X17.3284 Y-29.0439
G01 X17.2011 Y-29.1714
G01 X17.1821 Y-29.1924
G01 X17.1721 Y-29.2046
G01 X17.1598 Y-29.2209
G01 X17.1508 Y-29.2339
G01 X17.1423 Y-29.2472
G01 X17.1320 Y-29.2648
G01 X17.1245 Y-29.2787
G01 X17.1125 Y-29.3043
G01 X17.1065 Y-29.3189
G01 X17.1014 Y-29.3328
G01 X17.0648 Y-29.3110
G01 X17.0510 Y-29.3036
G01 X16.9658 Y-29.2633
G01 X16.9440 Y-29.2546
G01 X16.8700 Y-29.2282
G01 X16.8476 Y-29.2210
G01 X16.7638 Y-29.2000
G01 X16.7485 Y-29.1965
G01 X16.7330 Y-29.1938
G01 X16.6554 Y-29.1823
G01 X16.6398 Y-29.1804
G01 X16.6241 Y-29.1792
G01 X16.5457 Y-29.1754
G01 X16.5300 Y-29.1750
G01 X16.5143 Y-29.1754
G01 X16.4359 Y-29.1792
G01 X16.4202 Y-29.1804
G01 X16.4046 Y-29.1823
G01 X16.3270 Y-29.1938
G01 X16.3115 Y-29.1965
G01 X16.2962 Y-29.2000
G01 X16.2124 Y-29.2210
G01 X16.1900 Y-29.2282
G01 X16.1160 Y-29.2546
G01 X16.0942 Y-29.2633
G01 X16.0090 Y-29.3036
G01 X15.9952 Y-29.3110
G01 X15.9586 Y-29.3328
G01 X15.9537 Y-29.3192
G01 X15.9477 Y-29.3046
G01 X15.9356 Y-29.2790
G01 X15.9282 Y-29.2651
G01 X15.9179 Y-29.2475
G01 X15.9094 Y-29.2342
G01 X15.9004 Y-29.2213
G01 X15.8882 Y-29.2049
G01 X15.8782 Y-29.1927
G01 X15.8592 Y-29.1717
G01 X15.7319 Y-29.0442
G01 X15.7110 Y-29.0252
G01 X15.6989 Y-29.0152
G01 X15.6762 Y-28.9984
G01 X15.6564 Y-28.9855
G01 X15.6320 Y-28.9713
G01 X15.6180 Y-28.9642
G01 X15.5953 Y-28.9538
G01 X15.5179 Y-28.9124
G01 X15.4600 Y-28.8650
G01 X15.4126 Y-28.8071
G01 X15.3773 Y-28.7411
G01 X15.3556 Y-28.6695
G01 X15.3461 Y-28.5730
G01 X15.3461 Y-27.0170
G01 X15.3556 Y-26.9205
G01 X15.3773 Y-26.8489
G01 X15.4126 Y-26.7829
G01 X15.4273 Y-26.7648
G01 X15.4441 Y-26.7421
G01 X15.4528 Y-26.7291
G01 X15.4634 Y-26.7117
G01 X15.4747 Y-26.6911
G01 X15.4835 Y-26.6727
G01 X15.4899 Y-26.6584
G01 X15.4997 Y-26.6320
G01 X15.5046 Y-26.6171
G01 X15.5088 Y-26.6019
G01 X15.5153 Y-26.5745
G01 X15.5198 Y-26.5467
G01 X15.5217 Y-26.5311
G01 X15.5229 Y-26.5154
G01 X15.5238 Y-26.4951
G01 X15.5238 Y-26.4794
G01 X15.5224 Y-26.4513
G01 X15.5209 Y-26.4357
G01 X15.5180 Y-26.4155
G01 X15.5153 Y-26.4001
G01 X15.5119 Y-26.3847
G01 X15.5068 Y-26.3650
G01 X15.5023 Y-26.3500
G01 X15.4955 Y-26.3309
G01 X15.4899 Y-26.3162
G01 X15.4782 Y-26.2906
G01 X15.4711 Y-26.2765
G01 X15.4634 Y-26.2629
G01 X15.4528 Y-26.2455
G01 X15.4441 Y-26.2324
G01 X15.4328 Y-26.2170
G01 X15.4696 Y-26.2305
G01 X15.4845 Y-26.2355
G01 X15.4997 Y-26.2396
G01 X15.5388 Y-26.2490
G01 X15.5543 Y-26.2517
G01 X15.5941 Y-26.2573
G01 X15.6343 Y-26.2596
G01 X15.6500 Y-26.2600
G01 X16.1579 Y-26.2599
G01 X16.1902 Y-26.2584
G01 X16.2059 Y-26.2573
G01 X16.2215 Y-26.2553
G01 X16.2535 Y-26.2505
G01 X16.2765 Y-26.2456
G01 X16.3155 Y-26.2355
G01 X16.3304 Y-26.2305
G01 X16.3681 Y-26.2166
G01 X16.4047 Y-26.1998
G01 X16.4187 Y-26.1927
G01 X16.4534 Y-26.1723
G01 X16.4667 Y-26.1639
G01 X16.4795 Y-26.1549
G01 X16.5116 Y-26.1306
G01 X16.5417 Y-26.1039
G01 X16.5531 Y-26.0931
G01 X16.5639 Y-26.0817
G01 X16.5906 Y-26.0516
G01 X16.6149 Y-26.0195
G01 X16.6282 Y-26.0001
G01 X16.6489 Y-25.9656
G01 X16.6598 Y-25.9447
G01 X16.6766 Y-25.9081
G01 X16.6823 Y-25.8935
G01 X16.6931 Y-25.8629
G01 X16.6996 Y-25.8403
G01 X16.7090 Y-25.8012
G01 X16.7153 Y-25.7615
G01 X16.7179 Y-25.7380
G01 X16.7196 Y-25.7057
G01 X16.7200 Y-25.6900
G01 X16.7199 Y-24.7321
G01 X16.7184 Y-24.6998
G01 X16.7173 Y-24.6841
G01 X16.7153 Y-24.6685
G01 X16.7105 Y-24.6365
G01 X16.7074 Y-24.6211
G01 X16.6996 Y-24.5897
G01 X16.6955 Y-24.5745
G01 X16.6905 Y-24.5596
G01 X16.6766 Y-24.5219
G01 X16.6598 Y-24.4853
G01 X16.6527 Y-24.4713
G01 X16.6450 Y-24.4576
G01 X16.6239 Y-24.4233
G01 X16.5994 Y-24.3897
G01 X16.6172 Y-24.3972
G01 X16.6437 Y-24.4067
G01 X16.6588 Y-24.4112
G01 X16.6785 Y-24.4163
G01 X16.6938 Y-24.4197
G01 X16.7093 Y-24.4224
G01 X16.7294 Y-24.4253
G01 X16.7529 Y-24.4273
G01 X16.7732 Y-24.4282
G01 X16.7889 Y-24.4282
G01 X16.8170 Y-24.4268
G01 X16.8326 Y-24.4253
G01 X16.8605 Y-24.4211
G01 X16.8759 Y-24.4181
G01 X16.9032 Y-24.4112
G01 X16.9183 Y-24.4067
G01 X16.9374 Y-24.3999
G01 X16.9521 Y-24.3943
G01 X16.9777 Y-24.3826
G01 X16.9986 Y-24.3717
G01 X17.0161 Y-24.3613
G01 X17.0294 Y-24.3529
G01 X17.0522 Y-24.3365
G01 X17.0646 Y-24.3268
G01 X17.0765 Y-24.3166
G01 X17.0908 Y-24.3035
G01 X17.1990 Y-24.2147
G01 X17.3082 Y-24.1563
G01 X17.4267 Y-24.1204
G01 X17.5720 Y-24.1061
G01 X18.0280 Y-24.1061
G01 X18.1733 Y-24.1204
G01 X18.2934 Y-24.1568
G01 X18.3132 Y-24.1661
G01 X18.3277 Y-24.1721
G01 X18.3543 Y-24.1816
G01 X18.3693 Y-24.1862
G01 X18.3966 Y-24.1930
G01 X18.4198 Y-24.1973
G01 X18.4477 Y-24.2011
G01 X18.4758 Y-24.2028
G01 X18.4994 Y-24.2031
G01 X18.5275 Y-24.2018
G01 X18.5431 Y-24.2002
G01 X18.5710 Y-24.1961
G01 X18.5941 Y-24.1912
G01 X18.6213 Y-24.1840
G01 X18.6480 Y-24.1749
G01 X18.6626 Y-24.1692
G01 X18.6770 Y-24.1628
G01 X18.6953 Y-24.1541
G01 X18.7091 Y-24.1467
G01 X18.7266 Y-24.1363
G01 X18.7399 Y-24.1279
G01 X18.7527 Y-24.1188
G01 X18.7690 Y-24.1067
G01 X18.7811 Y-24.0967
G01 X18.7963 Y-24.0831
G01 X18.8076 Y-24.0723
G01 X18.8185 Y-24.0609
G01 X18.8321 Y-24.0458
G01 X18.8420 Y-24.0336
G01 X18.8542 Y-24.0174
G01 X18.8632 Y-24.0045
G01 X18.8716 Y-23.9913
G01 X18.8858 Y-23.9669
G01 X18.8982 Y-23.9416
G01 X18.9075 Y-23.9200
G01 X18.9170 Y-23.8934
G01 X18.9215 Y-23.8784
G01 X18.9284 Y-23.8511
G01 X18.9550 Y-23.7175
G01 X19.0138 Y-23.5756
G01 X19.0992 Y-23.4478
G01 X19.2078 Y-23.3392
G01 X19.3356 Y-23.2538
G01 X19.4775 Y-23.1950
G01 X19.6282 Y-23.1651
G01 X19.7818 Y-23.1651
G01 X19.9325 Y-23.1950
G01 X20.0744 Y-23.2538
G01 X20.2022 Y-23.3392
G01 X20.3108 Y-23.4478
G01 X20.3962 Y-23.5756
G01 X20.4550 Y-23.7175
G01 X20.4849 Y-23.8682
G01 X20.4849 Y-24.0218
G01 X20.4685 Y-24.1043
G01 X20.4640 Y-24.1321
G01 X20.4614 Y-24.1555
G01 X20.4603 Y-24.1758
G01 X20.4599 Y-24.1915
G01 X20.4603 Y-24.2347
G01 X20.4614 Y-24.2550
G01 X20.4640 Y-24.2784
G01 X20.4671 Y-24.2985
G01 X20.4702 Y-24.3139
G01 X20.4770 Y-24.3412
G01 X20.4841 Y-24.3637
G01 X20.4911 Y-24.3828
G01 X20.4971 Y-24.3973
G01 X20.5091 Y-24.4228
G01 X20.5165 Y-24.4366
G01 X20.5310 Y-24.4608
G01 X20.5397 Y-24.4739
G01 X20.5565 Y-24.4965
G01 X20.5717 Y-24.5145
G01 X20.5909 Y-24.5351
G01 X20.6115 Y-24.5543
G01 X20.6295 Y-24.5695
G01 X20.6458 Y-24.5817
G01 X20.6652 Y-24.5950
G01 X20.6894 Y-24.6095
G01 X20.7032 Y-24.6169
G01 X20.7216 Y-24.6257
G01 X20.7432 Y-24.6349
G01 X20.7697 Y-24.6444
G01 X20.7848 Y-24.6490
G01 X20.8121 Y-24.6558
G01 X20.8275 Y-24.6589
G01 X20.8554 Y-24.6630
G01 X20.8710 Y-24.6646
G01 X20.8991 Y-24.6660
G01 X22.3130 Y-24.6661
G01 X22.3412 Y-24.6651
G01 X22.3646 Y-24.6630
G01 X22.3847 Y-24.6602
G01 X22.4002 Y-24.6575
G01 X22.4276 Y-24.6510
G01 X22.4503 Y-24.6444
G01 X22.4694 Y-24.6377
G01 X22.4841 Y-24.6320
G01 X22.5097 Y-24.6203
G01 X22.5306 Y-24.6095
G01 X22.5548 Y-24.5950
G01 X22.5679 Y-24.5863
G01 X22.5905 Y-24.5695
G01 X22.6085 Y-24.5543
G01 X22.6235 Y-24.5406
G01 X22.6400 Y-24.5237
G01 X22.6586 Y-24.5026
G01 X22.6757 Y-24.4802
G01 X22.6890 Y-24.4608
G01 X22.7035 Y-24.4366
G01 X22.7109 Y-24.4228
G01 X22.7229 Y-24.3973
G01 X22.7317 Y-24.3754
G01 X22.7408 Y-24.3488
G01 X22.7450 Y-24.3336
G01 X22.7515 Y-24.3062
G01 X22.7542 Y-24.2907
G01 X22.7579 Y-24.2628
G01 X22.7597 Y-24.2347
G01 X22.7601 Y-24.2190
G01 X22.7601 Y-23.3690
G01 X22.7597 Y-23.3533
G01 X22.7586 Y-23.3330
G01 X22.7564 Y-23.3100
G01 X22.7710 Y-23.1620
G01 X22.8142 Y-23.0197
G01 X22.8843 Y-22.8886
G01 X22.9786 Y-22.7736
G01 X22.9964 Y-22.7588
G01 X23.0116 Y-22.7453
G01 X23.0229 Y-22.7344
G01 X24.8444 Y-20.9129
G01 X24.8553 Y-20.9015
G01 X24.8688 Y-20.8864
G01 X24.8836 Y-20.8686
G01 X24.9986 Y-20.7743
G01 X25.1297 Y-20.7042
G01 X25.2720 Y-20.6610
G01 X25.4200 Y-20.6464
G01 X25.4430 Y-20.6486
G01 X25.4633 Y-20.6497
G01 X25.4790 Y-20.6501
G01 X27.9827 Y-20.6501
G01 X28.0115 Y-20.6490
G01 X28.0356 Y-20.6469
G01 X28.0562 Y-20.6439
G01 X28.0721 Y-20.6410
G01 X28.0877 Y-20.6374
G01 X28.1079 Y-20.6321
G01 X28.1233 Y-20.6274
G01 X28.1428 Y-20.6203
G01 X28.1578 Y-20.6143
G01 X28.1725 Y-20.6077
G01 X28.1911 Y-20.5985
G01 X28.2052 Y-20.5907
G01 X28.2230 Y-20.5798
G01 X28.2365 Y-20.5710
G01 X28.2495 Y-20.5616
G01 X28.2660 Y-20.5488
G01 X28.2782 Y-20.5384
G01 X28.2935 Y-20.5242
G01 X28.3049 Y-20.5129
G01 X28.3158 Y-20.5010
G01 X28.3294 Y-20.4852
G01 X28.3393 Y-20.4726
G01 X28.3514 Y-20.4556
G01 X28.3604 Y-20.4422
G01 X28.3686 Y-20.4284
G01 X28.3788 Y-20.4102
G01 X28.3860 Y-20.3958
G01 X28.3945 Y-20.3768
G01 X28.4006 Y-20.3619
G01 X28.4059 Y-20.3467
G01 X28.4122 Y-20.3269
G01 X28.4164 Y-20.3113
G01 X28.4236 Y-20.2766
G01 X28.4326 Y-20.2863
G01 X28.4437 Y-20.2974
G01 X28.5135 Y-20.3607
G01 X28.5319 Y-20.3754
G01 X28.6013 Y-20.4268
G01 X28.6210 Y-20.4396
G01 X28.6884 Y-20.4800
G01 X28.7020 Y-20.4878
G01 X28.7161 Y-20.4948
G01 X28.7942 Y-20.5317
G01 X28.8160 Y-20.5404
G01 X28.8900 Y-20.5668
G01 X28.9049 Y-20.5718
G01 X28.9200 Y-20.5760
G01 X28.9962 Y-20.5950
G01 X29.0115 Y-20.5985
G01 X29.0270 Y-20.6012
G01 X29.1046 Y-20.6127
G01 X29.1202 Y-20.6146
G01 X29.1359 Y-20.6158
G01 X29.2143 Y-20.6196
G01 X29.2300 Y-20.6200
G01 X29.2457 Y-20.6196
G01 X29.3241 Y-20.6158
G01 X29.3398 Y-20.6146
G01 X29.3554 Y-20.6127
G01 X29.4330 Y-20.6012
G01 X29.4485 Y-20.5985
G01 X29.4638 Y-20.5950
G01 X29.5400 Y-20.5760
G01 X29.5551 Y-20.5718
G01 X29.5700 Y-20.5668
G01 X29.6440 Y-20.5404
G01 X29.6586 Y-20.5347
G01 X29.6730 Y-20.5284
G01 X29.7439 Y-20.4948
G01 X29.7580 Y-20.4878
G01 X29.7716 Y-20.4800
G01 X29.8390 Y-20.4396
G01 X29.8522 Y-20.4312
G01 X29.8651 Y-20.4222
G01 X29.9281 Y-20.3754
G01 X29.9405 Y-20.3658
G01 X29.9524 Y-20.3555
G01 X30.0163 Y-20.2974
G01 X30.0274 Y-20.2863
G01 X30.0364 Y-20.2766
G01 X30.0436 Y-20.3113
G01 X30.0478 Y-20.3269
G01 X30.0541 Y-20.3467
G01 X30.0594 Y-20.3619
G01 X30.0655 Y-20.3768
G01 X30.0740 Y-20.3958
G01 X30.0812 Y-20.4102
G01 X30.0914 Y-20.4284
G01 X30.0996 Y-20.4422
G01 X30.1160 Y-20.4660
G01 X30.1256 Y-20.4790
G01 X30.1358 Y-20.4914
G01 X30.1496 Y-20.5070
G01 X30.1607 Y-20.5186
G01 X30.1758 Y-20.5330
G01 X30.1878 Y-20.5437
G01 X30.2004 Y-20.5538
G01 X30.2169 Y-20.5664
G01 X30.2302 Y-20.5755
G01 X30.2479 Y-20.5866
G01 X30.2618 Y-20.5947
G01 X30.2875 Y-20.6077
G01 X30.3022 Y-20.6143
G01 X30.3172 Y-20.6203
G01 X30.3367 Y-20.6274
G01 X30.3521 Y-20.6321
G01 X30.3723 Y-20.6374
G01 X30.3879 Y-20.6410
G01 X30.4038 Y-20.6439
G01 X30.4244 Y-20.6469
G01 X30.4404 Y-20.6485
G01 X30.4612 Y-20.6497
G01 X30.4773 Y-20.6501
G01 X32.8817 Y-20.6501
G01 X32.9098 Y-20.6491
G01 X32.9333 Y-20.6470
G01 X32.9612 Y-20.6429
G01 X32.9766 Y-20.6398
G01 X33.0039 Y-20.6330
G01 X33.0189 Y-20.6284
G01 X33.0455 Y-20.6189
G01 X33.0600 Y-20.6129
G01 X33.0784 Y-20.6043
G01 X33.0924 Y-20.5973
G01 X33.1061 Y-20.5895
G01 X33.1235 Y-20.5790
G01 X33.1429 Y-20.5657
G01 X33.1592 Y-20.5535
G01 X33.1713 Y-20.5435
G01 X33.1922 Y-20.5246
G01 X33.2086 Y-20.5077
G01 X33.2222 Y-20.4926
G01 X33.2322 Y-20.4805
G01 X33.2490 Y-20.4579
G01 X33.2577 Y-20.4448
G01 X33.2722 Y-20.4206
G01 X33.2796 Y-20.4068
G01 X33.2916 Y-20.3813
G01 X33.2976 Y-20.3668
G01 X33.3071 Y-20.3403
G01 X33.3117 Y-20.3252
G01 X33.3185 Y-20.2979
G01 X33.3216 Y-20.2825
G01 X33.3257 Y-20.2546
G01 X33.3273 Y-20.2390
G01 X33.3287 Y-20.2109
G01 X33.3287 Y-20.1951
G01 X33.3273 Y-20.1670
G01 X33.3257 Y-20.1514
G01 X33.3216 Y-20.1235
G01 X33.3185 Y-20.1081
G01 X33.3117 Y-20.0808
G01 X33.3071 Y-20.0657
G01 X33.2976 Y-20.0392
G01 X33.2916 Y-20.0247
G01 X33.2830 Y-20.0063
G01 X33.2760 Y-19.9923
G01 X33.2682 Y-19.9786
G01 X33.2534 Y-19.9546
G01 X33.2444 Y-19.9418
G01 X33.2322 Y-19.9255
G01 X33.1926 Y-19.8771
G01 X33.1573 Y-19.8111
G01 X33.1356 Y-19.7395
G01 X33.1261 Y-19.6430
G01 X33.1261 Y-18.0870
G01 X33.1356 Y-17.9905
G01 X33.1573 Y-17.9189
G01 X33.1926 Y-17.8529
G01 X33.2400 Y-17.7950
G01 X33.3245 Y-17.7256
G01 X33.3453 Y-17.7067
G01 X33.3618 Y-17.6899
G01 X33.3804 Y-17.6687
G01 X33.3901 Y-17.6563
G01 X33.4021 Y-17.6400
G01 X33.4108 Y-17.6269
G01 X33.4214 Y-17.6095
G01 X33.4327 Y-17.5889
G01 X33.4448 Y-17.5634
G01 X33.4535 Y-17.5415
G01 X33.4627 Y-17.5149
G01 X33.4699 Y-17.4877
G01 X33.4748 Y-17.4646
G01 X33.4789 Y-17.4367
G01 X33.4809 Y-17.4133
G01 X33.4819 Y-17.3851
G01 X33.4809 Y-17.3570
G01 X33.4798 Y-17.3413
G01 X33.4778 Y-17.3257
G01 X33.4733 Y-17.2979
G01 X33.4699 Y-17.2826
G01 X33.4627 Y-17.2553
G01 X33.4535 Y-17.2287
G01 X33.4448 Y-17.2068
G01 X33.4362 Y-17.1884
G01 X33.4291 Y-17.1744
G01 X33.4214 Y-17.1607
G01 X33.4108 Y-17.1433
G01 X33.2644 Y-16.9239
G01 X33.1754 Y-16.7092
G01 X33.1301 Y-16.4812
G01 X33.1301 Y-16.2488
G01 X33.1754 Y-16.0208
G01 X33.2644 Y-15.8061
G01 X33.3935 Y-15.6128
G01 X33.5578 Y-15.4485
G01 X33.7511 Y-15.3194
G01 X33.9658 Y-15.2304
G01 X34.0208 Y-15.2195
G01 X34.0482 Y-15.2130
G01 X34.0708 Y-15.2064
G01 X34.0900 Y-15.1997
G01 X34.1047 Y-15.1940
G01 X34.1190 Y-15.1877
G01 X34.1373 Y-15.1789
G01 X34.1512 Y-15.1715
G01 X34.1687 Y-15.1611
G01 X34.1820 Y-15.1527
G01 X34.1948 Y-15.1437
G01 X34.2111 Y-15.1315
G01 X34.2232 Y-15.1215
G01 X34.2441 Y-15.1026
G01 X34.2552 Y-15.0915
G01 X34.2741 Y-15.0706
G01 X34.2888 Y-15.0522
G01 X34.3009 Y-15.0359
G01 X34.3137 Y-15.0161
G01 X34.3278 Y-14.9917
G01 X34.3402 Y-14.9664
G01 X34.3495 Y-14.9448
G01 X34.3590 Y-14.9183
G01 X34.3636 Y-14.9032
G01 X34.3704 Y-14.8759
G01 X34.3747 Y-14.8527
G01 X34.3785 Y-14.8248
G01 X34.3796 Y-14.8092
G01 X34.3806 Y-14.7810
G01 X34.3796 Y-14.7528
G01 X34.3776 Y-14.7294
G01 X34.3747 Y-14.7093
G01 X34.3720 Y-14.6938
G01 X34.3656 Y-14.6664
G01 X34.3590 Y-14.6437
G01 X34.3523 Y-14.6246
G01 X34.3466 Y-14.6099
G01 X34.3349 Y-14.5843
G01 X34.3241 Y-14.5634
G01 X34.3137 Y-14.5459
G01 X34.3053 Y-14.5326
G01 X34.2888 Y-14.5098
G01 X34.2741 Y-14.4914
G01 X34.2552 Y-14.4705
G01 X34.2383 Y-14.4540
G01 X34.2172 Y-14.4354
G01 X34.2048 Y-14.4258
G01 X34.1884 Y-14.4137
G01 X34.1687 Y-14.4009
G01 X34.1512 Y-14.3905
G01 X34.1303 Y-14.3797
G01 X34.1047 Y-14.3680
G01 X34.0783 Y-14.3581
G01 X34.0558 Y-14.3510
G01 X34.0285 Y-14.3442
G01 X34.0131 Y-14.3411
G01 X33.9852 Y-14.3370
G01 X33.9617 Y-14.3349
G01 X33.9336 Y-14.3339
G01 X33.5320 Y-14.3339
G01 X33.4355 Y-14.3244
G01 X33.3639 Y-14.3027
G01 X33.2979 Y-14.2674
G01 X33.2400 Y-14.2200
G01 X33.1926 Y-14.1621
G01 X33.1573 Y-14.0961
G01 X33.1356 Y-14.0245
G01 X33.1261 Y-13.9280
G01 X33.1261 Y-12.3720
G01 X33.1356 Y-12.2755
G01 X33.1573 Y-12.2039
G01 X33.1926 Y-12.1379
G01 X33.2400 Y-12.0800
G01 X33.3245 Y-12.0106
G01 X33.3453 Y-11.9917
G01 X33.3564 Y-11.9806
G01 X33.3754 Y-11.9597
G01 X33.3901 Y-11.9413
G01 X33.4066 Y-11.9185
G01 X33.4150 Y-11.9052
G01 X33.4253 Y-11.8877
G01 X33.4362 Y-11.8668
G01 X33.4479 Y-11.8412
G01 X33.4577 Y-11.8148
G01 X33.4648 Y-11.7923
G01 X33.4717 Y-11.7650
G01 X33.4760 Y-11.7419
G01 X33.4798 Y-11.7139
G01 X33.4809 Y-11.6983
G01 X33.4818 Y-11.6780
G01 X33.4815 Y-11.6544
G01 X33.4798 Y-11.6263
G01 X33.4778 Y-11.6107
G01 X33.4733 Y-11.5829
G01 X33.4699 Y-11.5676
G01 X33.4627 Y-11.5403
G01 X33.4535 Y-11.5137
G01 X33.4448 Y-11.4918
G01 X33.4362 Y-11.4734
G01 X33.4291 Y-11.4594
G01 X33.4214 Y-11.4457
G01 X33.4108 Y-11.4283
G01 X33.2644 Y-11.2089
G01 X33.1754 Y-10.9942
G01 X33.1301 Y-10.7662
G01 X33.1301 Y-10.5338
G01 X33.1754 Y-10.3058
G01 X33.2644 Y-10.0911
G01 X33.3935 Y-9.8978
G01 X33.5578 Y-9.7335
G01 X33.7511 Y-9.6044
G01 X33.9658 Y-9.5154
G01 X34.1938 Y-9.4701
G01 X34.2581 Y-9.4700
G01 X34.2863 Y-9.4686
G01 X34.3019 Y-9.4670
G01 X34.3298 Y-9.4629
G01 X34.3452 Y-9.4598
G01 X34.3725 Y-9.4530
G01 X34.3876 Y-9.4484
G01 X34.4141 Y-9.4389
G01 X34.4286 Y-9.4329
G01 X34.4541 Y-9.4209
G01 X34.4679 Y-9.4135
G01 X34.4921 Y-9.3990
G01 X34.5115 Y-9.3857
G01 X34.5278 Y-9.3735
G01 X34.5636 Y-9.3443
G01 X34.6947 Y-9.2742
G01 X34.8370 Y-9.2310
G01 X34.9850 Y-9.2164
G01 X35.0080 Y-9.2186
G01 X35.0283 Y-9.2197
G01 X35.0440 Y-9.2201
G01 X39.2429 Y-9.2201
G01 X39.3606 Y-9.2317
G01 X39.3708 Y-9.2339
G01 X39.3863 Y-9.2366
G01 X39.4064 Y-9.2394
G01 X39.4220 Y-9.2410
G01 X39.4423 Y-9.2421
G01 X39.4580 Y-9.2425
G01 X39.4737 Y-9.2421
G01 X39.4940 Y-9.2410
G01 X39.5096 Y-9.2394
G01 X39.5297 Y-9.2366
G01 X39.5452 Y-9.2339
G01 X39.5605 Y-9.2304
G01 X39.5802 Y-9.2254
G01 X39.5953 Y-9.2208
G01 X39.6144 Y-9.2141
G01 X39.6291 Y-9.2084
G01 X39.6434 Y-9.2021
G01 X39.6618 Y-9.1933
G01 X39.6824 Y-9.1819
G01 X39.6998 Y-9.1714
G01 X39.7129 Y-9.1627
G01 X39.7292 Y-9.1506
G01 X39.7416 Y-9.1410
G01 X39.7535 Y-9.1307
G01 X39.7685 Y-9.1170
G01 X39.7796 Y-9.1059
G01 X39.7933 Y-9.0909
G01 X39.8036 Y-9.0790
G01 X39.8132 Y-9.0666
G01 X39.8253 Y-9.0503
G01 X39.8340 Y-9.0372
G01 X39.8445 Y-9.0198
G01 X39.8523 Y-9.0061
G01 X39.8593 Y-8.9921
G01 X39.8679 Y-8.9737
G01 X39.8739 Y-8.9592
G01 X39.8809 Y-8.9401
G01 X39.8858 Y-8.9252
G01 X39.8900 Y-8.9100
G01 X39.8965 Y-8.8826
G01 X39.9010 Y-8.8548
G01 X39.9036 Y-8.8314
G01 X39.9050 Y-8.8033
G01 X39.9051 Y-8.5679
G01 X39.9047 Y-8.5522
G01 X39.9029 Y-8.5241
G01 X39.8992 Y-8.4961
G01 X39.8948 Y-8.4730
G01 X39.8880 Y-8.4457
G01 X39.8809 Y-8.4232
G01 X39.8710 Y-8.3968
G01 X39.8593 Y-8.3712
G01 X39.8485 Y-8.3503
G01 X39.8340 Y-8.3261
G01 X39.8207 Y-8.3067
G01 X39.8036 Y-8.2843
G01 X39.7933 Y-8.2724
G01 X39.7741 Y-8.2518
G01 X38.8300 Y-7.3076
G01 X38.7593 Y-7.2214
G01 X38.6892 Y-7.0904
G01 X38.6332 Y-6.9055
G01 X38.6283 Y-6.8906
G01 X38.6214 Y-6.8715
G01 X38.6121 Y-6.8498
G01 X38.5997 Y-6.8245
G01 X38.5856 Y-6.8002
G01 X38.5727 Y-6.7804
G01 X38.5607 Y-6.7640
G01 X38.5510 Y-6.7516
G01 X38.5324 Y-6.7305
G01 X38.5159 Y-6.7136
G01 X38.5010 Y-6.6999
G01 X38.4891 Y-6.6896
G01 X38.4667 Y-6.6725
G01 X38.4472 Y-6.6592
G01 X38.4231 Y-6.6447
G01 X38.4092 Y-6.6373
G01 X38.3909 Y-6.6285
G01 X38.3765 Y-6.6221
G01 X38.3619 Y-6.6165
G01 X38.3427 Y-6.6097
G01 X38.3277 Y-6.6051
G01 X38.3003 Y-6.5983
G01 X38.2849 Y-6.5952
G01 X38.2648 Y-6.5921
G01 X38.2492 Y-6.5902
G01 X38.2211 Y-6.5884
G01 X38.2054 Y-6.5881
G01 X38.1897 Y-6.5884
G01 X38.1694 Y-6.5895
G01 X38.1538 Y-6.5911
G01 X38.1336 Y-6.5940
G01 X38.1182 Y-6.5966
G01 X38.1028 Y-6.6001
G01 X38.0831 Y-6.6051
G01 X38.0681 Y-6.6097
G01 X38.0489 Y-6.6164
G01 X38.0343 Y-6.6221
G01 X38.0086 Y-6.6338
G01 X37.9877 Y-6.6446
G01 X37.9702 Y-6.6550
G01 X37.9570 Y-6.6634
G01 X37.9341 Y-6.6799
G01 X37.9121 Y-6.6974
G01 X37.8461 Y-6.7327
G01 X37.7745 Y-6.7544
G01 X37.6780 Y-6.7639
G01 X36.0220 Y-6.7639
G01 X35.9255 Y-6.7544
G01 X35.8539 Y-6.7327
G01 X35.7879 Y-6.6974
G01 X35.7300 Y-6.6500
G01 X35.6826 Y-6.5921
G01 X35.6473 Y-6.5261
G01 X35.6256 Y-6.4545
G01 X35.6161 Y-6.3580
G01 X35.6161 Y-4.7020
G01 X35.6256 Y-4.6055
G01 X35.6473 Y-4.5339
G01 X35.6826 Y-4.4679
G01 X35.7300 Y-4.4100
G01 X35.7879 Y-4.3626
G01 X35.8588 Y-4.3247
G01 X35.8795 Y-4.3164
G01 X35.8979 Y-4.3078
G01 X35.9119 Y-4.3007
G01 X35.9363 Y-4.2866
G01 X35.9560 Y-4.2737
G01 X35.9724 Y-4.2617
G01 X35.9848 Y-4.2520
G01 X36.0059 Y-4.2334
G01 X36.0228 Y-4.2169
G01 X36.0365 Y-4.2019
G01 X36.0468 Y-4.1901
G01 X36.0638 Y-4.1677
G01 X36.0729 Y-4.1548
G01 X36.0877 Y-4.1308
G01 X36.0991 Y-4.1102
G01 X36.1078 Y-4.0919
G01 X36.1142 Y-4.0775
G01 X36.1241 Y-4.0511
G01 X36.1290 Y-4.0362
G01 X36.1492 Y-3.9697
G01 X36.2193 Y-3.8386
G01 X36.3136 Y-3.7236
G01 X36.3314 Y-3.7088
G01 X36.3466 Y-3.6953
G01 X36.3579 Y-3.6844
G01 X37.5444 Y-2.4979
G01 X37.5553 Y-2.4866
G01 X37.5688 Y-2.4714
G01 X37.5836 Y-2.4536
G01 X37.6986 Y-2.3593
G01 X37.8297 Y-2.2892
G01 X37.8845 Y-2.2724
G01 X37.9036 Y-2.2657
G01 X37.9183 Y-2.2600
G01 X37.9439 Y-2.2483
G01 X37.9579 Y-2.2413
G01 X37.9716 Y-2.2335
G01 X37.9890 Y-2.2230
G01 X38.0084 Y-2.2097
G01 X38.0247 Y-2.1975
G01 X38.0368 Y-2.1875
G01 X38.0520 Y-2.1740
G01 X38.0633 Y-2.1631
G01 X38.0742 Y-2.1517
G01 X38.0877 Y-2.1366
G01 X38.0977 Y-2.1245
G01 X38.1099 Y-2.1082
G01 X38.1189 Y-2.0954
G01 X38.1273 Y-2.0821
G01 X38.1377 Y-2.0646
G01 X38.1451 Y-2.0508
G01 X38.1539 Y-2.0324
G01 X38.1602 Y-2.0181
G01 X38.1659 Y-2.0034
G01 X38.1726 Y-1.9843
G01 X38.1792 Y-1.9616
G01 X38.1841 Y-1.9419
G01 X38.1871 Y-1.9265
G01 X38.1902 Y-1.9064
G01 X38.1921 Y-1.8908
G01 X38.1933 Y-1.8752
G01 X38.1942 Y-1.8549
G01 X38.1939 Y-1.8313
G01 X38.1928 Y-1.8110
G01 X38.1913 Y-1.7954
G01 X38.1884 Y-1.7753
G01 X38.1857 Y-1.7598
G01 X38.1822 Y-1.7445
G01 X38.1772 Y-1.7248
G01 X38.1701 Y-1.7023
G01 X38.1632 Y-1.6832
G01 X38.1571 Y-1.6687
G01 X38.1485 Y-1.6503
G01 X38.1415 Y-1.6363
G01 X38.1337 Y-1.6226
G01 X38.1232 Y-1.6052
G01 X38.1099 Y-1.5858
G01 X38.0928 Y-1.5634
G01 X38.0825 Y-1.5515
G01 X38.0688 Y-1.5365
G01 X38.0577 Y-1.5254
G01 X38.0427 Y-1.5117
G01 X38.0247 Y-1.4965
G01 X38.0084 Y-1.4843
G01 X37.9956 Y-1.4753
G01 X37.9716 Y-1.4605
G01 X37.9510 Y-1.4491
G01 X37.9326 Y-1.4403
G01 X37.9183 Y-1.4340
G01 X37.8919 Y-1.4241
G01 X37.8694 Y-1.4170
G01 X37.8497 Y-1.4120
G01 X37.8344 Y-1.4085
G01 X37.8066 Y-1.4040
G01 X37.7832 Y-1.4014
G01 X37.7629 Y-1.4003
G01 X37.7472 Y-1.3999
G01 X4.4806 Y-1.3999
G01 X4.4610 Y-1.4005
G01 X4.4377 Y-1.4021
G01 X4.4144 Y-1.4049
G01 X4.3914 Y-1.4091
G01 X4.3722 Y-1.4133
G01 X1.9137 Y-2.0280
G01 X1.8942 Y-2.0338
G01 X1.8793 Y-2.0387
G01 X1.8531 Y-2.0492
G01 X1.8316 Y-2.0590
G01 X1.8136 Y-2.0685
G01 X1.8000 Y-2.0762
G01 X1.7763 Y-2.0916
G01 X1.7572 Y-2.1054
G01 X1.7414 Y-2.1182
G01 X1.7295 Y-2.1285
G01 X1.7093 Y-2.1481
G01 X1.6933 Y-2.1654
G01 X1.6803 Y-2.1811
G01 X1.6706 Y-2.1935
G01 X1.6546 Y-2.2167
G01 X1.6423 Y-2.2368
G01 X1.6326 Y-2.2547
G01 X1.6255 Y-2.2687
G01 X1.6144 Y-2.2946
G01 X1.6062 Y-2.3167
G01 X1.5980 Y-2.3437
G01 X0.9833 Y-4.8022
G01 X0.9791 Y-4.8214
G01 X0.9738 Y-4.8521
G01 X0.9715 Y-4.8755
G01 X0.9701 Y-4.9008
G01 X0.9699 Y-4.9106
G00 Z2.0000
G00 X1.0599 Y-4.9106
G01 F60.00
G01 Z-0.0000
G01 F120.00
G01 X1.0599 Y-32.3881
G01 X1.0608 Y-32.4119
G01 X1.0623 Y-32.4287
G01 X1.0658 Y-32.4523
G01 X1.0693 Y-32.4688
G01 X1.0753 Y-32.4918
G01 X1.0831 Y-32.5143
G01 X1.0893 Y-32.5300
G01 X1.0995 Y-32.5514
G01 X1.1048 Y-32.5614
G01 X1.1170 Y-32.5818
G01 X1.1233 Y-32.5912
G01 X1.1375 Y-32.6103
G01 X1.1446 Y-32.6190
G01 X1.1606 Y-32.6366
G01 X1.1686 Y-32.6446
G01 X1.1819 Y-32.6568
G01 X1.1905 Y-32.6642
G01 X1.1994 Y-32.6711
G01 X1.2140 Y-32.6818
G01 X1.2282 Y-32.6911
G01 X1.2437 Y-32.7003
G01 X1.2537 Y-32.7056
G01 X1.2752 Y-32.7158
G01 X1.2909 Y-32.7221
G01 X1.3080 Y-32.7281
G01 X1.3188 Y-32.7314
G01 X1.3418 Y-32.7372
G01 X1.3529 Y-32.7394
G01 X1.3764 Y-32.7429
G01 X1.3876 Y-32.7440
G01 X1.4114 Y-32.7451
G01 X1.4226 Y-32.7451
G01 X1.4520 Y-32.7435
G01 X1.4755 Y-32.7403
G01 X1.4867 Y-32.7383
G01 X1.4977 Y-32.7359
G01 X1.5206 Y-32.7298
G01 X1.5431 Y-32.7221
G01 X1.5536 Y-32.7180
G01 X1.5752 Y-32.7081
G01 X1.5903 Y-32.7003
G01 X1.6154 Y-32.6850
G01 X1.6346 Y-32.6711
G01 X1.6478 Y-32.6605
G01 X1.6654 Y-32.6446
G01 X1.6773 Y-32.6324
G01 X1.6930 Y-32.6147
G01 X1.7074 Y-32.5957
G01 X1.7139 Y-32.5865
G01 X1.7263 Y-32.5663
G01 X1.7345 Y-32.5514
G01 X1.7469 Y-32.5248
G01 X1.7891 Y-32.4229
G01 X1.8843 Y-32.2804
G01 X2.0054 Y-32.1593
G01 X2.1479 Y-32.0641
G01 X2.3062 Y-31.9985
G01 X2.4743 Y-31.9651
G01 X2.6457 Y-31.9651
G01 X2.8138 Y-31.9985
G01 X2.9721 Y-32.0641
G01 X3.1146 Y-32.1593
G01 X3.2357 Y-32.2804
G01 X3.3309 Y-32.4229
G01 X3.3965 Y-32.5812
G01 X3.4299 Y-32.7493
G01 X3.4299 Y-32.9207
G01 X3.4099 Y-33.0230
G01 X3.4073 Y-33.0409
G01 X3.4062 Y-33.0522
G01 X3.4049 Y-33.0815
G01 X3.4049 Y-36.1471
G01 X3.4062 Y-36.1765
G01 X3.4073 Y-36.1877
G01 X3.4099 Y-36.2057
G01 X3.4118 Y-36.2168
G01 X3.4143 Y-36.2278
G01 X3.4187 Y-36.2453
G01 X3.4220 Y-36.2561
G01 X3.4300 Y-36.2785
G01 X3.4367 Y-36.2941
G01 X3.4471 Y-36.3154
G01 X3.4591 Y-36.3360
G01 X3.4683 Y-36.3501
G01 X3.4825 Y-36.3692
G01 X3.4896 Y-36.3780
G01 X3.5056 Y-36.3956
G01 X4.7144 Y-37.6044
G01 X4.7364 Y-37.6240
G01 X4.7553 Y-37.6384
G01 X4.7645 Y-37.6449
G01 X4.7740 Y-37.6509
G01 X4.7946 Y-37.6629
G01 X4.8159 Y-37.6733
G01 X4.8262 Y-37.6779
G01 X4.8368 Y-37.6819
G01 X4.8592 Y-37.6897
G01 X4.8822 Y-37.6957
G01 X4.8932 Y-37.6982
G01 X4.9043 Y-37.7001
G01 X4.9279 Y-37.7033
G01 X4.9516 Y-37.7048
G01 X4.9629 Y-37.7051
G01 X5.2004 Y-37.7051
G01 X5.2241 Y-37.7042
G01 X5.2410 Y-37.7027
G01 X5.2645 Y-37.6992
G01 X5.2755 Y-37.6970
G01 X5.2986 Y-37.6913
G01 X5.3094 Y-37.6880
G01 X5.3318 Y-37.6800
G01 X5.3422 Y-37.6757
G01 X5.3637 Y-37.6655
G01 X5.3785 Y-37.6573
G01 X5.3987 Y-37.6449
G01 X5.4180 Y-37.6310
G01 X5.4312 Y-37.6204
G01 X5.4488 Y-37.6044
G01 X5.5248 Y-37.5284
G01 X5.5444 Y-37.5065
G01 X5.5621 Y-37.4830
G01 X5.5713 Y-37.4688
G01 X5.5833 Y-37.4483
G01 X5.5960 Y-37.4218
G01 X5.6023 Y-37.4061
G01 X5.6101 Y-37.3837
G01 X5.6174 Y-37.3552
G01 X5.6196 Y-37.3441
G01 X5.6223 Y-37.3262
G01 X5.6242 Y-37.3094
G01 X5.6254 Y-37.2800
G01 X5.6242 Y-37.2506
G01 X5.6223 Y-37.2338
G01 X5.6196 Y-37.2159
G01 X5.6174 Y-37.2048
G01 X5.6101 Y-37.1763
G01 X5.6003 Y-37.1486
G01 X5.5960 Y-37.1382
G01 X5.5883 Y-37.1218
G01 X5.5805 Y-37.1067
G01 X5.5683 Y-37.0864
G01 X5.5588 Y-37.0724
G01 X5.5444 Y-37.0535
G01 X5.5286 Y-37.0357
G01 X5.5208 Y-37.0275
G01 X5.3447 Y-36.8514
G01 X5.2003 Y-36.6352
G01 X5.1008 Y-36.3950
G01 X5.0501 Y-36.1400
G01 X5.0501 Y-35.8800
G01 X5.1008 Y-35.6250
G01 X5.2003 Y-35.3848
G01 X5.3447 Y-35.1686
G01 X5.5286 Y-34.9847
G01 X5.7402 Y-34.8432
G01 X5.7638 Y-34.8255
G01 X5.7817 Y-34.8096
G01 X5.7899 Y-34.8018
G01 X5.8099 Y-34.7800
G01 X5.8205 Y-34.7666
G01 X5.8345 Y-34.7473
G01 X5.8498 Y-34.7220
G01 X5.8576 Y-34.7068
G01 X5.8675 Y-34.6851
G01 X5.8776 Y-34.6572
G01 X5.8817 Y-34.6428
G01 X6.0302 Y-34.4944
G01 X6.0511 Y-34.5018
G01 X6.0619 Y-34.5051
G01 X6.1483 Y-34.5268
G01 X6.1649 Y-34.5303
G01 X6.2529 Y-34.5434
G01 X6.2641 Y-34.5448
G01 X6.2754 Y-34.5456
G01 X6.3700 Y-34.5500
G01 X6.4646 Y-34.5456
G01 X6.4759 Y-34.5448
G01 X6.4871 Y-34.5434
G01 X6.5751 Y-34.5303
G01 X6.5917 Y-34.5268
G01 X6.6781 Y-34.5051
G01 X6.6889 Y-34.5018
G01 X6.7097 Y-34.4944
G01 X6.8584 Y-34.6434
G01 X6.8642 Y-34.6626
G01 X6.8704 Y-34.6798
G01 X6.8747 Y-34.6903
G01 X6.8874 Y-34.7170
G01 X6.9024 Y-34.7425
G01 X6.9087 Y-34.7519
G01 X6.9195 Y-34.7666
G01 X6.9264 Y-34.7756
G01 X6.9338 Y-34.7842
G01 X6.9461 Y-34.7977
G01 X6.9541 Y-34.8057
G01 X6.9762 Y-34.8255
G01 X6.9851 Y-34.8324
G01 X7.0045 Y-34.8465
G01 X7.2114 Y-34.9847
G01 X7.3916 Y-35.1648
G01 X7.4135 Y-35.1844
G01 X7.4324 Y-35.1988
G01 X7.4416 Y-35.2053
G01 X7.4667 Y-35.2205
G01 X7.4818 Y-35.2283
G01 X7.4982 Y-35.2360
G01 X7.5086 Y-35.2403
G01 X7.5363 Y-35.2501
G01 X7.5648 Y-35.2574
G01 X7.5815 Y-35.2605
G01 X7.5994 Y-35.2631
G01 X7.6106 Y-35.2642
G01 X7.6400 Y-35.2654
G01 X7.6694 Y-35.2642
G01 X7.6862 Y-35.2623
G01 X7.7041 Y-35.2596
G01 X7.7152 Y-35.2574
G01 X7.7437 Y-35.2501
G01 X7.7714 Y-35.2403
G01 X7.7818 Y-35.2360
G01 X7.7982 Y-35.2283
G01 X7.8133 Y-35.2205
G01 X7.8384 Y-35.2053
G01 X7.8476 Y-35.1988
G01 X7.8665 Y-35.1844
G01 X7.8884 Y-35.1648
G01 X8.0686 Y-34.9847
G01 X8.2755 Y-34.8465
G01 X8.2848 Y-34.8399
G01 X8.3038 Y-34.8255
G01 X8.3259 Y-34.8057
G01 X8.3339 Y-34.7977
G01 X8.3462 Y-34.7842
G01 X8.3536 Y-34.7756
G01 X8.3605 Y-34.7666
G01 X8.3713 Y-34.7519
G01 X8.3776 Y-34.7425
G01 X8.3926 Y-34.7170
G01 X8.4053 Y-34.6903
G01 X8.4096 Y-34.6798
G01 X8.4158 Y-34.6626
G01 X8.4217 Y-34.6428
G01 X8.5702 Y-34.4944
G01 X8.5911 Y-34.5018
G01 X8.6019 Y-34.5051
G01 X8.6883 Y-34.5268
G01 X8.7049 Y-34.5303
G01 X8.7929 Y-34.5434
G01 X8.8041 Y-34.5448
G01 X8.8154 Y-34.5456
G01 X8.9100 Y-34.5500
G01 X9.0046 Y-34.5456
G01 X9.0159 Y-34.5448
G01 X9.0271 Y-34.5434
G01 X9.1151 Y-34.5303
G01 X9.1317 Y-34.5268
G01 X9.2181 Y-34.5051
G01 X9.2289 Y-34.5018
G01 X9.2497 Y-34.4944
G01 X9.3984 Y-34.6434
G01 X9.4024 Y-34.6572
G01 X9.4125 Y-34.6851
G01 X9.4224 Y-34.7068
G01 X9.4302 Y-34.7220
G01 X9.4455 Y-34.7473
G01 X9.4595 Y-34.7666
G01 X9.4701 Y-34.7800
G01 X9.4901 Y-34.8018
G01 X9.4983 Y-34.8096
G01 X9.5162 Y-34.8255
G01 X9.5398 Y-34.8432
G01 X9.7514 Y-34.9847
G01 X9.9353 Y-35.1686
G01 X10.0797 Y-35.3848
G01 X10.1792 Y-35.6250
G01 X10.2299 Y-35.8800
G01 X10.2299 Y-36.1400
G01 X10.1792 Y-36.3950
G01 X10.0797 Y-36.6352
G01 X9.9353 Y-36.8514
G01 X9.7592 Y-37.0275
G01 X9.7514 Y-37.0357
G01 X9.7356 Y-37.0535
G01 X9.7179 Y-37.0770
G01 X9.7087 Y-37.0912
G01 X9.6995 Y-37.1067
G01 X9.6941 Y-37.1167
G01 X9.6840 Y-37.1382
G01 X9.6797 Y-37.1486
G01 X9.6717 Y-37.1710
G01 X9.6669 Y-37.1872
G01 X9.6614 Y-37.2103
G01 X9.6577 Y-37.2338
G01 X9.6558 Y-37.2506
G01 X9.6548 Y-37.2687
G01 X9.6546 Y-37.2856
G01 X9.6558 Y-37.3094
G01 X9.6569 Y-37.3206
G01 X9.6604 Y-37.3441
G01 X9.6626 Y-37.3552
G01 X9.6684 Y-37.3782
G01 X9.6717 Y-37.3890
G01 X9.6797 Y-37.4114
G01 X9.6840 Y-37.4218
G01 X9.6917 Y-37.4382
G01 X9.6995 Y-37.4533
G01 X9.7147 Y-37.4784
G01 X9.7321 Y-37.5021
G01 X9.7393 Y-37.5108
G01 X9.7552 Y-37.5284
G01 X9.8272 Y-37.6005
G01 X9.8353 Y-37.6083
G01 X9.8531 Y-37.6240
G01 X9.8720 Y-37.6384
G01 X9.8860 Y-37.6480
G01 X9.9064 Y-37.6602
G01 X9.9214 Y-37.6680
G01 X9.9430 Y-37.6779
G01 X9.9653 Y-37.6861
G01 X9.9814 Y-37.6913
G01 X10.0100 Y-37.6982
G01 X10.0334 Y-37.7020
G01 X10.0503 Y-37.7038
G01 X10.0740 Y-37.7050
G01 X10.3171 Y-37.7051
G01 X10.3465 Y-37.7038
G01 X10.3633 Y-37.7020
G01 X10.3868 Y-37.6982
G01 X10.4099 Y-37.6927
G01 X10.4261 Y-37.6880
G01 X10.4485 Y-37.6800
G01 X10.4641 Y-37.6733
G01 X10.4854 Y-37.6629
G01 X10.5060 Y-37.6509
G01 X10.5201 Y-37.6417
G01 X10.5392 Y-37.6275
G01 X10.5522 Y-37.6166
G01 X10.5696 Y-37.6005
G01 X11.7744 Y-36.3956
G01 X11.7904 Y-36.3780
G01 X11.8010 Y-36.3647
G01 X11.8149 Y-36.3455
G01 X11.8273 Y-36.3253
G01 X11.8355 Y-36.3104
G01 X11.8457 Y-36.2889
G01 X11.8519 Y-36.2732
G01 X11.8597 Y-36.2508
G01 X11.8670 Y-36.2223
G01 X11.8692 Y-36.2112
G01 X11.8720 Y-36.1933
G01 X11.8738 Y-36.1765
G01 X11.8751 Y-36.1471
G01 X11.8751 Y-33.7165
G01 X11.8738 Y-33.6872
G01 X11.8727 Y-33.6759
G01 X11.8701 Y-33.6580
G01 X11.8501 Y-33.5557
G01 X11.8501 Y-33.3843
G01 X11.8835 Y-33.2162
G01 X11.9491 Y-33.0579
G01 X12.0443 Y-32.9154
G01 X12.1654 Y-32.7943
G01 X12.3079 Y-32.6991
G01 X12.4662 Y-32.6335
G01 X12.6343 Y-32.6001
G01 X12.8057 Y-32.6001
G01 X12.9738 Y-32.6335
G01 X13.1320 Y-32.6990
G01 X13.2749 Y-32.7946
G01 X13.3957 Y-32.9154
G01 X13.4909 Y-33.0579
G01 X13.5565 Y-33.2162
G01 X13.5899 Y-33.3843
G01 X13.5899 Y-33.5557
G01 X13.5699 Y-33.6580
G01 X13.5673 Y-33.6759
G01 X13.5662 Y-33.6872
G01 X13.5649 Y-33.7165
G01 X13.5649 Y-36.5860
G01 X13.5662 Y-36.6153
G01 X13.5690 Y-36.6450
G01 X13.5527 Y-36.8106
G01 X13.5044 Y-36.9699
G01 X13.4259 Y-37.1167
G01 X13.3204 Y-37.2454
G01 X13.2974 Y-37.2643
G01 X13.2757 Y-37.2842
G01 X11.4542 Y-39.1057
G01 X11.4343 Y-39.1273
G01 X11.4154 Y-39.1504
G01 X11.2867 Y-39.2559
G01 X11.1399 Y-39.3344
G01 X10.9806 Y-39.3827
G01 X10.8150 Y-39.3990
G01 X10.7853 Y-39.3962
G01 X10.7560 Y-39.3949
G01 X10.0796 Y-39.3949
G01 X10.0684 Y-39.3952
G01 X10.0503 Y-39.3962
G01 X10.0390 Y-39.3973
G01 X10.0155 Y-39.4008
G01 X9.9990 Y-39.4043
G01 X9.9814 Y-39.4087
G01 X9.9653 Y-39.4139
G01 X9.9430 Y-39.4221
G01 X9.9214 Y-39.4320
G01 X9.9064 Y-39.4398
G01 X9.8860 Y-39.4520
G01 X9.8720 Y-39.4616
G01 X9.8531 Y-39.4760
G01 X9.8353 Y-39.4917
G01 X9.8272 Y-39.4995
G01 X9.7552 Y-39.5716
G01 X9.7393 Y-39.5892
G01 X9.7321 Y-39.5979
G01 X9.7179 Y-39.6170
G01 X9.7117 Y-39.6264
G01 X9.6995 Y-39.6467
G01 X9.6941 Y-39.6567
G01 X9.6840 Y-39.6782
G01 X9.6777 Y-39.6939
G01 X9.6699 Y-39.7163
G01 X9.6639 Y-39.7393
G01 X9.6604 Y-39.7559
G01 X9.6569 Y-39.7794
G01 X9.6555 Y-39.7963
G01 X9.6546 Y-39.8200
G01 X9.6555 Y-39.8437
G01 X9.6563 Y-39.8550
G01 X9.6595 Y-39.8785
G01 X9.6626 Y-39.8952
G01 X9.6684 Y-39.9182
G01 X9.6735 Y-39.9344
G01 X9.6818 Y-39.9566
G01 X9.6917 Y-39.9782
G01 X9.6995 Y-39.9933
G01 X9.7117 Y-40.0136
G01 X9.7179 Y-40.0230
G01 X9.7321 Y-40.0421
G01 X9.7393 Y-40.0508
G01 X9.7514 Y-40.0643
G01 X9.8272 Y-40.1405
G01 X9.8353 Y-40.1483
G01 X9.8531 Y-40.1640
G01 X9.8720 Y-40.1784
G01 X9.8860 Y-40.1880
G01 X9.9113 Y-40.2029
G01 X9.9327 Y-40.2133
G01 X9.9482 Y-40.2200
G01 X9.9760 Y-40.2297
G01 X10.0045 Y-40.2370
G01 X10.0211 Y-40.2401
G01 X10.0446 Y-40.2433
G01 X10.0740 Y-40.2450
G01 X17.5535 Y-40.2451
G01 X17.5828 Y-40.2438
G01 X17.5941 Y-40.2427
G01 X17.6120 Y-40.2401
G01 X17.7143 Y-40.2201
G01 X17.8857 Y-40.2201
G01 X18.0538 Y-40.2535
G01 X18.2121 Y-40.3191
G01 X18.3546 Y-40.4143
G01 X18.4757 Y-40.5354
G01 X18.5709 Y-40.6779
G01 X18.6365 Y-40.8362
G01 X18.6699 Y-41.0043
G01 X18.6699 Y-41.1757
G01 X18.6365 Y-41.3438
G01 X18.5709 Y-41.5021
G01 X18.4757 Y-41.6446
G01 X18.3546 Y-41.7657
G01 X18.2121 Y-41.8609
G01 X18.0538 Y-41.9265
G01 X17.8857 Y-41.9599
G01 X17.7143 Y-41.9599
G01 X17.6120 Y-41.9399
G01 X17.5941 Y-41.9373
G01 X17.5828 Y-41.9362
G01 X17.5535 Y-41.9349
G01 X10.0796 Y-41.9349
G01 X10.0503 Y-41.9362
G01 X10.0334 Y-41.9380
G01 X10.0100 Y-41.9418
G01 X9.9814 Y-41.9487
G01 X9.9653 Y-41.9539
G01 X9.9430 Y-41.9621
G01 X9.9163 Y-41.9745
G01 X9.9015 Y-41.9827
G01 X9.8813 Y-41.9951
G01 X9.8575 Y-42.0125
G01 X9.8446 Y-42.0234
G01 X9.8272 Y-42.0395
G01 X9.7592 Y-42.1075
G01 X9.7393 Y-42.1292
G01 X9.7287 Y-42.1424
G01 X9.7147 Y-42.1616
G01 X9.6995 Y-42.1867
G01 X9.6917 Y-42.2018
G01 X9.6818 Y-42.2234
G01 X9.6717 Y-42.2510
G01 X9.6669 Y-42.2672
G01 X9.6626 Y-42.2848
G01 X9.6604 Y-42.2959
G01 X9.6563 Y-42.3250
G01 X9.6548 Y-42.3487
G01 X9.6546 Y-42.3656
G01 X9.6563 Y-42.3950
G01 X9.6604 Y-42.4241
G01 X9.6639 Y-42.4407
G01 X9.6699 Y-42.4637
G01 X9.6797 Y-42.4914
G01 X9.6840 Y-42.5018
G01 X9.6917 Y-42.5182
G01 X9.6995 Y-42.5333
G01 X9.7147 Y-42.5584
G01 X9.7287 Y-42.5776
G01 X9.7393 Y-42.5908
G01 X9.7552 Y-42.6084
G01 X9.8312 Y-42.6844
G01 X9.8488 Y-42.7004
G01 X9.8575 Y-42.7075
G01 X9.8766 Y-42.7217
G01 X9.8908 Y-42.7309
G01 X9.9113 Y-42.7429
G01 X9.9378 Y-42.7557
G01 X9.9535 Y-42.7619
G01 X9.9760 Y-42.7697
G01 X10.0045 Y-42.7770
G01 X10.0211 Y-42.7801
G01 X10.0446 Y-42.7833
G01 X10.0740 Y-42.7850
G01 X20.4771 Y-42.7851
G01 X20.5009 Y-42.7842
G01 X20.5177 Y-42.7827
G01 X20.5412 Y-42.7792
G01 X20.5578 Y-42.7757
G01 X20.5808 Y-42.7697
G01 X20.6032 Y-42.7619
G01 X20.6189 Y-42.7557
G01 X20.6404 Y-42.7455
G01 X20.6504 Y-42.7402
G01 X20.6660 Y-42.7309
G01 X20.6755 Y-42.7249
G01 X20.6847 Y-42.7184
G01 X20.6992 Y-42.7075
G01 X20.7080 Y-42.7004
G01 X20.7296 Y-42.6805
G01 X22.5694 Y-40.8406
G01 X22.5890 Y-40.8186
G01 X22.6067 Y-40.7951
G01 X22.6130 Y-40.7858
G01 X22.6223 Y-40.7703
G01 X22.6279 Y-40.7604
G01 X22.6330 Y-40.7503
G01 X22.6407 Y-40.7339
G01 X22.6450 Y-40.7235
G01 X22.6547 Y-40.6958
G01 X22.6577 Y-40.6849
G01 X22.6632 Y-40.6618
G01 X22.6677 Y-40.6327
G01 X22.6692 Y-40.6159
G01 X22.6701 Y-40.5921
G01 X22.6701 Y-34.9399
G01 X22.6688 Y-34.9105
G01 X22.6677 Y-34.8993
G01 X22.6651 Y-34.8813
G01 X22.6632 Y-34.8702
G01 X22.6607 Y-34.8592
G01 X22.6563 Y-34.8416
G01 X22.6530 Y-34.8308
G01 X22.6429 Y-34.8032
G01 X22.6330 Y-34.7816
G01 X22.6252 Y-34.7666
G01 X22.6099 Y-34.7415
G01 X22.5925 Y-34.7177
G01 X22.5816 Y-34.7048
G01 X22.5694 Y-34.6914
G01 X22.5614 Y-34.6834
G01 X22.5395 Y-34.6638
G01 X22.5160 Y-34.6462
G01 X22.5018 Y-34.6369
G01 X22.4813 Y-34.6250
G01 X22.4548 Y-34.6122
G01 X22.4444 Y-34.6079
G01 X22.4274 Y-34.6017
G01 X22.4112 Y-34.5966
G01 X22.3827 Y-34.5897
G01 X22.3592 Y-34.5859
G01 X22.3424 Y-34.5840
G01 X22.3243 Y-34.5831
G01 X22.3130 Y-34.5828
G01 X22.3017 Y-34.5831
G01 X22.2836 Y-34.5840
G01 X22.2724 Y-34.5851
G01 X22.2489 Y-34.5886
G01 X22.2323 Y-34.5921
G01 X22.2093 Y-34.5982
G01 X22.1816 Y-34.6079
G01 X21.9804 Y-34.6911
G01 X21.7351 Y-34.7399
G01 X21.4849 Y-34.7399
G01 X21.2396 Y-34.6911
G01 X21.0085 Y-34.5954
G01 X20.8005 Y-34.4564
G01 X20.6236 Y-34.2795
G01 X20.4846 Y-34.0715
G01 X20.3889 Y-33.8404
G01 X20.3401 Y-33.5951
G01 X20.3401 Y-33.3449
G01 X20.3889 Y-33.0996
G01 X20.4846 Y-32.8685
G01 X20.6236 Y-32.6605
G01 X20.8005 Y-32.4836
G01 X20.9550 Y-32.3803
G01 X20.9747 Y-32.3660
G01 X20.9882 Y-32.3552
G01 X21.0062 Y-32.3387
G01 X21.0144 Y-32.3305
G01 X21.0306 Y-32.3124
G01 X21.0379 Y-32.3034
G01 X21.0489 Y-32.2884
G01 X21.0585 Y-32.2740
G01 X21.0736 Y-32.2479
G01 X21.0839 Y-32.2259
G01 X21.0905 Y-32.2098
G01 X21.1000 Y-32.1812
G01 X21.1058 Y-32.1576
G01 X21.1091 Y-32.1405
G01 X21.1126 Y-32.1106
G01 X21.1132 Y-32.0991
G01 X21.1136 Y-32.0747
G01 X21.1130 Y-32.0632
G01 X21.1109 Y-32.0389
G01 X21.1059 Y-32.0092
G01 X21.1033 Y-31.9979
G01 X21.0966 Y-31.9745
G01 X21.0929 Y-31.9635
G01 X21.0862 Y-31.9462
G01 X21.0816 Y-31.9356
G01 X21.0766 Y-31.9252
G01 X21.0680 Y-31.9087
G01 X21.0622 Y-31.8987
G01 X21.0489 Y-31.8783
G01 X21.0385 Y-31.8644
G01 X21.0230 Y-31.8456
G01 X21.0020 Y-31.8241
G01 X20.9863 Y-31.8103
G01 X20.8124 Y-31.6525
G01 X20.6868 Y-31.4830
G01 X20.6542 Y-31.4141
G01 X20.7009 Y-31.4141
G01 X20.7072 Y-31.4254
G01 X20.7475 Y-31.4927
G01 X20.7536 Y-31.5022
G01 X20.7601 Y-31.5115
G01 X20.8138 Y-31.5834
G01 X20.8212 Y-31.5920
G01 X20.8817 Y-31.6583
G01 X20.9480 Y-31.7188
G01 X20.9566 Y-31.7262
G01 X20.9655 Y-31.7331
G01 X21.0378 Y-31.7864
G01 X21.0473 Y-31.7925
G01 X21.1195 Y-31.8357
G01 X21.1345 Y-31.8435
G01 X21.2055 Y-31.8770
G01 X21.2158 Y-31.8816
G01 X21.2264 Y-31.8857
G01 X21.3110 Y-31.9156
G01 X21.3980 Y-31.9377
G01 X21.4091 Y-31.9402
G01 X21.4202 Y-31.9421
G01 X21.5090 Y-31.9550
G01 X21.5987 Y-31.9597
G01 X21.6100 Y-31.9600
G01 X21.6213 Y-31.9597
G01 X21.7110 Y-31.9550
G01 X21.7998 Y-31.9421
G01 X21.8109 Y-31.9402
G01 X21.8220 Y-31.9377
G01 X21.9090 Y-31.9156
G01 X21.9197 Y-31.9121
G01 X22.0042 Y-31.8816
G01 X22.0855 Y-31.8435
G01 X22.0955 Y-31.8384
G01 X22.1054 Y-31.8328
G01 X22.1822 Y-31.7864
G01 X22.1915 Y-31.7799
G01 X22.2634 Y-31.7262
G01 X22.3301 Y-31.6661
G01 X22.3383 Y-31.6583
G01 X22.3461 Y-31.6501
G01 X22.4062 Y-31.5834
G01 X22.4599 Y-31.5115
G01 X22.4664 Y-31.5022
G01 X22.4725 Y-31.4927
G01 X22.5184 Y-31.4155
G01 X22.5235 Y-31.4055
G01 X22.5616 Y-31.3242
G01 X22.5921 Y-31.2397
G01 X22.5956 Y-31.2290
G01 X22.5987 Y-31.2181
G01 X22.6202 Y-31.1309
G01 X22.6337 Y-31.0422
G01 X22.6350 Y-31.0310
G01 X22.6359 Y-31.0197
G01 X22.6400 Y-30.9300
G01 X22.6359 Y-30.8403
G01 X22.6350 Y-30.8290
G01 X22.6337 Y-30.8178
G01 X22.6221 Y-30.7402
G01 X22.6190 Y-30.7235
G01 X22.5987 Y-30.6419
G01 X22.5956 Y-30.6310
G01 X22.5657 Y-30.5464
G01 X22.5616 Y-30.5358
G01 X22.5570 Y-30.5255
G01 X22.5235 Y-30.4545
G01 X22.5184 Y-30.4445
G01 X22.5128 Y-30.4346
G01 X22.4664 Y-30.3578
G01 X22.4131 Y-30.2855
G01 X22.4062 Y-30.2766
G01 X22.3988 Y-30.2680
G01 X22.3383 Y-30.2017
G01 X22.2720 Y-30.1412
G01 X22.2634 Y-30.1338
G01 X22.1915 Y-30.0801
G01 X22.1822 Y-30.0736
G01 X22.1054 Y-30.0272
G01 X22.0941 Y-30.0209
G01 X22.0941 Y-29.2991
G01 X22.1054 Y-29.2928
G01 X22.1822 Y-29.2464
G01 X22.2545 Y-29.1931
G01 X22.2634 Y-29.1862
G01 X22.2720 Y-29.1788
G01 X22.3301 Y-29.1261
G01 X22.3383 Y-29.1183
G01 X22.3461 Y-29.1101
G01 X22.4062 Y-29.0434
G01 X22.4599 Y-28.9715
G01 X22.4664 Y-28.9622
G01 X22.4725 Y-28.9527
G01 X22.5184 Y-28.8755
G01 X22.5235 Y-28.8655
G01 X22.5616 Y-28.7842
G01 X22.5921 Y-28.6997
G01 X22.5956 Y-28.6890
G01 X22.5987 Y-28.6781
G01 X22.6202 Y-28.5909
G01 X22.6337 Y-28.5022
G01 X22.6350 Y-28.4910
G01 X22.6397 Y-28.4013
G01 X22.6400 Y-28.3900
G01 X22.6397 Y-28.3787
G01 X22.6359 Y-28.3003
G01 X22.6350 Y-28.2890
G01 X22.6337 Y-28.2778
G01 X22.6202 Y-28.1891
G01 X22.5987 Y-28.1019
G01 X22.5939 Y-28.0856
G01 X22.5657 Y-28.0064
G01 X22.5616 Y-27.9958
G01 X22.5235 Y-27.9145
G01 X22.5184 Y-27.9045
G01 X22.5128 Y-27.8946
G01 X22.4664 Y-27.8178
G01 X22.4131 Y-27.7455
G01 X22.4062 Y-27.7366
G01 X22.3988 Y-27.7280
G01 X22.3383 Y-27.6617
G01 X22.2720 Y-27.6012
G01 X22.2634 Y-27.5938
G01 X22.1915 Y-27.5401
G01 X22.1822 Y-27.5336
G01 X22.1727 Y-27.5275
G01 X22.0955 Y-27.4816
G01 X22.0855 Y-27.4765
G01 X22.0042 Y-27.4384
G01 X21.9197 Y-27.4079
G01 X21.9090 Y-27.4044
G01 X21.8981 Y-27.4013
G01 X21.8109 Y-27.3798
G01 X21.7998 Y-27.3779
G01 X21.7110 Y-27.3650
G01 X21.6213 Y-27.3603
G01 X21.6100 Y-27.3600
G01 X21.5203 Y-27.3641
G01 X21.5090 Y-27.3650
G01 X21.4978 Y-27.3663
G01 X21.4091 Y-27.3798
G01 X21.3219 Y-27.4013
G01 X21.3110 Y-27.4044
G01 X21.3003 Y-27.4079
G01 X21.2158 Y-27.4384
G01 X21.2055 Y-27.4430
G01 X21.1295 Y-27.4790
G01 X21.1146 Y-27.4872
G01 X21.0473 Y-27.5275
G01 X21.0378 Y-27.5336
G01 X21.0285 Y-27.5401
G01 X20.9566 Y-27.5938
G01 X20.9480 Y-27.6012
G01 X20.8817 Y-27.6617
G01 X20.8212 Y-27.7280
G01 X20.8138 Y-27.7366
G01 X20.7601 Y-27.8085
G01 X20.7536 Y-27.8178
G01 X20.7475 Y-27.8273
G01 X20.7072 Y-27.8946
G01 X20.7009 Y-27.9059
G01 X20.6542 Y-27.9059
G01 X20.6868 Y-27.8370
G01 X20.8287 Y-27.6455
G01 X20.8353 Y-27.6360
G01 X20.8486 Y-27.6156
G01 X20.8603 Y-27.5942
G01 X20.8678 Y-27.5785
G01 X20.8770 Y-27.5559
G01 X20.8808 Y-27.5450
G01 X20.8877 Y-27.5216
G01 X20.8904 Y-27.5103
G01 X20.8938 Y-27.4921
G01 X20.8957 Y-27.4806
G01 X20.8969 Y-27.4691
G01 X20.8984 Y-27.4506
G01 X20.8988 Y-27.4390
G01 X20.8981 Y-27.4088
G01 X20.8955 Y-27.3846
G01 X20.8939 Y-27.3731
G01 X20.8875 Y-27.3436
G01 X20.8845 Y-27.3325
G01 X20.8787 Y-27.3148
G01 X20.8726 Y-27.2985
G01 X20.8601 Y-27.2711
G01 X20.8482 Y-27.2498
G01 X20.8390 Y-27.2350
G01 X20.8213 Y-27.2106
G01 X20.8054 Y-27.1921
G01 X20.7934 Y-27.1795
G01 X20.7712 Y-27.1592
G01 X20.7621 Y-27.1520
G01 X20.7425 Y-27.1375
G01 X20.7218 Y-27.1246
G01 X20.7066 Y-27.1161
G01 X20.6846 Y-27.1056
G01 X20.6739 Y-27.1012
G01 X20.6510 Y-27.0929
G01 X20.6293 Y-27.0863
G01 X20.5477 Y-27.0426
G01 X20.4761 Y-26.9839
G01 X20.4174 Y-26.9123
G01 X20.3737 Y-26.8307
G01 X20.3469 Y-26.7421
G01 X20.3361 Y-26.6325
G01 X20.3361 Y-26.0059
G01 X20.3348 Y-25.9765
G01 X20.3330 Y-25.9597
G01 X20.3292 Y-25.9362
G01 X20.3267 Y-25.9252
G01 X20.3207 Y-25.9022
G01 X20.3129 Y-25.8798
G01 X20.3067 Y-25.8641
G01 X20.2965 Y-25.8426
G01 X20.2883 Y-25.8277
G01 X20.2790 Y-25.8122
G01 X20.2727 Y-25.8029
G01 X20.2550 Y-25.7794
G01 X20.2354 Y-25.7574
G01 X20.2274 Y-25.7495
G01 X20.2141 Y-25.7372
G01 X20.2055 Y-25.7299
G01 X20.1966 Y-25.7229
G01 X20.1820 Y-25.7122
G01 X20.1726 Y-25.7059
G01 X20.1473 Y-25.6910
G01 X20.1208 Y-25.6782
G01 X20.1104 Y-25.6739
G01 X20.0934 Y-25.6677
G01 X20.0826 Y-25.6642
G01 X20.0718 Y-25.6612
G01 X20.0542 Y-25.6568
G01 X20.0431 Y-25.6546
G01 X20.0140 Y-25.6505
G01 X19.9846 Y-25.6489
G01 X19.9677 Y-25.6491
G01 X19.9496 Y-25.6501
G01 X19.9384 Y-25.6512
G01 X19.9093 Y-25.6557
G01 X19.8983 Y-25.6582
G01 X19.8753 Y-25.6642
G01 X19.8529 Y-25.6719
G01 X19.8423 Y-25.6760
G01 X19.8320 Y-25.6806
G01 X19.8107 Y-25.6910
G01 X19.8009 Y-25.6966
G01 X19.7806 Y-25.7090
G01 X19.7714 Y-25.7155
G01 X19.7525 Y-25.7299
G01 X19.7305 Y-25.7495
G01 X19.7014 Y-25.7789
G01 X19.6893 Y-25.7923
G01 X19.6704 Y-25.8153
G01 X19.5417 Y-25.9209
G01 X19.3949 Y-25.9994
G01 X19.2356 Y-26.0477
G01 X19.0700 Y-26.0640
G01 X19.0403 Y-26.0612
G01 X19.0110 Y-26.0599
G01 X18.8451 Y-26.0599
G01 X18.8157 Y-26.0612
G01 X18.7989 Y-26.0630
G01 X18.7810 Y-26.0658
G01 X18.7699 Y-26.0680
G01 X18.7414 Y-26.0753
G01 X18.7190 Y-26.0831
G01 X18.7084 Y-26.0871
G01 X18.6981 Y-26.0917
G01 X18.6818 Y-26.0995
G01 X18.6718 Y-26.1048
G01 X18.6467 Y-26.1201
G01 X18.6229 Y-26.1375
G01 X18.6100 Y-26.1484
G01 X18.5926 Y-26.1645
G01 X18.5727 Y-26.1862
G01 X18.5607 Y-26.2007
G01 X18.4512 Y-26.2905
G01 X18.3264 Y-26.3572
G01 X18.1909 Y-26.3983
G01 X18.0891 Y-26.4084
G01 X18.0599 Y-26.4125
G01 X18.0434 Y-26.4160
G01 X18.0204 Y-26.4220
G01 X17.9979 Y-26.4298
G01 X17.9822 Y-26.4360
G01 X17.9557 Y-26.4488
G01 X17.9352 Y-26.4608
G01 X17.9210 Y-26.4700
G01 X17.8975 Y-26.4877
G01 X17.8756 Y-26.5073
G01 X17.8638 Y-26.5194
G01 X17.8480 Y-26.5372
G01 X17.8304 Y-26.5607
G01 X17.8211 Y-26.5749
G01 X17.8119 Y-26.5904
G01 X17.8065 Y-26.6004
G01 X17.7942 Y-26.6271
G01 X17.7841 Y-26.6547
G01 X17.7794 Y-26.6709
G01 X17.7750 Y-26.6885
G01 X17.7728 Y-26.6996
G01 X17.7687 Y-26.7287
G01 X17.7671 Y-26.7581
G01 X17.7671 Y-26.7694
G01 X17.7682 Y-26.7931
G01 X17.7693 Y-26.8043
G01 X17.7728 Y-26.8278
G01 X17.7750 Y-26.8389
G01 X17.7808 Y-26.8619
G01 X17.7931 Y-26.9029
G01 X17.8039 Y-27.0125
G01 X17.8039 Y-28.5775
G01 X17.7931 Y-28.6871
G01 X17.7663 Y-28.7757
G01 X17.7226 Y-28.8573
G01 X17.6639 Y-28.9289
G01 X17.5923 Y-28.9876
G01 X17.5034 Y-29.0351
G01 X17.4806 Y-29.0455
G01 X17.4656 Y-29.0533
G01 X17.4405 Y-29.0686
G01 X17.4168 Y-29.0860
G01 X17.4038 Y-29.0969
G01 X17.3864 Y-29.1130
G01 X17.2702 Y-29.2294
G01 X17.2540 Y-29.2469
G01 X17.2431 Y-29.2599
G01 X17.2256 Y-29.2838
G01 X17.2196 Y-29.2934
G01 X17.2076 Y-29.3140
G01 X17.1948 Y-29.3406
G01 X17.1905 Y-29.3511
G01 X17.1843 Y-29.3682
G01 X17.1808 Y-29.3790
G01 X17.1778 Y-29.3899
G01 X17.1735 Y-29.4076
G01 X17.1713 Y-29.4187
G01 X17.1673 Y-29.4480
G01 X17.1659 Y-29.4718
G01 X17.1657 Y-29.4853
G01 X17.1022 Y-29.4386
G01 X17.0927 Y-29.4325
G01 X17.0155 Y-29.3866
G01 X17.0055 Y-29.3815
G01 X16.9242 Y-29.3434
G01 X16.8397 Y-29.3129
G01 X16.8290 Y-29.3094
G01 X16.8181 Y-29.3063
G01 X16.7420 Y-29.2873
G01 X16.7309 Y-29.2848
G01 X16.7198 Y-29.2829
G01 X16.6310 Y-29.2700
G01 X16.5413 Y-29.2653
G01 X16.5300 Y-29.2650
G01 X16.5187 Y-29.2653
G01 X16.4290 Y-29.2700
G01 X16.3402 Y-29.2829
G01 X16.3291 Y-29.2848
G01 X16.3180 Y-29.2873
G01 X16.2419 Y-29.3063
G01 X16.2310 Y-29.3094
G01 X16.2203 Y-29.3129
G01 X16.1358 Y-29.3434
G01 X16.0545 Y-29.3815
G01 X16.0445 Y-29.3866
G01 X16.0346 Y-29.3922
G01 X15.9578 Y-29.4386
G01 X15.8943 Y-29.4853
G01 X15.8941 Y-29.4720
G01 X15.8928 Y-29.4482
G01 X15.8887 Y-29.4190
G01 X15.8866 Y-29.4078
G01 X15.8823 Y-29.3902
G01 X15.8793 Y-29.3792
G01 X15.8758 Y-29.3685
G01 X15.8696 Y-29.3514
G01 X15.8653 Y-29.3409
G01 X15.8526 Y-29.3143
G01 X15.8406 Y-29.2936
G01 X15.8345 Y-29.2840
G01 X15.8171 Y-29.2602
G01 X15.8062 Y-29.2472
G01 X15.7900 Y-29.2297
G01 X15.6739 Y-29.1133
G01 X15.6564 Y-29.0971
G01 X15.6435 Y-29.0861
G01 X15.6197 Y-29.0687
G01 X15.5945 Y-29.0534
G01 X15.5795 Y-29.0456
G01 X15.5566 Y-29.0352
G01 X15.4677 Y-28.9876
G01 X15.3961 Y-28.9289
G01 X15.3374 Y-28.8573
G01 X15.2937 Y-28.7757
G01 X15.2669 Y-28.6871
G01 X15.2561 Y-28.5775
G01 X15.2561 Y-27.0125
G01 X15.2669 Y-26.9029
G01 X15.2937 Y-26.8143
G01 X15.3374 Y-26.7327
G01 X15.3564 Y-26.7094
G01 X15.3705 Y-26.6903
G01 X15.3768 Y-26.6809
G01 X15.3917 Y-26.6556
G01 X15.3968 Y-26.6455
G01 X15.4067 Y-26.6239
G01 X15.4150 Y-26.6016
G01 X15.4185 Y-26.5909
G01 X15.4246 Y-26.5680
G01 X15.4281 Y-26.5514
G01 X15.4316 Y-26.5279
G01 X15.4327 Y-26.5167
G01 X15.4338 Y-26.4929
G01 X15.4336 Y-26.4760
G01 X15.4322 Y-26.4523
G01 X15.4281 Y-26.4232
G01 X15.4259 Y-26.4121
G01 X15.4215 Y-26.3945
G01 X15.4168 Y-26.3782
G01 X15.4067 Y-26.3506
G01 X15.3968 Y-26.3290
G01 X15.3890 Y-26.3140
G01 X15.3737 Y-26.2889
G01 X15.3598 Y-26.2697
G01 X15.3492 Y-26.2564
G01 X15.3293 Y-26.2348
G01 X15.3119 Y-26.2186
G01 X15.2989 Y-26.2077
G01 X15.2799 Y-26.1936
G01 X15.2657 Y-26.1844
G01 X15.2448 Y-26.1722
G01 X15.2025 Y-26.1375
G01 X15.1678 Y-26.0952
G01 X15.1420 Y-26.0469
G01 X15.1261 Y-25.9945
G01 X15.1191 Y-25.9237
G01 X15.1207 Y-25.6991
G01 X15.1702 Y-25.6991
G01 X15.1723 Y-25.7370
G01 X15.1773 Y-25.7725
G01 X15.1792 Y-25.7836
G01 X15.1817 Y-25.7947
G01 X15.1907 Y-25.8293
G01 X15.2044 Y-25.8684
G01 X15.2088 Y-25.8789
G01 X15.2216 Y-25.9062
G01 X15.2267 Y-25.9163
G01 X15.2322 Y-25.9261
G01 X15.2478 Y-25.9519
G01 X15.2541 Y-25.9613
G01 X15.2720 Y-25.9856
G01 X15.2826 Y-25.9988
G01 X15.3106 Y-26.0294
G01 X15.3369 Y-26.0537
G01 X15.3499 Y-26.0646
G01 X15.3833 Y-26.0891
G01 X15.4188 Y-26.1106
G01 X15.4338 Y-26.1184
G01 X15.4663 Y-26.1335
G01 X15.5053 Y-26.1476
G01 X15.5161 Y-26.1509
G01 X15.5453 Y-26.1583
G01 X15.5564 Y-26.1608
G01 X15.5675 Y-26.1627
G01 X15.6030 Y-26.1677
G01 X15.6444 Y-26.1699
G01 X16.1500 Y-26.1700
G01 X16.1613 Y-26.1697
G01 X16.1970 Y-26.1677
G01 X16.2325 Y-26.1627
G01 X16.2492 Y-26.1596
G01 X16.2839 Y-26.1509
G01 X16.3001 Y-26.1458
G01 X16.3337 Y-26.1335
G01 X16.3713 Y-26.1159
G01 X16.3861 Y-26.1078
G01 X16.4119 Y-26.0922
G01 X16.4259 Y-26.0826
G01 X16.4545 Y-26.0610
G01 X16.4812 Y-26.0372
G01 X16.4934 Y-26.0254
G01 X16.5174 Y-25.9988
G01 X16.5280 Y-25.9856
G01 X16.5459 Y-25.9613
G01 X16.5551 Y-25.9471
G01 X16.5733 Y-25.9163
G01 X16.5784 Y-25.9062
G01 X16.5935 Y-25.8737
G01 X16.6058 Y-25.8401
G01 X16.6093 Y-25.8293
G01 X16.6183 Y-25.7947
G01 X16.6218 Y-25.7781
G01 X16.6277 Y-25.7370
G01 X16.6297 Y-25.7013
G01 X16.6300 Y-25.6900
G01 X16.6300 Y-24.7400
G01 X16.6282 Y-24.6986
G01 X16.6263 Y-24.6817
G01 X16.6208 Y-24.6464
G01 X16.6109 Y-24.6061
G01 X16.6058 Y-24.5899
G01 X16.5935 Y-24.5563
G01 X16.5759 Y-24.5187
G01 X16.5678 Y-24.5039
G01 X16.5491 Y-24.4733
G01 X16.5280 Y-24.4444
G01 X16.5174 Y-24.4312
G01 X16.4894 Y-24.4006
G01 X16.4588 Y-24.3726
G01 X16.4456 Y-24.3620
G01 X16.4167 Y-24.3409
G01 X16.3841 Y-24.3211
G01 X16.3841 Y-24.2093
G01 X16.4545 Y-24.2161
G01 X16.5069 Y-24.2320
G01 X16.5552 Y-24.2578
G01 X16.5734 Y-24.2716
G01 X16.5826 Y-24.2781
G01 X16.6029 Y-24.2906
G01 X16.6127 Y-24.2961
G01 X16.6340 Y-24.3065
G01 X16.6444 Y-24.3111
G01 X16.6549 Y-24.3152
G01 X16.6774 Y-24.3229
G01 X16.6882 Y-24.3259
G01 X16.7114 Y-24.3314
G01 X16.7404 Y-24.3359
G01 X16.7516 Y-24.3371
G01 X16.7754 Y-24.3382
G01 X16.7867 Y-24.3382
G01 X16.8048 Y-24.3374
G01 X16.8216 Y-24.3359
G01 X16.8451 Y-24.3325
G01 X16.8562 Y-24.3303
G01 X16.8792 Y-24.3245
G01 X16.8900 Y-24.3212
G01 X16.9124 Y-24.3132
G01 X16.9228 Y-24.3089
G01 X16.9443 Y-24.2987
G01 X16.9543 Y-24.2934
G01 X16.9747 Y-24.2812
G01 X16.9840 Y-24.2749
G01 X17.0031 Y-24.2608
G01 X17.0119 Y-24.2536
G01 X17.0310 Y-24.2362
G01 X17.1488 Y-24.1395
G01 X17.2736 Y-24.0728
G01 X17.4091 Y-24.0317
G01 X17.5675 Y-24.0161
G01 X18.0325 Y-24.0161
G01 X18.1909 Y-24.0317
G01 X18.3266 Y-24.0728
G01 X18.3549 Y-24.0861
G01 X18.3772 Y-24.0943
G01 X18.3879 Y-24.0979
G01 X18.4163 Y-24.1052
G01 X18.4274 Y-24.1074
G01 X18.4453 Y-24.1101
G01 X18.4621 Y-24.1120
G01 X18.4859 Y-24.1132
G01 X18.5028 Y-24.1130
G01 X18.5265 Y-24.1115
G01 X18.5501 Y-24.1083
G01 X18.5667 Y-24.1052
G01 X18.5898 Y-24.0994
G01 X18.6059 Y-24.0943
G01 X18.6229 Y-24.0881
G01 X18.6334 Y-24.0838
G01 X18.6598 Y-24.0711
G01 X18.6804 Y-24.0591
G01 X18.6899 Y-24.0531
G01 X18.7136 Y-24.0357
G01 X18.7224 Y-24.0285
G01 X18.7400 Y-24.0126
G01 X18.7479 Y-24.0046
G01 X18.7602 Y-23.9912
G01 X18.7711 Y-23.9783
G01 X18.7819 Y-23.9638
G01 X18.7884 Y-23.9545
G01 X18.7944 Y-23.9450
G01 X18.8064 Y-23.9245
G01 X18.8192 Y-23.8980
G01 X18.8255 Y-23.8823
G01 X18.8332 Y-23.8598
G01 X18.8362 Y-23.8489
G01 X18.8417 Y-23.8258
G01 X18.8685 Y-23.6912
G01 X18.9341 Y-23.5329
G01 X19.0293 Y-23.3904
G01 X19.1504 Y-23.2693
G01 X19.2929 Y-23.1741
G01 X19.4512 Y-23.1085
G01 X19.6193 Y-23.0751
G01 X19.7907 Y-23.0751
G01 X19.9588 Y-23.1085
G01 X20.1171 Y-23.1741
G01 X20.2596 Y-23.2693
G01 X20.3807 Y-23.3904
G01 X20.4759 Y-23.5329
G01 X20.5415 Y-23.6912
G01 X20.5749 Y-23.8593
G01 X20.5749 Y-24.0307
G01 X20.5549 Y-24.1330
G01 X20.5517 Y-24.1565
G01 X20.5500 Y-24.1859
G01 X20.5500 Y-24.2246
G01 X20.5512 Y-24.2484
G01 X20.5523 Y-24.2596
G01 X20.5568 Y-24.2887
G01 X20.5593 Y-24.2997
G01 X20.5653 Y-24.3226
G01 X20.5689 Y-24.3334
G01 X20.5771 Y-24.3556
G01 X20.5870 Y-24.3772
G01 X20.5921 Y-24.3873
G01 X20.5977 Y-24.3971
G01 X20.6101 Y-24.4174
G01 X20.6240 Y-24.4366
G01 X20.6310 Y-24.4455
G01 X20.6384 Y-24.4541
G01 X20.6545 Y-24.4715
G01 X20.6719 Y-24.4876
G01 X20.6805 Y-24.4950
G01 X20.6894 Y-24.5020
G01 X20.7086 Y-24.5159
G01 X20.7289 Y-24.5283
G01 X20.7437 Y-24.5365
G01 X20.7652 Y-24.5467
G01 X20.7809 Y-24.5529
G01 X20.8033 Y-24.5607
G01 X20.8263 Y-24.5667
G01 X20.8429 Y-24.5702
G01 X20.8664 Y-24.5737
G01 X20.8776 Y-24.5748
G01 X20.9014 Y-24.5760
G01 X22.3130 Y-24.5761
G01 X22.3367 Y-24.5752
G01 X22.3536 Y-24.5737
G01 X22.3771 Y-24.5702
G01 X22.3937 Y-24.5667
G01 X22.4167 Y-24.5607
G01 X22.4391 Y-24.5529
G01 X22.4548 Y-24.5467
G01 X22.4763 Y-24.5365
G01 X22.4911 Y-24.5283
G01 X22.5114 Y-24.5159
G01 X22.5206 Y-24.5094
G01 X22.5395 Y-24.4950
G01 X22.5573 Y-24.4793
G01 X22.5694 Y-24.4674
G01 X22.5854 Y-24.4498
G01 X22.5960 Y-24.4366
G01 X22.6099 Y-24.4174
G01 X22.6223 Y-24.3971
G01 X22.6305 Y-24.3823
G01 X22.6407 Y-24.3608
G01 X22.6469 Y-24.3451
G01 X22.6547 Y-24.3226
G01 X22.6577 Y-24.3118
G01 X22.6632 Y-24.2887
G01 X22.6651 Y-24.2775
G01 X22.6683 Y-24.2540
G01 X22.6698 Y-24.2303
G01 X22.6701 Y-24.2190
G01 X22.6701 Y-23.3690
G01 X22.6688 Y-23.3397
G01 X22.6660 Y-23.3100
G01 X22.6823 Y-23.1444
G01 X22.7306 Y-22.9851
G01 X22.8091 Y-22.8383
G01 X22.9147 Y-22.7096
G01 X22.9376 Y-22.6907
G01 X22.9593 Y-22.6708
G01 X24.7808 Y-20.8493
G01 X24.8007 Y-20.8276
G01 X24.8197 Y-20.8046
G01 X24.9483 Y-20.6991
G01 X25.0951 Y-20.6206
G01 X25.2544 Y-20.5723
G01 X25.4200 Y-20.5560
G01 X25.4497 Y-20.5588
G01 X25.4790 Y-20.5601
G01 X27.9827 Y-20.5601
G01 X27.9943 Y-20.5598
G01 X28.0186 Y-20.5583
G01 X28.0427 Y-20.5549
G01 X28.0541 Y-20.5529
G01 X28.0777 Y-20.5471
G01 X28.0943 Y-20.5421
G01 X28.1172 Y-20.5337
G01 X28.1331 Y-20.5267
G01 X28.1548 Y-20.5158
G01 X28.1806 Y-20.5002
G01 X28.1948 Y-20.4901
G01 X28.2139 Y-20.4751
G01 X28.2318 Y-20.4586
G01 X28.2440 Y-20.4463
G01 X28.2636 Y-20.4234
G01 X28.2779 Y-20.4037
G01 X28.2874 Y-20.3891
G01 X28.2993 Y-20.3679
G01 X28.3069 Y-20.3523
G01 X28.3164 Y-20.3299
G01 X28.3242 Y-20.3068
G01 X28.3289 Y-20.2902
G01 X28.3341 Y-20.2663
G01 X28.3367 Y-20.2492
G01 X28.3391 Y-20.2250
G01 X28.3396 Y-20.2006
G01 X28.3392 Y-20.1833
G01 X28.3370 Y-20.1590
G01 X28.3344 Y-20.1419
G01 X28.3295 Y-20.1180
G01 X28.3265 Y-20.1069
G01 X28.3192 Y-20.0836
G01 X28.3079 Y-20.0557
G01 X28.2742 Y-19.9841
G01 X28.3209 Y-19.9841
G01 X28.3272 Y-19.9954
G01 X28.3675 Y-20.0627
G01 X28.3736 Y-20.0722
G01 X28.3801 Y-20.0815
G01 X28.4338 Y-20.1534
G01 X28.4939 Y-20.2201
G01 X28.5017 Y-20.2283
G01 X28.5099 Y-20.2361
G01 X28.5766 Y-20.2962
G01 X28.6485 Y-20.3499
G01 X28.6625 Y-20.3595
G01 X28.7346 Y-20.4028
G01 X28.7445 Y-20.4084
G01 X28.7545 Y-20.4135
G01 X28.8358 Y-20.4516
G01 X28.9203 Y-20.4821
G01 X28.9310 Y-20.4856
G01 X28.9419 Y-20.4887
G01 X29.0291 Y-20.5102
G01 X29.0402 Y-20.5121
G01 X29.1290 Y-20.5250
G01 X29.2187 Y-20.5297
G01 X29.2300 Y-20.5300
G01 X29.3197 Y-20.5259
G01 X29.3310 Y-20.5250
G01 X29.3422 Y-20.5237
G01 X29.4309 Y-20.5102
G01 X29.5181 Y-20.4887
G01 X29.5290 Y-20.4856
G01 X29.5397 Y-20.4821
G01 X29.6242 Y-20.4516
G01 X29.7055 Y-20.4135
G01 X29.7155 Y-20.4084
G01 X29.7927 Y-20.3625
G01 X29.8022 Y-20.3564
G01 X29.8115 Y-20.3499
G01 X29.8834 Y-20.2962
G01 X29.8920 Y-20.2888
G01 X29.9583 Y-20.2283
G01 X30.0188 Y-20.1620
G01 X30.0262 Y-20.1534
G01 X30.0799 Y-20.0815
G01 X30.0864 Y-20.0722
G01 X30.0925 Y-20.0627
G01 X30.1328 Y-19.9954
G01 X30.1391 Y-19.9841
G01 X30.1858 Y-19.9841
G01 X30.1521 Y-20.0557
G01 X30.1428 Y-20.0782
G01 X30.1389 Y-20.0891
G01 X30.1319 Y-20.1124
G01 X30.1280 Y-20.1293
G01 X30.1237 Y-20.1533
G01 X30.1208 Y-20.1833
G01 X30.1204 Y-20.2006
G01 X30.1209 Y-20.2250
G01 X30.1241 Y-20.2549
G01 X30.1271 Y-20.2720
G01 X30.1325 Y-20.2958
G01 X30.1416 Y-20.3245
G01 X30.1479 Y-20.3406
G01 X30.1580 Y-20.3628
G01 X30.1697 Y-20.3841
G01 X30.1788 Y-20.3989
G01 X30.1929 Y-20.4188
G01 X30.2037 Y-20.4323
G01 X30.2199 Y-20.4505
G01 X30.2375 Y-20.4674
G01 X30.2506 Y-20.4788
G01 X30.2699 Y-20.4936
G01 X30.2843 Y-20.5033
G01 X30.3052 Y-20.5158
G01 X30.3269 Y-20.5267
G01 X30.3374 Y-20.5315
G01 X30.3602 Y-20.5402
G01 X30.3767 Y-20.5456
G01 X30.4003 Y-20.5516
G01 X30.4173 Y-20.5549
G01 X30.4357 Y-20.5576
G01 X30.4472 Y-20.5588
G01 X30.4773 Y-20.5601
G01 X32.8817 Y-20.5601
G01 X32.8930 Y-20.5598
G01 X32.9111 Y-20.5588
G01 X32.9223 Y-20.5577
G01 X32.9458 Y-20.5542
G01 X32.9569 Y-20.5520
G01 X32.9799 Y-20.5463
G01 X32.9907 Y-20.5430
G01 X33.0131 Y-20.5350
G01 X33.0235 Y-20.5307
G01 X33.0450 Y-20.5205
G01 X33.0549 Y-20.5152
G01 X33.0753 Y-20.5030
G01 X33.0847 Y-20.4967
G01 X33.1038 Y-20.4825
G01 X33.1125 Y-20.4754
G01 X33.1301 Y-20.4594
G01 X33.1381 Y-20.4514
G01 X33.1541 Y-20.4338
G01 X33.1612 Y-20.4251
G01 X33.1754 Y-20.4060
G01 X33.1816 Y-20.3966
G01 X33.1939 Y-20.3763
G01 X33.1992 Y-20.3663
G01 X33.2093 Y-20.3448
G01 X33.2137 Y-20.3344
G01 X33.2217 Y-20.3120
G01 X33.2249 Y-20.3012
G01 X33.2307 Y-20.2782
G01 X33.2329 Y-20.2671
G01 X33.2364 Y-20.2436
G01 X33.2375 Y-20.2324
G01 X33.2387 Y-20.2086
G01 X33.2385 Y-20.1917
G01 X33.2375 Y-20.1736
G01 X33.2364 Y-20.1624
G01 X33.2329 Y-20.1389
G01 X33.2294 Y-20.1223
G01 X33.2249 Y-20.1048
G01 X33.2198 Y-20.0886
G01 X33.2116 Y-20.0664
G01 X33.2017 Y-20.0448
G01 X33.1966 Y-20.0347
G01 X33.1910 Y-20.0249
G01 X33.1816 Y-20.0094
G01 X33.1754 Y-20.0000
G01 X33.1612 Y-19.9809
G01 X33.1174 Y-19.9273
G01 X33.0737 Y-19.8457
G01 X33.0469 Y-19.7571
G01 X33.0361 Y-19.6475
G01 X33.0361 Y-18.0825
G01 X33.0469 Y-17.9729
G01 X33.0737 Y-17.8843
G01 X33.1174 Y-17.8027
G01 X33.1761 Y-17.7311
G01 X33.2614 Y-17.6611
G01 X33.2833 Y-17.6415
G01 X33.2951 Y-17.6294
G01 X33.3109 Y-17.6116
G01 X33.3252 Y-17.5927
G01 X33.3348 Y-17.5788
G01 X33.3497 Y-17.5534
G01 X33.3601 Y-17.5321
G01 X33.3668 Y-17.5165
G01 X33.3765 Y-17.4888
G01 X33.3839 Y-17.4603
G01 X33.3870 Y-17.4436
G01 X33.3896 Y-17.4257
G01 X33.3907 Y-17.4145
G01 X33.3919 Y-17.3851
G01 X33.3910 Y-17.3614
G01 X33.3902 Y-17.3501
G01 X33.3870 Y-17.3266
G01 X33.3839 Y-17.3099
G01 X33.3781 Y-17.2869
G01 X33.3748 Y-17.2761
G01 X33.3668 Y-17.2537
G01 X33.3601 Y-17.2381
G01 X33.3497 Y-17.2168
G01 X33.3348 Y-17.1915
G01 X33.1846 Y-16.9665
G01 X33.0889 Y-16.7354
G01 X33.0401 Y-16.4901
G01 X33.0401 Y-16.2399
G01 X33.0889 Y-15.9946
G01 X33.1846 Y-15.7635
G01 X33.3236 Y-15.5555
G01 X33.5005 Y-15.3786
G01 X33.7085 Y-15.2396
G01 X33.9396 Y-15.1439
G01 X34.0032 Y-15.1312
G01 X34.0263 Y-15.1257
G01 X34.0426 Y-15.1210
G01 X34.0702 Y-15.1109
G01 X34.0969 Y-15.0985
G01 X34.1068 Y-15.0932
G01 X34.1224 Y-15.0839
G01 X34.1366 Y-15.0747
G01 X34.1601 Y-15.0570
G01 X34.1779 Y-15.0413
G01 X34.1861 Y-15.0335
G01 X34.2022 Y-15.0161
G01 X34.2131 Y-15.0031
G01 X34.2273 Y-14.9840
G01 X34.2365 Y-14.9698
G01 X34.2485 Y-14.9493
G01 X34.2589 Y-14.9280
G01 X34.2656 Y-14.9124
G01 X34.2736 Y-14.8900
G01 X34.2768 Y-14.8792
G01 X34.2826 Y-14.8562
G01 X34.2857 Y-14.8395
G01 X34.2889 Y-14.8160
G01 X34.2897 Y-14.8047
G01 X34.2906 Y-14.7810
G01 X34.2897 Y-14.7573
G01 X34.2883 Y-14.7404
G01 X34.2838 Y-14.7113
G01 X34.2783 Y-14.6882
G01 X34.2736 Y-14.6720
G01 X34.2635 Y-14.6444
G01 X34.2536 Y-14.6228
G01 X34.2458 Y-14.6077
G01 X34.2305 Y-14.5826
G01 X34.2165 Y-14.5634
G01 X34.2060 Y-14.5502
G01 X34.1861 Y-14.5285
G01 X34.1686 Y-14.5124
G01 X34.1557 Y-14.5015
G01 X34.1319 Y-14.4841
G01 X34.1117 Y-14.4717
G01 X34.0969 Y-14.4635
G01 X34.0754 Y-14.4533
G01 X34.0650 Y-14.4490
G01 X34.0426 Y-14.4410
G01 X34.0263 Y-14.4363
G01 X34.0032 Y-14.4308
G01 X33.9921 Y-14.4289
G01 X33.9686 Y-14.4257
G01 X33.9573 Y-14.4248
G01 X33.9336 Y-14.4239
G01 X33.5275 Y-14.4239
G01 X33.4179 Y-14.4131
G01 X33.3293 Y-14.3863
G01 X33.2477 Y-14.3426
G01 X33.1761 Y-14.2839
G01 X33.1174 Y-14.2123
G01 X33.0737 Y-14.1307
G01 X33.0469 Y-14.0421
G01 X33.0361 Y-13.9325
G01 X33.0361 Y-12.3675
G01 X33.0469 Y-12.2579
G01 X33.0737 Y-12.1693
G01 X33.1174 Y-12.0877
G01 X33.1761 Y-12.0161
G01 X33.2657 Y-11.9425
G01 X33.2833 Y-11.9265
G01 X33.2913 Y-11.9186
G01 X33.3072 Y-11.9009
G01 X33.3178 Y-11.8877
G01 X33.3317 Y-11.8685
G01 X33.3442 Y-11.8483
G01 X33.3523 Y-11.8334
G01 X33.3647 Y-11.8068
G01 X33.3730 Y-11.7845
G01 X33.3781 Y-11.7683
G01 X33.3839 Y-11.7453
G01 X33.3870 Y-11.7286
G01 X33.3902 Y-11.7051
G01 X33.3918 Y-11.6758
G01 X33.3916 Y-11.6588
G01 X33.3902 Y-11.6351
G01 X33.3888 Y-11.6239
G01 X33.3850 Y-11.6005
G01 X33.3795 Y-11.5773
G01 X33.3748 Y-11.5611
G01 X33.3668 Y-11.5387
G01 X33.3601 Y-11.5231
G01 X33.3497 Y-11.5018
G01 X33.3348 Y-11.4765
G01 X33.1846 Y-11.2515
G01 X33.0889 Y-11.0204
G01 X33.0401 Y-10.7751
G01 X33.0401 Y-10.5249
G01 X33.0889 Y-10.2796
G01 X33.1846 Y-10.0485
G01 X33.3236 Y-9.8405
G01 X33.5005 Y-9.6636
G01 X33.7085 Y-9.5246
G01 X33.9396 Y-9.4289
G01 X34.1849 Y-9.3801
G01 X34.2559 Y-9.3800
G01 X34.2853 Y-9.3783
G01 X34.3088 Y-9.3751
G01 X34.3255 Y-9.3720
G01 X34.3485 Y-9.3663
G01 X34.3647 Y-9.3611
G01 X34.3817 Y-9.3550
G01 X34.3921 Y-9.3507
G01 X34.4136 Y-9.3405
G01 X34.4236 Y-9.3352
G01 X34.4439 Y-9.3230
G01 X34.4579 Y-9.3134
G01 X34.4724 Y-9.3025
G01 X34.5133 Y-9.2691
G01 X34.6601 Y-9.1906
G01 X34.8194 Y-9.1423
G01 X34.9850 Y-9.1260
G01 X35.0147 Y-9.1288
G01 X35.0440 Y-9.1301
G01 X39.2473 Y-9.1301
G01 X39.3756 Y-9.1427
G01 X39.3939 Y-9.1466
G01 X39.4230 Y-9.1507
G01 X39.4524 Y-9.1524
G01 X39.4637 Y-9.1524
G01 X39.4817 Y-9.1516
G01 X39.4930 Y-9.1507
G01 X39.5042 Y-9.1494
G01 X39.5221 Y-9.1466
G01 X39.5332 Y-9.1444
G01 X39.5617 Y-9.1371
G01 X39.5894 Y-9.1274
G01 X39.5998 Y-9.1231
G01 X39.6162 Y-9.1154
G01 X39.6263 Y-9.1103
G01 X39.6361 Y-9.1047
G01 X39.6516 Y-9.0954
G01 X39.6610 Y-9.0891
G01 X39.6845 Y-9.0714
G01 X39.7064 Y-9.0518
G01 X39.7144 Y-9.0438
G01 X39.7266 Y-9.0305
G01 X39.7340 Y-9.0219
G01 X39.7410 Y-9.0130
G01 X39.7517 Y-8.9984
G01 X39.7580 Y-8.9890
G01 X39.7729 Y-8.9637
G01 X39.7857 Y-8.9372
G01 X39.7900 Y-8.9268
G01 X39.7961 Y-8.9098
G01 X39.7997 Y-8.8991
G01 X39.8027 Y-8.8882
G01 X39.8082 Y-8.8651
G01 X39.8120 Y-8.8416
G01 X39.8138 Y-8.8248
G01 X39.8150 Y-8.8010
G01 X39.8151 Y-8.5679
G01 X39.8148 Y-8.5566
G01 X39.8133 Y-8.5329
G01 X39.8101 Y-8.5093
G01 X39.8070 Y-8.4927
G01 X39.8013 Y-8.4697
G01 X39.7961 Y-8.4535
G01 X39.7879 Y-8.4312
G01 X39.7755 Y-8.4046
G01 X39.7673 Y-8.3897
G01 X39.7549 Y-8.3695
G01 X39.7484 Y-8.3603
G01 X39.7340 Y-8.3414
G01 X39.7266 Y-8.3328
G01 X39.7105 Y-8.3154
G01 X38.7632 Y-7.3681
G01 X38.6841 Y-7.2717
G01 X38.6056 Y-7.1250
G01 X38.5454 Y-6.9262
G01 X38.5374 Y-6.9039
G01 X38.5331 Y-6.8934
G01 X38.5229 Y-6.8719
G01 X38.5147 Y-6.8571
G01 X38.5023 Y-6.8369
G01 X38.4850 Y-6.8131
G01 X38.4741 Y-6.8001
G01 X38.4579 Y-6.7827
G01 X38.4363 Y-6.7628
G01 X38.4230 Y-6.7522
G01 X38.4038 Y-6.7383
G01 X38.3787 Y-6.7230
G01 X38.3687 Y-6.7177
G01 X38.3473 Y-6.7075
G01 X38.3368 Y-6.7032
G01 X38.3198 Y-6.6970
G01 X38.3091 Y-6.6935
G01 X38.2982 Y-6.6904
G01 X38.2806 Y-6.6861
G01 X38.2639 Y-6.6830
G01 X38.2460 Y-6.6804
G01 X38.2348 Y-6.6793
G01 X38.2110 Y-6.6781
G01 X38.1997 Y-6.6781
G01 X38.1704 Y-6.6798
G01 X38.1592 Y-6.6811
G01 X38.1357 Y-6.6849
G01 X38.1071 Y-6.6918
G01 X38.0910 Y-6.6970
G01 X38.0687 Y-6.7052
G01 X38.0420 Y-6.7176
G01 X38.0272 Y-6.7258
G01 X38.0117 Y-6.7351
G01 X38.0023 Y-6.7414
G01 X37.9832 Y-6.7556
G01 X37.9623 Y-6.7726
G01 X37.8807 Y-6.8163
G01 X37.7921 Y-6.8431
G01 X37.6825 Y-6.8539
G01 X36.0175 Y-6.8539
G01 X35.9079 Y-6.8431
G01 X35.8193 Y-6.8163
G01 X35.7377 Y-6.7726
G01 X35.6661 Y-6.7139
G01 X35.6074 Y-6.6423
G01 X35.5637 Y-6.5607
G01 X35.5369 Y-6.4721
G01 X35.5261 Y-6.3625
G01 X35.5261 Y-4.6975
G01 X35.5369 Y-4.5879
G01 X35.5637 Y-4.4993
G01 X35.6074 Y-4.4177
G01 X35.6661 Y-4.3461
G01 X35.7377 Y-4.2874
G01 X35.8221 Y-4.2422
G01 X35.8430 Y-4.2341
G01 X35.8695 Y-4.2213
G01 X35.8900 Y-4.2094
G01 X35.8995 Y-4.2033
G01 X35.9233 Y-4.1860
G01 X35.9320 Y-4.1788
G01 X35.9455 Y-4.1667
G01 X35.9576 Y-4.1549
G01 X35.9772 Y-4.1330
G01 X35.9916 Y-4.1140
G01 X36.0011 Y-4.1001
G01 X36.0133 Y-4.0797
G01 X36.0211 Y-4.0647
G01 X36.0310 Y-4.0431
G01 X36.0411 Y-4.0155
G01 X36.0656 Y-3.9351
G01 X36.1441 Y-3.7883
G01 X36.2497 Y-3.6596
G01 X36.2726 Y-3.6407
G01 X36.2943 Y-3.6208
G01 X37.4808 Y-2.4343
G01 X37.5007 Y-2.4126
G01 X37.5196 Y-2.3896
G01 X37.6483 Y-2.2841
G01 X37.7951 Y-2.2056
G01 X37.8509 Y-2.1887
G01 X37.8733 Y-2.1809
G01 X37.8890 Y-2.1747
G01 X37.9155 Y-2.1619
G01 X37.9253 Y-2.1563
G01 X37.9456 Y-2.1439
G01 X37.9693 Y-2.1265
G01 X37.9780 Y-2.1194
G01 X37.9956 Y-2.1034
G01 X38.0036 Y-2.0954
G01 X38.0158 Y-2.0821
G01 X38.0232 Y-2.0735
G01 X38.0302 Y-2.0646
G01 X38.0409 Y-2.0500
G01 X38.0472 Y-2.0406
G01 X38.0621 Y-2.0153
G01 X38.0749 Y-1.9888
G01 X38.0792 Y-1.9784
G01 X38.0854 Y-1.9614
G01 X38.0905 Y-1.9452
G01 X38.0974 Y-1.9167
G01 X38.1019 Y-1.8876
G01 X38.1030 Y-1.8764
G01 X38.1040 Y-1.8583
G01 X38.1042 Y-1.8414
G01 X38.1026 Y-1.8120
G01 X38.0984 Y-1.7829
G01 X38.0962 Y-1.7718
G01 X38.0919 Y-1.7542
G01 X38.0872 Y-1.7380
G01 X38.0771 Y-1.7104
G01 X38.0647 Y-1.6837
G01 X38.0594 Y-1.6737
G01 X38.0501 Y-1.6582
G01 X38.0409 Y-1.6440
G01 X38.0232 Y-1.6205
G01 X38.0075 Y-1.6027
G01 X37.9956 Y-1.5906
G01 X37.9737 Y-1.5710
G01 X37.9502 Y-1.5533
G01 X37.9360 Y-1.5441
G01 X37.9155 Y-1.5321
G01 X37.8890 Y-1.5193
G01 X37.8786 Y-1.5150
G01 X37.8616 Y-1.5089
G01 X37.8454 Y-1.5037
G01 X37.8169 Y-1.4968
G01 X37.7934 Y-1.4930
G01 X37.7766 Y-1.4912
G01 X37.7472 Y-1.4899
G01 X4.4806 Y-1.4899
G01 X4.4666 Y-1.4904
G01 X4.4454 Y-1.4917
G01 X4.4286 Y-1.4938
G01 X4.4078 Y-1.4976
G01 X4.3940 Y-1.5006
G01 X1.9377 Y-2.1148
G01 X1.9096 Y-2.1235
G01 X1.8875 Y-2.1323
G01 X1.8721 Y-2.1394
G01 X1.8462 Y-2.1534
G01 X1.8263 Y-2.1664
G01 X1.8126 Y-2.1763
G01 X1.7899 Y-2.1952
G01 X1.7729 Y-2.2118
G01 X1.7614 Y-2.2242
G01 X1.7429 Y-2.2471
G01 X1.7295 Y-2.2667
G01 X1.7206 Y-2.2811
G01 X1.7069 Y-2.3072
G01 X1.6976 Y-2.3290
G01 X1.6917 Y-2.3449
G01 X1.6848 Y-2.3677
G01 X1.0706 Y-4.8240
G01 X1.0676 Y-4.8378
G01 X1.0630 Y-4.8642
G01 X1.0613 Y-4.8810
G01 X1.0599 Y-4.9106
G00 Z2.0000
G00 X1.1499 Y-4.9106
G01 F60.00
G01 Z-0.0000
G01 F120.00
G01 X1.1499 Y-32.3881
G01 X1.1507 Y-32.4075
G01 X1.1516 Y-32.4177
G01 X1.1544 Y-32.4369
G01 X1.1566 Y-32.4469
G01 X1.1614 Y-32.4657
G01 X1.1678 Y-32.4839
G01 X1.1716 Y-32.4935
G01 X1.1799 Y-32.5110
G01 X1.1931 Y-32.5336
G01 X1.2084 Y-32.5549
G01 X1.2258 Y-32.5745
G01 X1.2449 Y-32.5924
G01 X1.2658 Y-32.6083
G01 X1.2881 Y-32.6220
G01 X1.3116 Y-32.6335
G01 X1.3362 Y-32.6427
G01 X1.3615 Y-32.6494
G01 X1.3874 Y-32.6535
G01 X1.4136 Y-32.6552
G01 X1.4398 Y-32.6542
G01 X1.4657 Y-32.6507
G01 X1.4912 Y-32.6447
G01 X1.5160 Y-32.6362
G01 X1.5398 Y-32.6253
G01 X1.5489 Y-32.6203
G01 X1.5654 Y-32.6102
G01 X1.5864 Y-32.5946
G01 X1.6058 Y-32.5770
G01 X1.6190 Y-32.5628
G01 X1.6256 Y-32.5549
G01 X1.6409 Y-32.5336
G01 X1.6509 Y-32.5170
G01 X1.6556 Y-32.5079
G01 X1.6637 Y-32.4903
G01 X1.7093 Y-32.3803
G01 X1.8144 Y-32.2231
G01 X1.9481 Y-32.0894
G01 X2.1053 Y-31.9843
G01 X2.2800 Y-31.9120
G01 X2.4655 Y-31.8751
G01 X2.6545 Y-31.8751
G01 X2.8400 Y-31.9120
G01 X3.0147 Y-31.9843
G01 X3.1719 Y-32.0894
G01 X3.3056 Y-32.2231
G01 X3.4107 Y-32.3803
G01 X3.4830 Y-32.5550
G01 X3.5199 Y-32.7405
G01 X3.5199 Y-32.9295
G01 X3.4994 Y-33.0328
G01 X3.4962 Y-33.0554
G01 X3.4949 Y-33.0815
G01 X3.4949 Y-36.1471
G01 X3.4959 Y-36.1699
G01 X3.4971 Y-36.1801
G01 X3.5001 Y-36.1992
G01 X3.5064 Y-36.2246
G01 X3.5128 Y-36.2429
G01 X3.5166 Y-36.2525
G01 X3.5249 Y-36.2700
G01 X3.5299 Y-36.2790
G01 X3.5399 Y-36.2955
G01 X3.5513 Y-36.3111
G01 X3.5578 Y-36.3192
G01 X3.5708 Y-36.3335
G01 X4.7765 Y-37.5392
G01 X4.7935 Y-37.5544
G01 X4.8145 Y-37.5701
G01 X4.8370 Y-37.5835
G01 X4.8607 Y-37.5947
G01 X4.8854 Y-37.6036
G01 X4.9108 Y-37.6099
G01 X4.9367 Y-37.6138
G01 X4.9629 Y-37.6151
G01 X5.2004 Y-37.6151
G01 X5.2265 Y-37.6138
G01 X5.2525 Y-37.6099
G01 X5.2779 Y-37.6036
G01 X5.3026 Y-37.5947
G01 X5.3201 Y-37.5866
G01 X5.3293 Y-37.5819
G01 X5.3487 Y-37.5701
G01 X5.3644 Y-37.5587
G01 X5.3724 Y-37.5522
G01 X5.3867 Y-37.5392
G01 X5.4596 Y-37.4664
G01 X5.4748 Y-37.4494
G01 X5.4885 Y-37.4312
G01 X5.4941 Y-37.4226
G01 X5.5055 Y-37.4028
G01 X5.5151 Y-37.3822
G01 X5.5229 Y-37.3608
G01 X5.5288 Y-37.3388
G01 X5.5309 Y-37.3287
G01 X5.5341 Y-37.3062
G01 X5.5354 Y-37.2834
G01 X5.5346 Y-37.2607
G01 X5.5333 Y-37.2470
G01 X5.5303 Y-37.2279
G01 X5.5239 Y-37.2025
G01 X5.5151 Y-37.1778
G01 X5.5070 Y-37.1602
G01 X5.5022 Y-37.1511
G01 X5.4904 Y-37.1316
G01 X5.4748 Y-37.1106
G01 X5.4596 Y-37.0936
G01 X5.2748 Y-36.9088
G01 X5.1205 Y-36.6779
G01 X5.0142 Y-36.4213
G01 X4.9601 Y-36.1489
G01 X4.9601 Y-35.8711
G01 X5.0142 Y-35.5987
G01 X5.1205 Y-35.3421
G01 X5.2748 Y-35.1112
G01 X5.4712 Y-34.9148
G01 X5.6884 Y-34.7697
G01 X5.7067 Y-34.7559
G01 X5.7262 Y-34.7382
G01 X5.7439 Y-34.7186
G01 X5.7556 Y-34.7031
G01 X5.7614 Y-34.6945
G01 X5.7731 Y-34.6748
G01 X5.7843 Y-34.6509
G01 X5.7909 Y-34.6326
G01 X5.7949 Y-34.6194
G01 X5.7999 Y-34.5974
G01 X6.0069 Y-34.3904
G01 X6.0826 Y-34.4174
G01 X6.1769 Y-34.4410
G01 X6.2730 Y-34.4552
G01 X6.3700 Y-34.4600
G01 X6.4670 Y-34.4552
G01 X6.5631 Y-34.4410
G01 X6.6574 Y-34.4174
G01 X6.7331 Y-34.3905
G01 X6.9402 Y-34.5980
G01 X6.9460 Y-34.6227
G01 X6.9533 Y-34.6444
G01 X6.9571 Y-34.6541
G01 X6.9639 Y-34.6686
G01 X6.9703 Y-34.6808
G01 X6.9804 Y-34.6974
G01 X6.9961 Y-34.7186
G01 X7.0138 Y-34.7382
G01 X7.0307 Y-34.7537
G01 X7.0387 Y-34.7602
G01 X7.0545 Y-34.7716
G01 X7.2688 Y-34.9148
G01 X7.4536 Y-35.0996
G01 X7.4706 Y-35.1148
G01 X7.4888 Y-35.1285
G01 X7.5081 Y-35.1405
G01 X7.5202 Y-35.1470
G01 X7.5378 Y-35.1551
G01 X7.5625 Y-35.1639
G01 X7.5845 Y-35.1696
G01 X7.5947 Y-35.1715
G01 X7.6138 Y-35.1741
G01 X7.6400 Y-35.1754
G01 X7.6628 Y-35.1744
G01 X7.6730 Y-35.1733
G01 X7.6921 Y-35.1703
G01 X7.7175 Y-35.1639
G01 X7.7422 Y-35.1551
G01 X7.7598 Y-35.1470
G01 X7.7719 Y-35.1405
G01 X7.7912 Y-35.1285
G01 X7.8094 Y-35.1148
G01 X7.8264 Y-35.0996
G01 X8.0112 Y-34.9148
G01 X8.2255 Y-34.7716
G01 X8.2413 Y-34.7602
G01 X8.2493 Y-34.7537
G01 X8.2662 Y-34.7382
G01 X8.2839 Y-34.7186
G01 X8.2996 Y-34.6974
G01 X8.3097 Y-34.6808
G01 X8.3161 Y-34.6686
G01 X8.3229 Y-34.6541
G01 X8.3267 Y-34.6444
G01 X8.3340 Y-34.6227
G01 X8.3399 Y-34.5974
G01 X8.5469 Y-34.3904
G01 X8.6226 Y-34.4174
G01 X8.7169 Y-34.4410
G01 X8.8130 Y-34.4552
G01 X8.9100 Y-34.4600
G01 X9.0070 Y-34.4552
G01 X9.1031 Y-34.4410
G01 X9.1974 Y-34.4174
G01 X9.2731 Y-34.3905
G01 X9.4802 Y-34.5980
G01 X9.4851 Y-34.6194
G01 X9.4891 Y-34.6326
G01 X9.4957 Y-34.6509
G01 X9.5069 Y-34.6748
G01 X9.5186 Y-34.6945
G01 X9.5244 Y-34.7031
G01 X9.5361 Y-34.7186
G01 X9.5538 Y-34.7382
G01 X9.5733 Y-34.7559
G01 X9.5916 Y-34.7697
G01 X9.8088 Y-34.9148
G01 X10.0052 Y-35.1112
G01 X10.1595 Y-35.3421
G01 X10.2658 Y-35.5987
G01 X10.3199 Y-35.8711
G01 X10.3199 Y-36.1489
G01 X10.2658 Y-36.4213
G01 X10.1595 Y-36.6779
G01 X10.0052 Y-36.9088
G01 X9.8204 Y-37.0936
G01 X9.8052 Y-37.1106
G01 X9.7935 Y-37.1260
G01 X9.7877 Y-37.1345
G01 X9.7761 Y-37.1541
G01 X9.7649 Y-37.1778
G01 X9.7582 Y-37.1960
G01 X9.7551 Y-37.2058
G01 X9.7491 Y-37.2313
G01 X9.7462 Y-37.2504
G01 X9.7454 Y-37.2607
G01 X9.7446 Y-37.2800
G01 X9.7454 Y-37.2993
G01 X9.7462 Y-37.3096
G01 X9.7485 Y-37.3253
G01 X9.7504 Y-37.3355
G01 X9.7551 Y-37.3542
G01 X9.7636 Y-37.3790
G01 X9.7730 Y-37.3998
G01 X9.7795 Y-37.4119
G01 X9.7896 Y-37.4284
G01 X9.8052 Y-37.4494
G01 X9.8228 Y-37.4688
G01 X9.8933 Y-37.5392
G01 X9.9076 Y-37.5522
G01 X9.9156 Y-37.5587
G01 X9.9313 Y-37.5701
G01 X9.9507 Y-37.5819
G01 X9.9599 Y-37.5866
G01 X9.9774 Y-37.5947
G01 X9.9956 Y-37.6014
G01 X10.0054 Y-37.6045
G01 X10.0275 Y-37.6099
G01 X10.0466 Y-37.6129
G01 X10.0569 Y-37.6141
G01 X10.0762 Y-37.6150
G01 X10.3171 Y-37.6151
G01 X10.3399 Y-37.6141
G01 X10.3501 Y-37.6129
G01 X10.3692 Y-37.6099
G01 X10.3880 Y-37.6054
G01 X10.3979 Y-37.6025
G01 X10.4161 Y-37.5960
G01 X10.4256 Y-37.5919
G01 X10.4430 Y-37.5835
G01 X10.4597 Y-37.5737
G01 X10.4683 Y-37.5681
G01 X10.4839 Y-37.5566
G01 X10.4917 Y-37.5500
G01 X10.5060 Y-37.5368
G01 X11.7092 Y-36.3335
G01 X11.7222 Y-36.3192
G01 X11.7287 Y-36.3111
G01 X11.7401 Y-36.2955
G01 X11.7501 Y-36.2790
G01 X11.7551 Y-36.2700
G01 X11.7634 Y-36.2525
G01 X11.7672 Y-36.2429
G01 X11.7736 Y-36.2246
G01 X11.7799 Y-36.1992
G01 X11.7829 Y-36.1801
G01 X11.7841 Y-36.1699
G01 X11.7851 Y-36.1471
G01 X11.7851 Y-33.7165
G01 X11.7838 Y-33.6904
G01 X11.7806 Y-33.6678
G01 X11.7601 Y-33.5645
G01 X11.7601 Y-33.3755
G01 X11.7970 Y-33.1900
G01 X11.8693 Y-33.0153
G01 X11.9744 Y-32.8581
G01 X12.1081 Y-32.7244
G01 X12.2653 Y-32.6193
G01 X12.4400 Y-32.5470
G01 X12.6255 Y-32.5101
G01 X12.8145 Y-32.5101
G01 X13.0000 Y-32.5470
G01 X13.1746 Y-32.6193
G01 X13.3323 Y-32.7247
G01 X13.4656 Y-32.8581
G01 X13.5707 Y-33.0153
G01 X13.6430 Y-33.1900
G01 X13.6799 Y-33.3755
G01 X13.6799 Y-33.5645
G01 X13.6594 Y-33.6678
G01 X13.6562 Y-33.6904
G01 X13.6549 Y-33.7165
G01 X13.6549 Y-36.5860
G01 X13.6559 Y-36.6087
G01 X13.6595 Y-36.6450
G01 X13.6414 Y-36.8283
G01 X13.5879 Y-37.0045
G01 X13.5011 Y-37.1669
G01 X13.3843 Y-37.3093
G01 X13.3561 Y-37.3325
G01 X13.3394 Y-37.3478
G01 X11.5179 Y-39.1693
G01 X11.5025 Y-39.1861
G01 X11.4793 Y-39.2143
G01 X11.3369 Y-39.3311
G01 X11.1745 Y-39.4179
G01 X10.9983 Y-39.4714
G01 X10.8150 Y-39.4895
G01 X10.7787 Y-39.4859
G01 X10.7560 Y-39.4849
G01 X10.0762 Y-39.4850
G01 X10.0535 Y-39.4862
G01 X10.0275 Y-39.4901
G01 X10.0021 Y-39.4964
G01 X9.9774 Y-39.5053
G01 X9.9568 Y-39.5149
G01 X9.9478 Y-39.5199
G01 X9.9313 Y-39.5299
G01 X9.9102 Y-39.5456
G01 X9.8908 Y-39.5632
G01 X9.8228 Y-39.6312
G01 X9.8052 Y-39.6506
G01 X9.7896 Y-39.6716
G01 X9.7761 Y-39.6941
G01 X9.7649 Y-39.7178
G01 X9.7571 Y-39.7392
G01 X9.7542 Y-39.7491
G01 X9.7497 Y-39.7679
G01 X9.7467 Y-39.7870
G01 X9.7456 Y-39.7972
G01 X9.7446 Y-39.8166
G01 X9.7447 Y-39.8269
G01 X9.7459 Y-39.8462
G01 X9.7485 Y-39.8653
G01 X9.7504 Y-39.8755
G01 X9.7551 Y-39.8942
G01 X9.7582 Y-39.9040
G01 X9.7649 Y-39.9222
G01 X9.7730 Y-39.9398
G01 X9.7778 Y-39.9489
G01 X9.7877 Y-39.9655
G01 X9.7935 Y-39.9740
G01 X9.8052 Y-39.9894
G01 X9.8228 Y-40.0088
G01 X9.8933 Y-40.0792
G01 X9.9102 Y-40.0944
G01 X9.9313 Y-40.1101
G01 X9.9507 Y-40.1219
G01 X9.9599 Y-40.1266
G01 X9.9774 Y-40.1347
G01 X10.0021 Y-40.1436
G01 X10.0242 Y-40.1492
G01 X10.0343 Y-40.1511
G01 X10.0535 Y-40.1538
G01 X10.0762 Y-40.1550
G01 X17.5535 Y-40.1551
G01 X17.5796 Y-40.1538
G01 X17.6022 Y-40.1506
G01 X17.7055 Y-40.1301
G01 X17.8945 Y-40.1301
G01 X18.0800 Y-40.1670
G01 X18.2547 Y-40.2393
G01 X18.4119 Y-40.3444
G01 X18.5456 Y-40.4781
G01 X18.6507 Y-40.6353
G01 X18.7230 Y-40.8100
G01 X18.7599 Y-40.9955
G01 X18.7599 Y-41.1845
G01 X18.7230 Y-41.3700
G01 X18.6507 Y-41.5447
G01 X18.5456 Y-41.7019
G01 X18.4119 Y-41.8356
G01 X18.2547 Y-41.9407
G01 X18.0800 Y-42.0130
G01 X17.8945 Y-42.0499
G01 X17.7055 Y-42.0499
G01 X17.6022 Y-42.0294
G01 X17.5796 Y-42.0262
G01 X17.5535 Y-42.0249
G01 X10.0796 Y-42.0249
G01 X10.0603 Y-42.0257
G01 X10.0500 Y-42.0266
G01 X10.0275 Y-42.0301
G01 X10.0054 Y-42.0355
G01 X9.9956 Y-42.0386
G01 X9.9774 Y-42.0453
G01 X9.9568 Y-42.0549
G01 X9.9371 Y-42.0663
G01 X9.9256 Y-42.0739
G01 X9.9102 Y-42.0856
G01 X9.8933 Y-42.1008
G01 X9.8204 Y-42.1736
G01 X9.8052 Y-42.1906
G01 X9.7935 Y-42.2060
G01 X9.7877 Y-42.2145
G01 X9.7761 Y-42.2341
G01 X9.7649 Y-42.2578
G01 X9.7582 Y-42.2760
G01 X9.7551 Y-42.2858
G01 X9.7497 Y-42.3079
G01 X9.7462 Y-42.3304
G01 X9.7454 Y-42.3407
G01 X9.7446 Y-42.3600
G01 X9.7456 Y-42.3828
G01 X9.7467 Y-42.3930
G01 X9.7504 Y-42.4155
G01 X9.7561 Y-42.4375
G01 X9.7624 Y-42.4558
G01 X9.7663 Y-42.4654
G01 X9.7761 Y-42.4859
G01 X9.7877 Y-42.5055
G01 X9.7935 Y-42.5140
G01 X9.8052 Y-42.5294
G01 X9.8204 Y-42.5464
G01 X9.8908 Y-42.6168
G01 X9.9102 Y-42.6344
G01 X9.9256 Y-42.6461
G01 X9.9341 Y-42.6519
G01 X9.9537 Y-42.6635
G01 X9.9712 Y-42.6719
G01 X9.9806 Y-42.6760
G01 X10.0021 Y-42.6836
G01 X10.0242 Y-42.6892
G01 X10.0343 Y-42.6911
G01 X10.0535 Y-42.6938
G01 X10.0762 Y-42.6950
G01 X20.4771 Y-42.6951
G01 X20.4964 Y-42.6943
G01 X20.5067 Y-42.6934
G01 X20.5258 Y-42.6906
G01 X20.5359 Y-42.6884
G01 X20.5546 Y-42.6836
G01 X20.5729 Y-42.6772
G01 X20.5825 Y-42.6734
G01 X20.6000 Y-42.6651
G01 X20.6197 Y-42.6537
G01 X20.6311 Y-42.6461
G01 X20.6465 Y-42.6344
G01 X20.6660 Y-42.6168
G01 X22.5042 Y-40.7785
G01 X22.5194 Y-40.7615
G01 X22.5331 Y-40.7433
G01 X22.5451 Y-40.7240
G01 X22.5516 Y-40.7119
G01 X22.5597 Y-40.6943
G01 X22.5686 Y-40.6696
G01 X22.5749 Y-40.6442
G01 X22.5784 Y-40.6217
G01 X22.5793 Y-40.6114
G01 X22.5801 Y-40.5921
G01 X22.5801 Y-34.9399
G01 X22.5788 Y-34.9137
G01 X22.5761 Y-34.8945
G01 X22.5734 Y-34.8811
G01 X22.5675 Y-34.8591
G01 X22.5597 Y-34.8377
G01 X22.5516 Y-34.8201
G01 X22.5469 Y-34.8110
G01 X22.5351 Y-34.7915
G01 X22.5216 Y-34.7731
G01 X22.5150 Y-34.7652
G01 X22.5018 Y-34.7510
G01 X22.4824 Y-34.7334
G01 X22.4642 Y-34.7197
G01 X22.4556 Y-34.7141
G01 X22.4389 Y-34.7043
G01 X22.4152 Y-34.6931
G01 X22.3938 Y-34.6853
G01 X22.3839 Y-34.6825
G01 X22.3651 Y-34.6779
G01 X22.3426 Y-34.6745
G01 X22.3164 Y-34.6728
G01 X22.2902 Y-34.6738
G01 X22.2643 Y-34.6773
G01 X22.2421 Y-34.6825
G01 X22.2322 Y-34.6853
G01 X22.2108 Y-34.6931
G01 X22.0067 Y-34.7777
G01 X21.7439 Y-34.8299
G01 X21.4761 Y-34.8299
G01 X21.2133 Y-34.7777
G01 X20.9658 Y-34.6752
G01 X20.7431 Y-34.5263
G01 X20.5537 Y-34.3369
G01 X20.4048 Y-34.1142
G01 X20.3023 Y-33.8667
G01 X20.2501 Y-33.6039
G01 X20.2501 Y-33.3361
G01 X20.3023 Y-33.0733
